%
o0000
(MACH3 MILL - )
(AUTHOR - {SCOTT SHAFER}) g0 ( second comment )
(GROUP - TOOLPATH GROUP #1)
(SYSTEM- ONECNC-XR2 MILL ADVANTAGE - VERSION 8.12)
(NOTES - NONE)
g0 g40 g49 g50 g80 g94
g64 P0.01 Q0.0
(.1875 INCH 3/16 HSS END MILL ) ( )
t4 m06 g43 h4
s3411.0 f25.0 m3 m07
g4 p3
g00 x14.9375 y1.4106 z0.1
z0.05
g01 x14.9358 y1.3786 z0.0466 f25.0
x14.9376 y1.3149 z0.0399
x14.9445 y1.2515 z0.0332
x14.9564 y1.1889 z0.0265
x14.9734 y1.1275 z0.0198
x15.0049 y1.0575 z0.0118
x15.0484 y0.9943 z0.0037
x15.1023 y0.9398 z-0.0044
x15.1652 y0.8957 z-0.0124
x15.2348 y0.8636 z-0.0205
x15.309 y0.8443 z-0.0285
x15.3096
x15.3101
x15.3106
x15.3111
x15.3116
x15.3121 y0.8437
x15.3812 y0.8329 z-0.0362
x15.4511 y0.8279 z-0.0436
x15.521 y0.8289 z-0.0509
x15.5907 y0.8357 z-0.0583
x15.6595 y0.8485 z-0.0656
x15.727 y0.867 z-0.073
x15.7772 y0.8886 z-0.0787
x15.8244 y0.9161 z-0.0845
x15.8681 y0.9489 z-0.0902
x15.9075 y0.9868 z-0.096
x15.9422 y1.029 z-0.1017
x15.9716 y1.0751 z-0.1075
x15.9907 y1.125 z-0.1131
x16.0061 y1.1762 z-0.1187
x16.0176 y1.2284 z-0.1243
x16.0252 y1.2813 z-0.1299
x16.0288 y1.3346 z-0.1356
x16.0285 y1.3881 z-0.1412
y1.3892 z-0.1413
y1.3904 z-0.1414
y1.3916 z-0.1415
y1.3927 z-0.1417
y1.3939 z-0.1418
y1.3951 z-0.1419
y1.4324 z-0.1458
x16.0257 y1.4697 z-0.1498
x16.0206 y1.5067 z-0.1537
x16.0129 y1.5432 z-0.1576
x16.0028 y1.5791 z-0.1615
x15.9902 y1.6143 z-0.1655
x15.9644 y1.6626 z-0.1712
x15.9323 y1.707 z-0.177
x15.8944 y1.7466 z-0.1827
x15.8515 y1.7806 z-0.1885
x15.8044 y1.8086 z-0.1942
x15.7539 y1.8298 z-0.2
x15.7528 y1.8321
x15.7032 y1.6737
g02 x15.774 y1.6404 i-0.2085 j-0.5347
x15.8954 y1.5145 i-0.1426 j-0.259
x15.8975 y1.51 i-0.082 j-0.0413
x15.9282 y1.3633 i-0.3348 j-0.1466
x15.9265 y1.3279 i-0.3655 j0.
x15.7966 y1.093 i-0.3039 j0.0147
x15.7932 y1.0908 i-0.0525 j0.0753
x15.7109 y1.053 i-0.1808 j0.2853
x15.7106 y1.0529 i-0.0268 j0.0878
x15.5152 y1.0242 i-0.1953 j0.6498
x15.504 y1.0243 i0. j0.6786
x15.4724 y1.0236 i-0.0316 j0.7607
x15.2779 y1.0489 i0. j0.7614
x15.2769 y1.0492 i0.0235 j0.0888
x15.0392 y1.3379 i0.0864 j0.3134
x15.0372 y1.3736 i0.3169 j0.0357
x15.177 y1.6375 i0.3189 j0.
x15.1812 y1.6402 i0.0516 j-0.076
x15.1955 y1.6484 i0.2005 j-0.3335
g01 x15.1604 y1.811
g03 x15.0225 y1.6965 i0.215 j-0.3991
x14.9465 y1.5092 i0.3306 j-0.2432
g02 x14.946 y1.5057 i-0.0909 j0.0125
g03 x14.934 y1.3683 i0.7786 j-0.1374
x14.9717 y1.1269 i0.7906 j0.
x15.3087 y0.8425 i0.4079 j0.1414
g02 x15.3117 y0.8419 i-0.0151 j-0.0906
g03 x15.4747 y0.8257 i0.163 j0.8121
x15.7276 y0.8653 i0. j0.8283
x15.9732 y1.0743 i-0.1566 j0.4329
x16.031 y1.357 i-0.6628 j0.2826
x16.0303 y1.3881 i-0.7206 j0.
g02 x16.0302 y1.3921 i0.0917 j0.004
x16.0302 y1.395 i0.0918 j0.
g03 x16.0305 y1.4125 i-0.55 j0.0175
x15.9919 y1.615 i-0.5503 j0.
x15.7528 y1.8321 i-0.3683 j-0.1654
g00 z0.1
x15.4885 y2.9641
z0.05
g01 x15.4473 y2.9418 z0.0451
x15.4016 y2.9063 z0.039
x15.3623 y2.8637 z0.0329
x15.3376 y2.8231 z0.0279
x15.3171 y2.7803 z0.0229
x15.301 y2.7355 z0.0179
x15.2895 y2.6894 z0.0129
x15.2827 y2.6424 z0.0079
x15.2806 y2.595 z0.0029
y2.5938 z0.0028
y2.5926 z0.0027
y2.5914 z0.0026
y2.5901 z0.0024
y2.5889 z0.0023
y2.5877 z0.0022
x15.2793 y2.5398 z-0.0029
x15.2831 y2.492 z-0.0079
x15.2915 y2.4447 z-0.0129
x15.3045 y2.3986 z-0.018
x15.3221 y2.3539 z-0.023
x15.344 y2.3113 z-0.0281
x15.3808 y2.2621 z-0.0345
x15.4255 y2.22 z-0.041
x15.4769 y2.1863 z-0.0474
x15.5333 y2.162 z-0.0539
x15.5931 y2.1479 z-0.0603
x15.6544 y2.1443 z-0.0668
x15.655
x15.6557
x15.6563
x15.6569
x15.6575
x15.6581
x15.7238 y2.1495 z-0.0741
x15.7875 y2.1666 z-0.0811
x15.8469 y2.1951 z-0.088
x15.9002 y2.2338 z-0.0949
x15.9456 y2.2816 z-0.1018
x15.9815 y2.3369 z-0.1088
x16.0067 y2.3978 z-0.1157
x16.0204 y2.4623 z-0.1226
y2.463
y2.4637
y2.4644
x16.0208 y2.4651
x16.0209 y2.4658
x15.999 y2.7624
x16.021 y2.4665
x16.0272 y2.516 z-0.1283
x16.0294 y2.5659 z-0.1336
x16.0277 y2.6157 z-0.1388
x16.022 y2.6653 z-0.144
x16.0124 y2.7143 z-0.1493
x15.999 y2.7624 z-0.1545
x15.9742 y2.818 z-0.1609
x15.9402 y2.8684 z-0.1673
x15.8978 y2.9122 z-0.1737
x15.8485 y2.9479 z-0.1801
x15.7937 y2.9745 z-0.1865
x15.7352 y2.9911 z-0.1929
x15.6746 y2.9973 z-0.1993
x15.6735 z-0.1994
x15.6725 z-0.1995
x15.6714 z-0.1997
x15.6703 z-0.1998
x15.6693 z-0.1999
x15.6682 z-0.2
x15.6398 y2.656
g03 x15.6391 y2.6561 i-0.0007 j-0.0083
x15.6368 y2.6558 i0. j-0.0084
x15.6233 y2.5979 i0.117 j-0.0578
x15.6233 y2.5971 i0.1305 j0.
g02 x15.6233 y2.5944 i-0.436 j-0.0027
x15.6222 y2.5634 i-0.436 j0.
g03 x15.6219 y2.5534 i0.1414 j-0.0101
x15.6369 y2.4899 i0.1417 j0.
x15.6445 y2.4869 i0.0076 j0.0079
x15.6448 y2.4869 i0. j0.011
g02 x15.657 y2.487 i0.0122 j-0.4359
x15.6623 y2.487 i0. j-0.436
g03 x15.6625 y2.487 i0.0002 j0.0177
x15.6801 y2.5026 i0. j0.0177
g02 x15.6828 y2.5223 i0.433 j-0.0513
g03 x15.6867 y2.569 i-0.2834 j0.0467
x15.6745 y2.6518 i-0.2873 j0.
x15.6697 y2.6546 i-0.0048 j-0.0028
g02 x15.6398 y2.656 i0.0062 j0.436
g01 x15.6455 y2.7246
g03 x15.6391 y2.7249 i-0.0064 j-0.077
x15.5832 y2.701 i0. j-0.0772
x15.5545 y2.5979 i0.1707 j-0.1031
x15.5545 y2.5967 i0.1994 j0.
g02 x15.5545 y2.5944 i-0.3672 j-0.0023
x15.5536 y2.5683 i-0.3672 j0.
g03 x15.553 y2.5534 i0.2101 j-0.015
x15.5787 y2.4526 i0.2106 j0.
x15.6445 y2.418 i0.0658 j0.0453
x15.6467 y2.418 i0. j0.0799
g02 x15.657 y2.4182 i0.0103 j-0.3671
x15.6614 y2.4182 i0. j-0.3672
g03 x15.6625 y2.4182 i0.001 j0.0866
x15.7484 y2.4945 i0. j0.0866
g02 x15.7508 y2.5111 i0.3646 j-0.0432
g03 x15.7555 y2.569 i-0.3514 j0.058
x15.7393 y2.6751 i-0.3561 j0.
x15.6707 y2.7234 i-0.0697 j-0.0261
g02 x15.6455 y2.7246 i0.0052 j0.3672
g01 x15.6569 y2.8619
g03 x15.6391 y2.8626 i-0.0178 j-0.2142
x15.4724 y2.7833 i0. j-0.2149
x15.4168 y2.5979 i0.2815 j-0.1854
x15.4168 y2.5958 i0.3371 j0.
g02 x15.4168 y2.5944 i-0.2295 j-0.0014
x15.4162 y2.5781 i-0.2295 j0.
g03 x15.4153 y2.5534 i0.3474 j-0.0247
x15.4608 y2.3813 i0.3483 j0.
x15.6445 y2.2803 i0.1837 j0.1166
x15.6506 y2.2804 i0. j0.2176
g02 x15.657 y2.2805 i0.0064 j-0.2294
x15.6598 y2.2805 i0. j-0.2295
g03 x15.6625 y2.2805 i0.0027 j0.2243
x15.8852 y2.4783 i0. j0.2243
g02 x15.8866 y2.4886 i0.2279 j-0.027
g03 x15.8932 y2.569 i-0.4872 j0.0804
x15.8698 y2.7192 i-0.4938 j0.
x15.6727 y2.8611 i-0.2002 j-0.0702
g02 x15.6569 y2.8619 i0.0033 j0.2295
g01 x15.6683 y2.9991
g03 x15.6391 y3.0003 i-0.0293 j-0.3514
x15.3611 y2.8646 i0. j-0.3526
x15.2791 y2.5979 i0.3928 j-0.2667
x15.2791 y2.5949 i0.4748 j0.
g02 x15.2791 y2.5944 i-0.0918 j-0.0006
x15.2789 y2.5879 i-0.0918 j0.
g03 x15.2776 y2.5534 i0.4848 j-0.0345
x15.3427 y2.3105 i0.486 j0.
x15.6445 y2.1426 i0.3018 j0.1874
x15.6545 y2.1428 i0. j0.3553
g02 x15.657 y2.1428 i0.0026 j-0.0918
x15.6581 y2.1428 i0. j-0.0918
g03 x15.6625 y2.1428 i0.0043 j0.3619
x16.0219 y2.4621 i0. j0.362
g02 x16.0225 y2.4662 i0.0912 j-0.0108
g03 x16.0309 y2.569 i-0.6231 j0.1028
x16.0004 y2.7628 i-0.6315 j0.
x15.6746 y2.9988 i-0.3308 j-0.1138
g02 x15.6683 y2.9991 i0.0013 j0.0918
g00 z0.1
x15.4748 y4.1126
z0.05
g01 x15.4726 y4.1116 z0.0497
x15.4219 y4.0783 z0.0434
x15.3779 y4.0366 z0.037
x15.3419 y3.9878 z0.0306
x15.315 y3.9334 z0.0242
x15.2985 y3.8789 z0.0183
x15.2871 y3.8231 z0.0123
x15.2807 y3.7666 z0.0063
x15.2795 y3.7096 z0.0003
x15.2834 y3.6528 z-0.0057
x15.2926 y3.5966 z-0.0117
y3.5962
y3.5958
y3.5954
y3.595
y3.5945
y3.5941
x15.3098 y3.5329 z-0.0186
x15.3371 y3.4756 z-0.0253
x15.374 y3.424 z-0.0319
x15.4194 y3.3797 z-0.0386
x15.472 y3.3441 z-0.0453
x15.5299 y3.3182 z-0.0519
x15.5915 y3.303 z-0.0586
x15.6549 y3.2989 z-0.0653
x15.6557
x15.6564
x15.6572
x15.658
x15.6588
x15.9934 y3.5204
x15.6595 y3.2988
x15.7203 y3.3025 z-0.0722
x15.7795 y3.3168 z-0.0786
x15.8354 y3.3411 z-0.085
x15.8861 y3.3748 z-0.0914
x15.9302 y3.4168 z-0.0978
x15.9663 y3.4658 z-0.1042
x15.9933 y3.5204 z-0.1106
x16.0103 y3.5745 z-0.1166
x16.0221 y3.63 z-0.1225
x16.0286 y3.6863 z-0.1285
x16.0298 y3.743 z-0.1344
x16.0257 y3.7996 z-0.1404
x16.0162 y3.8555 z-0.1464
x16.0161 y3.8561
x16.0159 y3.8567
x16.0158 y3.8574
x16.0157 y3.858
x16.0156 y3.8586
x16.0155 y3.8593
x15.999 y3.9204 z-0.1534
x15.9719 y3.9776 z-0.1601
x15.9351 y4.0292 z-0.1667
x15.8897 y4.0733 z-0.1734
x15.8372 y4.1087 z-0.18
x15.7792 y4.1341 z-0.1867
x15.7176 y4.1488 z-0.1933
x15.6544 y4.1524 z-0.2
x15.6659 y3.8098
g02 x15.6513 y3.8096 i-0.0146 j0.4358
x15.6355 y3.8099 i0. j0.436
g03 x15.635 y3.8098 i0. j-0.001
x15.622 y3.7249 i0.2708 j-0.0849
x15.628 y3.6668 i0.2838 j0.
g02 x15.6303 y3.6551 i-0.4268 j-0.0892
g03 x15.6466 y3.6415 i0.0163 j0.0029
x15.647 y3.6415 i0. j0.0166
g02 x15.657 y3.6416 i0.01 j-0.4359
x15.6687 y3.6415 i0. j-0.436
g03 x15.6689 y3.6415 i0.0001 j0.0055
x15.6735 y3.644 i0. j0.0055
x15.6873 y3.7273 i-0.2452 j0.0833
x15.6813 y3.7825 i-0.259 j0.
g02 x15.6779 y3.8001 i0.426 j0.0929
g03 x15.6663 y3.8098 i-0.0116 j-0.002
x15.6659 y3.8098 i0. j-0.0118
g01 x15.6636 y3.8786
g02 x15.6513 y3.8784 i-0.0123 j0.367
x15.638 y3.8787 i0. j0.3672
g03 x15.6354 y3.8787 i-0.0025 j-0.0698
x15.5715 y3.8372 i0. j-0.0699
x15.5532 y3.7249 i0.3343 j-0.1123
x15.5606 y3.6527 i0.3526 j0.
g02 x15.5626 y3.6429 i-0.3594 j-0.0752
g03 x15.6466 y3.5726 i0.0841 j0.0152
x15.6486 y3.5727 i0. j0.0854
g02 x15.657 y3.5728 i0.0084 j-0.3671
x15.6669 y3.5726 i0. j-0.3672
g03 x15.6689 y3.5726 i0.002 j0.0744
x15.7374 y3.6179 i0. j0.0744
x15.7561 y3.7273 i-0.3091 j0.1094
x15.7486 y3.7971 i-0.3278 j0.
g02 x15.7457 y3.812 i0.3588 j0.0782
g03 x15.6663 y3.8787 i-0.0794 j-0.0139
x15.6636 y3.8786 i0. j-0.0806
g01 x15.659 y4.0163
g02 x15.6513 y4.0161 i-0.0077 j0.2294
x15.643 y4.0163 i0. j0.2295
g03 x15.6354 y4.0164 i-0.0075 j-0.2074
x15.4427 y3.8859 i0. j-0.2076
x15.4155 y3.7249 i0.4631 j-0.1611
x15.4259 y3.6245 i0.4903 j0.
g02 x15.4271 y3.6184 i-0.2246 j-0.047
g03 x15.6466 y3.4349 i0.2196 j0.0397
x15.6517 y3.435 i0. j0.2231
g02 x15.657 y3.4351 i0.0053 j-0.2294
x15.6632 y3.435 i0. j-0.2295
g03 x15.6689 y3.4349 i0.0057 j0.212
x15.866 y3.5687 i0. j0.2121
x15.8938 y3.7273 i-0.4377 j0.1586
x15.8832 y3.8265 i-0.4655 j0.
g02 x15.8813 y3.8358 i0.2242 j0.0489
g03 x15.6663 y4.0164 i-0.2151 j-0.0377
x15.659 y4.0163 i0. j-0.2183
g01 x15.6544 y4.1539
g02 x15.6513 y4.1538 i-0.0031 j0.0917
x15.648 y4.1539 i0. j0.0918
g03 x15.6354 y4.1541 i-0.0125 j-0.3451
x15.3136 y3.9339 i0. j-0.3453
x15.2778 y3.7249 i0.5922 j-0.2091
x15.2911 y3.5963 i0.628 j0.
g02 x15.2916 y3.5939 i-0.0899 j-0.0188
g03 x15.6466 y3.2972 i0.3551 j0.0642
x15.6549 y3.2973 i0. j0.3608
g02 x15.657 y3.2974 i0.0021 j-0.0918
x15.6595 y3.2973 i0. j-0.0918
g03 x15.6689 y3.2972 i0.0094 j0.3497
x15.9948 y3.5199 i0. j0.3498
x16.0315 y3.7273 i-0.5665 j0.2074
x16.0177 y3.8558 i-0.6032 j0.
g02 x16.017 y3.8595 i0.0897 j0.0196
g03 x15.6663 y4.1541 i-0.3507 j-0.0615
x15.6544 y4.1539 i0. j-0.356
g00 z0.1
x14.9547 y4.5798
z0.05
g01 y4.5 z0.0416
x16.0108 z-0.0694
y4.6592 z-0.0861
x15.8699 z-0.1009
x15.8576 y4.66 z-0.1022
x15.8456 y4.6625 z-0.1035
x15.8339 y4.6665 z-0.1048
x15.823 y4.6721 z-0.1061
x15.8128 y4.679 z-0.1074
x15.8037 y4.6873 z-0.1087
x15.6802 y4.8149 z-0.1273
x15.6695 y4.8282 z-0.1291
x15.6615 y4.8433 z-0.1309
x15.6564 y4.8595 z-0.1327
x15.6543 y4.8765 z-0.1345
x15.6554 y4.8935 z-0.1363
x15.6597 y4.91 z-0.1381
x15.6669 y4.9255 z-0.1399
x15.6768 y4.9393 z-0.1417
x15.6891 y4.9512 z-0.1435
x15.7034 y4.9605 z-0.1453
x16.0108 y5.123 z-0.1818
y5.296 z-0.2
x16.0112 y5.2967
x15.5668 y5.0343
g02 x15.5202 y5.0216 i-0.0467 j0.079
x15.4541 y5.0496 i0. j0.0918
g01 x15.2978 y5.2113
y5.0522
x15.5579 y4.8198
g02 x15.5885 y4.7514 i-0.0612 j-0.0685
x15.4967 y4.6596 i-0.0918 j0.
g01 x14.9543
y4.4997
x16.0112
y4.6596
x15.8699
g02 x15.8039 y4.6875 i0. j0.0918
g01 x15.6805 y4.8152
g02 x15.6547 y4.879 i0.066 j0.0638
x15.7036 y4.9602 i0.0918 j0.
g01 x16.0112 y5.1228
y5.2967
g00 z0.1
x15.2982 y9.7213
z0.05
g01 y9.6707 z0.0447
x15.5582 y9.4384 z0.008
x15.5698 y9.4259 z0.0062
x15.5789 y9.4115 z0.0044
x15.5852 y9.3956 z0.0027
x15.5885 y9.3788 z0.0009
x15.5886 y9.3618 z-0.0009
x15.5855 y9.3449 z-0.0027
x15.5795 y9.329 z-0.0045
x15.5705 y9.3144 z-0.0063
x15.5591 y9.3018 z-0.0081
x15.5455 y9.2914 z-0.0099
x15.5302 y9.2838 z-0.0117
x15.5138 y9.2791 z-0.0135
x15.4967 y9.2775 z-0.0153
x14.9547 z-0.0723
y9.1184 z-0.089
x16.0108 z-0.2
x16.0112 y9.118
y9.2779
x15.8699
g02 x15.8039 y9.3059 i0. j0.0918
g01 x15.6805 y9.4335
g02 x15.6547 y9.4973 i0.066 j0.0638
x15.7036 y9.5785 i0.0918 j0.
g01 x16.0112 y9.7411
y9.915
x15.5668 y9.6526
g02 x15.5202 y9.6399 i-0.0467 j0.079
x15.4541 y9.6679 i0. j0.0918
g01 x15.2978 y9.8296
y9.6705
x15.5579 y9.4382
g02 x15.5885 y9.3697 i-0.0612 j-0.0685
x15.4967 y9.2779 i-0.0918 j0.
g01 x14.9543
y9.118
x16.0112
g00 z0.1
x15.832 y7.9608
z0.05
g01 x15.8469 y7.968 z0.0483
x15.9002 y8.0067 z0.0413
x15.9456 y8.0545 z0.0344
x15.9815 y8.1098 z0.0275
x16.0067 y8.1707 z0.0206
x16.0204 y8.2352 z0.0136
y8.2359
y8.2366
y8.2373
x16.0208 y8.238
x16.0209 y8.2387
x15.999 y8.5353
x16.021 y8.2394
x16.0272 y8.2889 z0.0079
x16.0294 y8.3388 z0.0027
x16.0277 y8.3886 z-0.0026
x16.022 y8.4382 z-0.0078
x16.0124 y8.4872 z-0.013
x15.999 y8.5353 z-0.0183
x15.9742 y8.5909 z-0.0247
x15.9402 y8.6413 z-0.0311
x15.8978 y8.6851 z-0.0375
x15.8485 y8.7208 z-0.0439
x15.7937 y8.7474 z-0.0503
x15.7352 y8.764 z-0.0567
x15.6746 y8.7702 z-0.0631
x15.6735 z-0.0632
x15.6725 z-0.0633
x15.6714 z-0.0634
x15.6703 z-0.0635
x15.6693 z-0.0636
x15.6682 z-0.0638
x15.6103 z-0.0699
x15.5531 y8.761 z-0.0759
x15.4983 y8.7422 z-0.082
x15.4473 y8.7147 z-0.0881
x15.4016 y8.6792 z-0.0942
x15.3623 y8.6366 z-0.1003
x15.3376 y8.596 z-0.1053
x15.3171 y8.5532 z-0.1103
x15.301 y8.5084 z-0.1153
x15.2895 y8.4623 z-0.1203
x15.2827 y8.4153 z-0.1253
x15.2806 y8.3679 z-0.1303
y8.3667 z-0.1304
y8.3655 z-0.1305
y8.3643 z-0.1306
y8.3631 z-0.1308
y8.3618 z-0.1309
y8.3607 z-0.131
x15.2793 y8.3127 z-0.1361
x15.2831 y8.2649 z-0.1411
x15.2915 y8.2176 z-0.1461
x15.3045 y8.1715 z-0.1512
x15.3221 y8.1268 z-0.1562
x15.344 y8.0842 z-0.1613
x15.3808 y8.035 z-0.1677
x15.4255 y7.9929 z-0.1742
x15.4769 y7.9592 z-0.1806
x15.5333 y7.9349 z-0.1871
x15.5931 y7.9208 z-0.1935
x15.6544 y7.9172 z-0.2
x15.6448 y8.2598
g02 x15.657 y8.2599 i0.0122 j-0.4359
x15.6623 y8.2599 i0. j-0.436
g03 x15.6625 y8.2599 i0.0002 j0.0177
x15.6801 y8.2755 i0. j0.0177
g02 x15.6828 y8.2952 i0.433 j-0.0513
g03 x15.6867 y8.3419 i-0.2834 j0.0467
x15.6745 y8.4247 i-0.2873 j0.
x15.6697 y8.4275 i-0.0048 j-0.0028
g02 x15.6398 y8.4289 i0.0062 j0.436
g03 x15.6391 y8.429 i-0.0007 j-0.0083
x15.6368 y8.4287 i0. j-0.0084
x15.6233 y8.3708 i0.117 j-0.0578
x15.6233 y8.37 i0.1305 j0.
g02 x15.6233 y8.3673 i-0.436 j-0.0027
x15.6222 y8.3363 i-0.436 j0.
g03 x15.6219 y8.3263 i0.1414 j-0.0101
x15.6369 y8.2628 i0.1417 j0.
x15.6445 y8.2598 i0.0076 j0.0079
x15.6448 y8.2598 i0. j0.011
g01 x15.6467 y8.1909
g02 x15.657 y8.1911 i0.0103 j-0.3671
x15.6614 y8.1911 i0. j-0.3672
g03 x15.6625 y8.1911 i0.001 j0.0866
x15.7484 y8.2674 i0. j0.0866
g02 x15.7508 y8.284 i0.3646 j-0.0432
g03 x15.7555 y8.3419 i-0.3514 j0.058
x15.7393 y8.448 i-0.3561 j0.
x15.6707 y8.4963 i-0.0697 j-0.0261
g02 x15.6455 y8.4975 i0.0052 j0.3672
g03 x15.6391 y8.4978 i-0.0064 j-0.077
x15.5832 y8.4739 i0. j-0.0772
x15.5545 y8.3708 i0.1707 j-0.1031
x15.5545 y8.3696 i0.1994 j0.
g02 x15.5545 y8.3673 i-0.3672 j-0.0023
x15.5536 y8.3412 i-0.3672 j0.
g03 x15.553 y8.3263 i0.2101 j-0.015
x15.5787 y8.2255 i0.2106 j0.
x15.6445 y8.1909 i0.0658 j0.0453
x15.6467 y8.1909 i0. j0.0799
g01 x15.6506 y8.0533
g02 x15.657 y8.0534 i0.0064 j-0.2294
x15.6598 y8.0534 i0. j-0.2295
g03 x15.6625 y8.0534 i0.0027 j0.2243
x15.8852 y8.2512 i0. j0.2243
g02 x15.8866 y8.2615 i0.2279 j-0.027
g03 x15.8932 y8.3419 i-0.4872 j0.0804
x15.8698 y8.4921 i-0.4938 j0.
x15.6727 y8.634 i-0.2002 j-0.0702
g02 x15.6569 y8.6348 i0.0033 j0.2295
g03 x15.6391 y8.6355 i-0.0178 j-0.2142
x15.4724 y8.5562 i0. j-0.2149
x15.4168 y8.3708 i0.2815 j-0.1854
x15.4168 y8.3687 i0.3371 j0.
g02 x15.4168 y8.3673 i-0.2295 j-0.0014
x15.4162 y8.351 i-0.2295 j0.
g03 x15.4153 y8.3263 i0.3474 j-0.0247
x15.4608 y8.1542 i0.3483 j0.
x15.6445 y8.0532 i0.1837 j0.1166
x15.6506 y8.0533 i0. j0.2176
g01 x15.6545 y7.9157
g02 x15.657 y7.9157 i0.0026 j-0.0918
x15.6581 y7.9157 i0. j-0.0918
g03 x15.6625 y7.9157 i0.0043 j0.3619
x16.0219 y8.235 i0. j0.362
g02 x16.0225 y8.2391 i0.0912 j-0.0108
g03 x16.0309 y8.3419 i-0.6231 j0.1028
x16.0004 y8.5357 i-0.6315 j0.
x15.6746 y8.7717 i-0.3308 j-0.1138
g02 x15.6683 y8.772 i0.0013 j0.0918
g03 x15.6391 y8.7732 i-0.0293 j-0.3514
x15.3611 y8.6375 i0. j-0.3526
x15.2791 y8.3708 i0.3928 j-0.2667
x15.2791 y8.3678 i0.4748 j0.
g02 x15.2791 y8.3673 i-0.0918 j-0.0006
x15.2789 y8.3608 i-0.0918 j0.
g03 x15.2776 y8.3263 i0.4848 j-0.0345
x15.3427 y8.0834 i0.486 j0.
x15.6445 y7.9155 i0.3018 j0.1874
x15.6545 y7.9157 i0. j0.3553
g00 z0.1
x15.832 y6.8062
z0.05
g01 x15.8469 y6.8134 z0.0483
x15.9002 y6.8521 z0.0413
x15.9456 y6.9 z0.0344
x15.9815 y6.9552 z0.0275
x16.0067 y7.0161 z0.0206
x16.0204 y7.0806 z0.0136
y7.0813
y7.082
y7.0827
x16.0208 y7.0834
x16.0209 y7.0841
x15.999 y7.3807
x16.021 y7.0848
x16.0272 y7.1343 z0.0079
x16.0294 y7.1842 z0.0027
x16.0277 y7.2341 z-0.0026
x16.022 y7.2836 z-0.0078
x16.0124 y7.3326 z-0.013
x15.999 y7.3807 z-0.0183
x15.9742 y7.4363 z-0.0247
x15.9402 y7.4867 z-0.0311
x15.8978 y7.5305 z-0.0375
x15.8485 y7.5662 z-0.0439
x15.7937 y7.5928 z-0.0503
x15.7352 y7.6094 z-0.0567
x15.6746 y7.6156 z-0.0631
x15.6735 z-0.0632
x15.6725 z-0.0633
x15.6714 z-0.0634
x15.6703 z-0.0635
x15.6693 z-0.0636
x15.6682 z-0.0638
x15.6103 z-0.0699
x15.5531 y7.6064 z-0.0759
x15.4983 y7.5877 z-0.082
x15.4473 y7.5601 z-0.0881
x15.4016 y7.5246 z-0.0942
x15.3623 y7.482 z-0.1003
x15.3376 y7.4414 z-0.1053
x15.3171 y7.3986 z-0.1103
x15.301 y7.3539 z-0.1153
x15.2895 y7.3078 z-0.1203
x15.2827 y7.2607 z-0.1253
x15.2806 y7.2133 z-0.1303
y7.2121 z-0.1304
y7.2109 z-0.1305
y7.2097 z-0.1306
y7.2085 z-0.1308
y7.2073 z-0.1309
y7.2061 z-0.131
x15.2793 y7.1581 z-0.1361
x15.2831 y7.1103 z-0.1411
x15.2915 y7.0631 z-0.1461
x15.3045 y7.0169 z-0.1512
x15.3221 y6.9723 z-0.1562
x15.344 y6.9296 z-0.1613
x15.3808 y6.8804 z-0.1677
x15.4255 y6.8383 z-0.1742
x15.4769 y6.8047 z-0.1806
x15.5333 y6.7804 z-0.1871
x15.5931 y6.7662 z-0.1935
x15.6544 y6.7626 z-0.2
x15.6448 y7.1052
g02 x15.657 y7.1054 i0.0122 j-0.4359
x15.6623 y7.1053 i0. j-0.436
g03 x15.6625 y7.1053 i0.0002 j0.0177
x15.6801 y7.121 i0. j0.0177
g02 x15.6828 y7.1406 i0.433 j-0.0513
g03 x15.6867 y7.1873 i-0.2834 j0.0467
x15.6745 y7.2701 i-0.2873 j0.
x15.6697 y7.2729 i-0.0048 j-0.0028
g02 x15.6398 y7.2743 i0.0062 j0.436
g03 x15.6391 y7.2744 i-0.0007 j-0.0083
x15.6368 y7.2741 i0. j-0.0084
x15.6233 y7.2162 i0.117 j-0.0578
x15.6233 y7.2154 i0.1305 j0.
g02 x15.6233 y7.2127 i-0.436 j-0.0027
x15.6222 y7.1817 i-0.436 j0.
g03 x15.6219 y7.1717 i0.1414 j-0.0101
x15.6369 y7.1083 i0.1417 j0.
x15.6445 y7.1052 i0.0076 j0.0079
x15.6448 y7.1052 i0. j0.011
g01 x15.6467 y7.0364
g02 x15.657 y7.0365 i0.0103 j-0.3671
x15.6614 y7.0365 i0. j-0.3672
g03 x15.6625 y7.0365 i0.001 j0.0866
x15.7484 y7.1129 i0. j0.0866
g02 x15.7508 y7.1294 i0.3646 j-0.0432
g03 x15.7555 y7.1873 i-0.3514 j0.058
x15.7393 y7.2935 i-0.3561 j0.
x15.6707 y7.3417 i-0.0697 j-0.0261
g02 x15.6455 y7.343 i0.0052 j0.3672
g03 x15.6391 y7.3432 i-0.0064 j-0.077
x15.5832 y7.3193 i0. j-0.0772
x15.5545 y7.2162 i0.1707 j-0.1031
x15.5545 y7.215 i0.1994 j0.
g02 x15.5545 y7.2127 i-0.3672 j-0.0023
x15.5536 y7.1866 i-0.3672 j0.
g03 x15.553 y7.1717 i0.2101 j-0.015
x15.5787 y7.071 i0.2106 j0.
x15.6445 y7.0363 i0.0658 j0.0453
x15.6467 y7.0364 i0. j0.0799
g01 x15.6506 y6.8987
g02 x15.657 y6.8988 i0.0064 j-0.2294
x15.6598 y6.8988 i0. j-0.2295
g03 x15.6625 y6.8988 i0.0027 j0.2243
x15.8852 y7.0966 i0. j0.2243
g02 x15.8866 y7.107 i0.2279 j-0.027
g03 x15.8932 y7.1873 i-0.4872 j0.0804
x15.8698 y7.3375 i-0.4938 j0.
x15.6727 y7.4794 i-0.2002 j-0.0702
g02 x15.6569 y7.4802 i0.0033 j0.2295
g03 x15.6391 y7.4809 i-0.0178 j-0.2142
x15.4724 y7.4017 i0. j-0.2149
x15.4168 y7.2162 i0.2815 j-0.1854
x15.4168 y7.2141 i0.3371 j0.
g02 x15.4168 y7.2127 i-0.2295 j-0.0014
x15.4162 y7.1964 i-0.2295 j0.
g03 x15.4153 y7.1717 i0.3474 j-0.0247
x15.4608 y6.9996 i0.3483 j0.
x15.6445 y6.8986 i0.1837 j0.1166
x15.6506 y6.8987 i0. j0.2176
g01 x15.6545 y6.7611
g02 x15.657 y6.7611 i0.0026 j-0.0918
x15.6581 y6.7611 i0. j-0.0918
g03 x15.6625 y6.7611 i0.0043 j0.3619
x16.0219 y7.0804 i0. j0.362
g02 x16.0225 y7.0846 i0.0912 j-0.0108
g03 x16.0309 y7.1873 i-0.6231 j0.1028
x16.0004 y7.3812 i-0.6315 j0.
x15.6746 y7.6171 i-0.3308 j-0.1138
g02 x15.6683 y7.6174 i0.0013 j0.0918
g03 x15.6391 y7.6186 i-0.0293 j-0.3514
x15.3611 y7.4829 i0. j-0.3526
x15.2791 y7.2162 i0.3928 j-0.2667
x15.2791 y7.2133 i0.4748 j0.
g02 x15.2791 y7.2127 i-0.0918 j-0.0006
x15.2789 y7.2062 i-0.0918 j0.
g03 x15.2776 y7.1717 i0.4848 j-0.0345
x15.3427 y6.9288 i0.486 j0.
x15.6445 y6.7609 i0.3018 j0.1874
x15.6545 y6.7611 i0. j0.3553
g00 z0.1
x16.01 y5.7842
z0.05
g01 y5.7879 z0.0496
x15.9718 z0.0456
x15.9555 y5.7894 z0.0439
x15.9397 y5.7936 z0.0422
x15.925 y5.8006 z0.0404
x15.9116 y5.81 z0.0387
x15.9002 y5.8216 z0.037
x15.8909 y5.835 z0.0353
x15.8841 y5.8499 z0.0336
x15.88 y5.8657 z0.0319
x15.8788 y5.882 z0.0301
x15.8804 y5.8982 z0.0284
x15.8849 y5.9139 z0.0267
x15.892 y5.9286 z0.025
x15.9016 y5.9419 z0.0233
x15.9133 y5.9532 z0.0216
x15.9237 y5.9618 z0.0201
x15.9339 y5.9707 z0.0187
x15.9438 y5.9798 z0.0173
x15.9536 y5.9892 z0.0159
x15.9631 y5.9988 z0.0145
x15.9723 y6.0087 z0.013
x15.9724 y6.0088
x15.9725 y6.0089
x15.9727 y6.009
x15.9781 y6.0152 z0.0121
x15.9833 y6.0215 z0.0113
x15.9882 y6.028 z0.0104
x15.9929 y6.0348 z0.0095
x15.9973 y6.0417 z0.0087
x16.0015 y6.0488 z0.0078
x16.0193 y6.0952 z0.0026
x16.0286 y6.1441 z-0.0026
x16.029 y6.1939 z-0.0079
x16.0206 y6.243 z-0.0131
x16.0035 y6.2897 z-0.0183
x15.9784 y6.3327 z-0.0236
x15.9565 y6.3567 z-0.027
x15.9322 y6.3784 z-0.0304
x15.9059 y6.3974 z-0.0338
x15.8777 y6.4137 z-0.0372
x15.8481 y6.4271 z-0.0407
x15.8172 y6.4373 z-0.0441
x15.8171
x15.817
x15.8168
x15.8167
x15.8166
x15.4734 y6.4383
x15.8164 y6.4375
x15.7601 y6.4509 z-0.0502
x15.7028 y6.459 z-0.0563
x15.6449 y6.4618 z-0.0624
x15.5871 y6.4593 z-0.0685
x15.5298 y6.4514 z-0.0746
x15.4734 y6.4383 z-0.0807
x15.4289 y6.4207 z-0.0857
x15.3883 y6.3956 z-0.0907
x15.3526 y6.3638 z-0.0957
x15.3231 y6.3262 z-0.1008
x15.3006 y6.284 z-0.1058
x15.2858 y6.2386 z-0.1108
x15.2791 y6.1912 z-0.1158
x15.2809 y6.1435 z-0.1209
y6.1427
y6.1418
y6.141
y6.1402
y6.1394
y6.1385
x15.2855 y6.1077 z-0.1247
x15.2934 y6.0776 z-0.1279
x15.3049 y6.0487 z-0.1312
x15.3199 y6.0214 z-0.1345
x15.3382 y5.9962 z-0.1377
x15.3594 y5.9734 z-0.141
x15.3706 y5.9607 z-0.1428
x15.3794 y5.946 z-0.1446
x15.3853 y5.9301 z-0.1464
x15.3881 y5.9133 z-0.1482
x15.3879 y5.8963 z-0.15
x15.3846 y5.8796 z-0.1517
x15.3783 y5.8638 z-0.1535
x15.3692 y5.8494 z-0.1553
x15.3577 y5.8369 z-0.1571
x15.3441 y5.8267 z-0.1589
x15.3288 y5.8192 z-0.1607
x15.3124 y5.8145 z-0.1625
x15.2955 y5.813 z-0.1643
x14.9555 z-0.2
x14.9591 y5.8141
x15.2955
g03 x15.3873 y5.9059 i0. j0.0918
x15.3759 y5.9501 i-0.0918 j0.
g01 x15.6389 y6.0359
g02 x15.7409 y6.1665 i0.3329 j-0.155
g03 x15.7475 y6.1719 i-0.1687 j0.2087
x15.7441 y6.173 i-0.0154 j-0.0423
g02 x15.7409 y6.1739 i0.0979 j0.3539
g03 x15.6435 y6.1876 i-0.0973 j-0.3396
x15.5532 y6.1759 i0. j-0.3533
g02 x15.5542 y6.1665 i-0.3646 j-0.0439
x15.6389 y6.0359 i-0.2587 j-0.2606
g01 x15.4946 y5.7919
x15.7602
g02 x15.7423 y5.8809 i0.2116 j0.089
x15.8275 y6.0594 i0.2295 j0.
g03 x15.8716 y6.1009 i-0.2553 j0.3158
g02 x15.8725 y6.1018 i0.1692 j-0.155
g03 x15.8806 y6.1124 i-0.0506 j0.0469
x15.8934 y6.1714 i-0.1289 j0.059
x15.8698 y6.2497 i-0.1417 j0.
x15.7808 y6.3057 i-0.1377 j-0.12
g02 x15.7788 y6.3063 i0.0612 j0.2212
g03 x15.6435 y6.3253 i-0.1353 j-0.472
x15.5115 y6.3072 i0. j-0.491
x15.4153 y6.1772 i0.0397 j-0.13
x15.4164 y6.1604 i0.1359 j0.
g02 x15.4176 y6.1482 i-0.2277 j-0.0284
g03 x15.4533 y6.0726 i0.1151 j0.0082
g02 x15.525 y5.9059 i-0.1578 j-0.1666
x15.4946 y5.7919 i-0.2295 j0.
g01 x14.9543 y5.8141
y5.6542
x16.0112
y5.7891
x15.9718
g02 x15.88 y5.8809 i0. j0.0918
x15.914 y5.9523 i0.0918 j0.
g03 x15.9732 y6.0079 i-0.3419 j0.4229
g02 x15.9735 y6.0082 i0.0677 j-0.062
g03 x16.0025 y6.0482 i-0.1516 j0.1404
x16.0311 y6.1714 i-0.2508 j0.1232
x15.9793 y6.3334 i-0.2794 j0.
x15.8175 y6.4384 i-0.2472 j-0.2037
g02 x15.8167 y6.4387 i0.0245 j0.0885
g03 x15.6435 y6.463 i-0.1732 j-0.6044
x15.473 y6.4395 i0. j-0.6287
x15.2776 y6.1772 i0.0782 j-0.2622
x15.2797 y6.1433 i0.2736 j0.
g02 x15.2802 y6.1385 i-0.0911 j-0.0114
g03 x15.3586 y5.9726 i0.2524 j0.0179
g02 x15.3873 y5.9059 i-0.0631 j-0.0666
x15.2955 y5.8141 i-0.0918 j0.
g01 x14.9543
g00 z0.1
x13.1105 y6.6935
z0.05
g01 x13.0938 y6.7139 z0.0472
x13.0657 y6.7637 z0.0412
x13.0467 y6.8176 z0.0352
x13.0374 y6.874 z0.0292
x13.0361 y6.932 z0.0231
x13.0453 y6.9892 z0.017
x13.0647 y7.0439 z0.0109
x13.0936 y7.0942 z0.0048
x13.1311 y7.1384 z-0.0013
x13.176 y7.1752 z-0.0074
x13.1767 y7.1757
x13.1774 y7.1762
x13.1781 y7.1766
x13.1788 y7.1771
x13.1796 y7.1775
x13.1803 y7.178
x13.1825 y7.1793 z-0.0082
x13.1847 y7.1806 z-0.0084
x13.1869 y7.1818 z-0.0087
x13.1891 y7.1831 z-0.009
x13.1913 y7.1843 z-0.0092
x13.1935 y7.1856 z-0.0095
x13.1591 y7.3445 z-0.0266
x13.1337 y7.3295 z-0.0297
x13.1093 y7.3129 z-0.0328
x13.086 y7.2947 z-0.0359
x13.064 y7.2751 z-0.039
x13.0433 y7.254 z-0.0421
x13.024 y7.2317 z-0.0452
x13.0051 y7.2036 z-0.0488
x12.9885 y7.174 z-0.0523
x12.9745 y7.1431 z-0.0559
x12.9631 y7.1112 z-0.0595
x12.9543 y7.0785 z-0.063
x12.9483 y7.0452 z-0.0666
y7.0446
y7.044
y7.0434
y7.0428
y7.0422
x12.9478 y7.0416
x12.9392 y6.9785 z-0.0737
x12.9358 y6.9148 z-0.0804
x12.9376 y6.8511 z-0.0871
x12.9445 y6.7878 z-0.0938
x12.9564 y6.7252 z-0.1005
x12.9734 y6.6637 z-0.1072
x13.0049 y6.5938 z-0.1152
x13.0484 y6.5305 z-0.1233
x13.1023 y6.476 z-0.1313
x13.1652 y6.432 z-0.1394
x13.2348 y6.3998 z-0.1475
x13.309 y6.3805 z-0.1555
x13.3096
x13.3101
x13.3106
x13.3111
x13.3116
x13.3121 y6.38
x13.3812 y6.3691 z-0.1632
x13.4511 y6.3642 z-0.1706
x13.521 y6.3651 z-0.1779
x13.5907 y6.372 z-0.1853
x13.6595 y6.3847 z-0.1926
x13.727 y6.4033 z-0.2
x13.7276 y6.4015
g03 x13.9732 y6.6106 i-0.1566 j0.4329
x14.031 y6.8932 i-0.6628 j0.2826
x14.0303 y6.9244 i-0.7206 j0.
g02 x14.0302 y6.9284 i0.0917 j0.004
x14.0302 y6.9313 i0.0918 j0.
g03 x14.0305 y6.9488 i-0.55 j0.0175
x13.9919 y7.1513 i-0.5503 j0.
x13.7528 y7.3684 i-0.3683 j-0.1654
g01 x13.7032 y7.21
g02 x13.774 y7.1766 i-0.2085 j-0.5347
x13.8954 y7.0507 i-0.1426 j-0.259
x13.8975 y7.0462 i-0.082 j-0.0413
x13.9282 y6.8996 i-0.3348 j-0.1466
x13.9265 y6.8642 i-0.3655 j0.
x13.7966 y6.6293 i-0.3039 j0.0147
x13.7932 y6.6271 i-0.0525 j0.0753
x13.7109 y6.5893 i-0.1808 j0.2853
x13.7106 y6.5892 i-0.0268 j0.0878
x13.5152 y6.5605 i-0.1953 j0.6498
x13.504 y6.5605 i0. j0.6786
x13.4724 y6.5599 i-0.0316 j0.7607
x13.2779 y6.5852 i0. j0.7614
x13.2769 y6.5854 i0.0235 j0.0888
x13.0392 y6.8742 i0.0864 j0.3134
x13.0372 y6.9099 i0.3169 j0.0357
x13.177 y7.1737 i0.3189 j0.
x13.1812 y7.1764 i0.0516 j-0.076
x13.1955 y7.1846 i0.2005 j-0.3335
g01 x13.1604 y7.3472
g03 x13.0225 y7.2328 i0.215 j-0.3991
x12.9465 y7.0454 i0.3306 j-0.2432
g02 x12.946 y7.042 i-0.0909 j0.0125
g03 x12.934 y6.9045 i0.7786 j-0.1374
x12.9717 y6.6632 i0.7906 j0.
x13.3087 y6.3787 i0.4079 j0.1414
g02 x13.3117 y6.3782 i-0.0151 j-0.0906
g03 x13.4747 y6.362 i0.163 j0.8121
x13.7276 y6.4015 i0. j0.8283
g00 z0.1
x13.3221 y5.9779
z0.05
g01 x12.9547 z0.0114
y5.7997 z-0.0073
x13.5501 z-0.0699
x13.5668 y5.7981 z-0.0717
x13.5829 y5.7936 z-0.0734
x13.5979 y5.7863 z-0.0752
x13.6113 y5.7764 z-0.077
x13.6228 y5.7642 z-0.0787
x13.6318 y5.7502 z-0.0805
x13.6382 y5.7347 z-0.0822
x13.6417 y5.7184 z-0.084
x13.6421 y5.7016 z-0.0857
x13.6396 y5.6851 z-0.0875
x13.6341 y5.6693 z-0.0893
x13.6258 y5.6548 z-0.091
x13.615 y5.642 z-0.0928
x13.6021 y5.6314 z-0.0945
x12.9547 y5.1887 z-0.177
y4.9695 z-0.2
x13.7735 y5.7602
x13.8735 y5.8286
y5.8406
x13.7371
g02 x13.7735 y5.7602 i-0.187 j-0.1331
g01 x13.092 y5.1068
x13.2321
g02 x13.1957 y5.1872 i0.187 j0.1331
g01 x13.092 y5.1163
y5.1068
x12.9543 y4.9691
x14.0112
y5.1481
x13.4191
g02 x13.3273 y5.2399 i0. j0.0918
x13.3673 y5.3157 i0.0918 j0.
g01 x14.0112 y5.7559
y5.9783
x12.9543
y5.7993
x13.5501
g02 x13.6419 y5.7075 i0. j-0.0918
x13.6019 y5.6317 i-0.0918 j0.
g01 x12.9543 y5.1889
y4.9691
g00 z0.1
x13.8668 y4.3129
z0.05
g01 x13.8823 y4.2912 z0.0472
x13.897 y4.2653 z0.0441
x13.8974 y4.2645
x13.8977 y4.2638
x13.8981 y4.263
x13.8984 y4.2622
x13.8988 y4.2615
x13.8991 y4.2607
x13.9104 y4.2316 z0.0403
x13.9192 y4.2017 z0.037
x13.9254 y4.1711 z0.0337
x13.929 y4.1401 z0.0304
x13.93 y4.1089 z0.0271
x13.9283 y4.0778 z0.0239
x13.9225 y4.0316 z0.019
x13.9098 y3.9868 z0.0141
x13.8904 y3.9445 z0.0092
x13.8648 y3.9056 z0.0043
x13.8337 y3.871 z-0.0006
x13.7976 y3.8416 z-0.0055
x13.7971 y3.8412
x13.7965 y3.8408
x13.7959 y3.8404
x13.7953 y3.84
x13.7948 y3.8396
x13.7942 y3.8393
x13.7812 y3.8314 z-0.0075
x13.7678 y3.8241 z-0.0091
x13.7541 y3.8175 z-0.0107
x13.7401 y3.8115 z-0.0123
x13.7259 y3.806 z-0.0139
x13.7114 y3.8013 z-0.0155
x13.7113
x13.7112
x13.7111
x13.6773 y3.792 z-0.0192
x13.6432 y3.7845 z-0.0229
x13.6087 y3.7788 z-0.0266
x13.5739 y3.7749 z-0.0303
x13.539 y3.7728 z-0.0339
x13.504 y3.7725 z-0.0376
x13.4659 y3.7719 z-0.0416
x13.4278 y3.7731 z-0.0456
x13.3898 y3.7763 z-0.0496
x13.352 y3.7814 z-0.0536
x13.3145 y3.7883 z-0.0577
x13.2774 y3.7972 z-0.0617
x13.2773
x13.2771
x13.2769
x13.2768
x13.2766
x13.2765
x13.2229 y3.8174 z-0.0678
x13.1736 y3.8464 z-0.0738
x13.1301 y3.8835 z-0.0798
x13.0938 y3.9276 z-0.0858
x13.0657 y3.9774 z-0.0918
x13.0467 y4.0313 z-0.0978
x13.0374 y4.0877 z-0.1038
x13.0361 y4.1457 z-0.1099
x13.0453 y4.203 z-0.116
x13.0647 y4.2576 z-0.1221
x13.0936 y4.3079 z-0.1282
x13.1311 y4.3522 z-0.1343
x13.176 y4.389 z-0.1404
x13.1767 y4.3894
x13.1774 y4.3899
x13.1781 y4.3904
x13.1788 y4.3908
x13.1796 y4.3913
x13.1803 y4.3917
x13.1825 y4.393 z-0.1412
x13.1847 y4.3943 z-0.1415
x13.1869 y4.3956 z-0.1417
x13.1891 y4.3968 z-0.142
x13.1913 y4.3981 z-0.1423
x13.1935 y4.3993 z-0.1425
x13.1591 y4.5582 z-0.1596
x13.1337 y4.5433 z-0.1627
x13.1093 y4.5266 z-0.1658
x13.086 y4.5085 z-0.1689
x13.064 y4.4888 z-0.1721
x13.0433 y4.4678 z-0.1752
x13.024 y4.4454 z-0.1783
x13.0051 y4.4173 z-0.1818
x12.9885 y4.3877 z-0.1854
x12.9745 y4.3569 z-0.1889
x12.9631 y4.325 z-0.1925
x12.9543 y4.2923 z-0.1961
x12.9483 y4.2589 z-0.1996
y4.2583
y4.2577
y4.2571
y4.2566
y4.256
x12.9478 y4.2554
x12.946 y4.2557
g03 x12.934 y4.1183 i0.7786 j-0.1374
x12.9717 y3.8769 i0.7906 j0.
x13.3087 y3.5925 i0.4079 j0.1414
g02 x13.3117 y3.5919 i-0.0151 j-0.0906
g03 x13.4747 y3.5757 i0.163 j0.8121
x13.7276 y3.6153 i0. j0.8283
x13.9732 y3.8243 i-0.1566 j0.4329
x14.031 y4.107 i-0.6628 j0.2826
x14.0303 y4.1381 i-0.7206 j0.
g02 x14.0302 y4.1421 i0.0917 j0.004
x14.0302 y4.145 i0.0918 j0.
g03 x14.0305 y4.1625 i-0.55 j0.0175
x13.9919 y4.365 i-0.5503 j0.
x13.7528 y4.5821 i-0.3683 j-0.1654
g01 x13.7032 y4.4237
g02 x13.774 y4.3904 i-0.2085 j-0.5347
x13.8954 y4.2645 i-0.1426 j-0.259
x13.8975 y4.26 i-0.082 j-0.0413
x13.9282 y4.1133 i-0.3348 j-0.1466
x13.9265 y4.0779 i-0.3655 j0.
x13.7966 y3.843 i-0.3039 j0.0147
x13.7932 y3.8408 i-0.0525 j0.0753
x13.7109 y3.803 i-0.1808 j0.2853
x13.7106 y3.8029 i-0.0268 j0.0878
x13.5152 y3.7742 i-0.1953 j0.6498
x13.504 y3.7743 i0. j0.6786
x13.4724 y3.7736 i-0.0316 j0.7607
x13.2779 y3.7989 i0. j0.7614
x13.2769 y3.7992 i0.0235 j0.0888
x13.0392 y4.0879 i0.0864 j0.3134
x13.0372 y4.1236 i0.3169 j0.0357
x13.177 y4.3875 i0.3189 j0.
x13.1812 y4.3902 i0.0516 j-0.076
x13.1955 y4.3984 i0.2005 j-0.3335
g01 x13.1604 y4.561
g03 x13.0225 y4.4465 i0.215 j-0.3991
x12.9465 y4.2592 i0.3306 j-0.2432
g02 x12.946 y4.2557 i-0.0909 j0.0125
g00 z0.1
x3.8174 y4.5445
z0.05
g01 x3.7997 y4.5549 z0.0478
x3.7993 y4.5551
x3.7989 y4.5553
x3.7985 y4.5555
x3.7981 y4.5557
x3.7977 y4.5559
x3.7974 y4.5561
x3.7972
x3.797
x3.7968
x3.7966
x3.7964
x3.7963
x3.7623 y4.3993 z0.0305
x3.7792 y4.3892 z0.0284
x3.7954 y4.3779 z0.0264
x3.8109 y4.3655 z0.0243
x3.8254 y4.3522 z0.0222
x3.839 y4.3378 z0.0201
x3.8516 y4.3226 z0.0181
x3.8517 y4.3224
x3.8519 y4.3222
x3.852 y4.322
x3.8522 y4.3219
x3.8523 y4.3217
x3.8524 y4.3215
x3.8859 y4.2668 z0.0112
x3.9085 y4.2069 z0.0044
x3.9195 y4.1437 z-0.0023
x3.9185 y4.0797 z-0.009
x3.9055 y4.0169 z-0.0158
x3.8811 y3.9577 z-0.0225
x3.8808 y3.9572
x3.8805 y3.9567
x3.8803 y3.9562
x3.88 y3.9557
x3.8797 y3.9552
x3.6382 y3.7871
x3.8794 y3.9547
x3.8511 y3.9128 z-0.0282
x3.8169 y3.8756 z-0.0335
x3.7776 y3.8438 z-0.0388
x3.7341 y3.8181 z-0.0441
x3.6873 y3.7991 z-0.0494
x3.6382 y3.7871 z-0.0547
x3.5734 y3.7777 z-0.0616
x3.5082 y3.7729 z-0.0685
x3.4428 y3.7727 z-0.0754
x3.3775 y3.7773 z-0.0822
x3.3128 y3.7865 z-0.0891
x3.2488 y3.8003 z-0.096
x3.2486
x3.2483
x3.2481
x3.2478
x3.2475
x3.2473
x3.2006 y3.8177 z-0.1014
x3.1575 y3.8422 z-0.1066
x3.1191 y3.8737 z-0.1118
x3.0866 y3.9112 z-0.117
x3.0607 y3.9536 z-0.1222
x3.0424 y3.9997 z-0.1274
y3.9999
y4.0001
y4.0004
y4.0006
y4.0008
x3.0347 y4.192
x3.042 y4.001
x3.0343 y4.0323 z-0.131
x3.0293 y4.064 z-0.1344
x3.0267 y4.0961 z-0.1377
y4.1282 z-0.1411
x3.0294 y4.1603 z-0.1445
x3.0347 y4.192 z-0.1479
x3.0438 y4.2276 z-0.1517
x3.0574 y4.2617 z-0.1556
x3.0753 y4.2938 z-0.1595
x3.0973 y4.3233 z-0.1633
x3.1228 y4.3497 z-0.1672
x3.1515 y4.3726 z-0.171
x3.1517 y4.3727
x3.1519 y4.3728
x3.152 y4.373
x3.1676 y4.3832 z-0.1731
x3.1835 y4.3929 z-0.175
x3.1998 y4.402 z-0.177
x3.2164 y4.4105 z-0.1789
x3.2333 y4.4183 z-0.1809
x3.2505 y4.4255 z-0.1829
x3.2018 y4.5811 z-0.2
x3.2028 y4.5833
g03 x3.0456 y4.4845 i0.172 j-0.4482
x2.9312 y4.2332 i0.2817 j-0.28
g02 x2.9308 y4.2295 i-0.0916 j0.0066
g03 x2.925 y4.1265 i0.9055 j-0.1029
x2.9552 y3.8937 i0.9113 j0.
x3.1072 y3.683 i0.3771 j0.1118
g02 x3.1086 y3.682 i-0.0526 j-0.0753
g03 x3.3862 y3.5802 i0.3175 j0.4366
g02 x3.3903 y3.5798 i-0.0068 j-0.0915
g03 x3.4798 y3.5745 i0.0895 j0.7497
x3.743 y3.6218 i0. j0.755
x4.0028 y3.941 i-0.1642 j0.3991
g02 x4.0031 y3.9426 i0.0902 j-0.017
g03 x4.0208 y4.1152 i-0.8361 j0.1725
x3.9982 y4.3102 i-0.8537 j0.
x3.8004 y4.5563 i-0.3625 j-0.0887
g02 x3.7981 y4.5575 i0.0405 j0.0824
g03 x3.7951 y4.5591 i-0.3011 j-0.5709
g01 x3.7604 y4.3985
g02 x3.8503 y4.3216 i-0.1392 j-0.2538
x3.8511 y4.3205 i-0.0727 j-0.0561
x3.9189 y4.1169 i-0.2719 j-0.2036
x3.8797 y3.9584 i-0.3397 j0.
x3.878 y3.9555 i-0.0812 j0.0428
x3.6379 y3.7887 i-0.2966 j0.1708
x3.4737 y3.7739 i-0.1641 j0.8996
x3.2492 y3.8018 i0. j0.9144
x3.2477 y3.8022 i0.0225 j0.089
x3.0439 y4.0002 i0.0769 j0.2831
x3.0435 y4.0015 i0.0878 j0.0266
x3.0281 y4.1114 i0.3827 j0.1099
x3.0363 y4.1917 i0.3982 j0.
x3.1525 y4.3713 i0.2776 j-0.0522
x3.1529 y4.3716 i0.0525 j-0.0753
x3.2525 y4.4246 i0.2835 j-0.4128
g01 x3.2028 y4.5833
g00 z0.1
x3.6137 y5.4537
z0.05
g01 x3.3538 y5.6314 z0.0169
x3.3409 y5.642 z0.0152
x3.3301 y5.6548 z0.0134
x3.3219 y5.6693 z0.0116
x3.3164 y5.6851 z0.0099
x3.3138 y5.7016 z0.0081
x3.3143 y5.7184 z0.0064
x3.3177 y5.7347 z0.0046
x3.3241 y5.7502 z0.0029
x3.3331 y5.7642 z0.0011
x3.3446 y5.7764 z-0.0007
x3.358 y5.7863 z-0.0024
x3.3731 y5.7936 z-0.0042
x3.3892 y5.7981 z-0.0059
x3.4058 y5.7997 z-0.0077
x4.0012 z-0.0703
y5.9779 z-0.089
x2.9451 z-0.2
x3.1824 y5.7602
g02 x3.2188 y5.8406 i0.2234 j-0.0528
g01 x3.0825
y5.8286
x3.1824 y5.7602
x3.7602 y5.1872
g02 x3.7238 y5.1068 i-0.2234 j0.0527
g01 x3.8639
y5.1163
x3.7602 y5.1872
x2.9448 y5.9783
y5.7559
x3.5887 y5.3157
g02 x3.6287 y5.2399 i-0.0518 j-0.0758
x3.5369 y5.1481 i-0.0918 j0.
g01 x2.9448
y4.9691
x4.0016
y5.1889
x3.354 y5.6317
g02 x3.314 y5.7075 i0.0518 j0.0758
x3.4058 y5.7993 i0.0918 j0.
g01 x4.0016
y5.9783
x2.9448
g00 z0.1
x3.8659 y7.088
z0.05
g01 x3.8912 y7.0439 z0.0447
x3.9106 y6.9892 z0.0386
x3.9198 y6.932 z0.0325
x3.9185 y6.874 z0.0264
x3.9092 y6.8176 z0.0204
x3.8902 y6.7637 z0.0143
x3.8621 y6.7139 z0.0083
x3.8258 y6.6697 z0.0023
x3.7823 y6.6326 z-0.0037
x3.733 y6.6036 z-0.0097
x3.6795 y6.5837 z-0.0157
x3.6793
x3.6791
x3.679
x3.6788
x3.6787
x3.6785
x3.6414 y6.5746 z-0.0198
x3.6039 y6.5676 z-0.0238
x3.5661 y6.5626 z-0.0278
x3.5281 y6.5594 z-0.0318
x3.49 y6.5581 z-0.0358
x3.4519 y6.5587 z-0.0398
x3.4169 y6.5591 z-0.0435
x3.382 y6.5612 z-0.0472
x3.3473 y6.5651 z-0.0509
x3.3128 y6.5708 z-0.0545
x3.2786 y6.5782 z-0.0582
x3.2448 y6.5874 z-0.0619
x3.2447
x3.2446
x3.2445
x3.23 y6.5923 z-0.0635
x3.2158 y6.5977 z-0.0651
x3.2018 y6.6038 z-0.0667
x3.1881 y6.6104 z-0.0683
x3.1748 y6.6177 z-0.0699
x3.1617 y6.6255 z-0.0715
x3.1612 y6.6259
x3.1606 y6.6263
x3.16 y6.6267
x3.1594 y6.627
x3.1589 y6.6274
x3.1583 y6.6278
x3.1222 y6.6573 z-0.0769
x3.0911 y6.6918 z-0.0818
x3.0655 y6.7307 z-0.0866
x3.0462 y6.7731 z-0.0915
x3.0334 y6.8178 z-0.0964
x3.0276 y6.864 z-0.1013
x3.026 y6.8952 z-0.1046
x3.0269 y6.9264 z-0.1079
x3.0305 y6.9574 z-0.1112
x3.0367 y6.9879 z-0.1144
x3.0455 y7.0179 z-0.1177
x3.0568 y7.047 z-0.121
x3.0571 y7.0477
x3.0575 y7.0485
x3.0578 y7.0493
x3.0582 y7.05
x3.0586 y7.0508
x3.1811 y7.1782
x3.0589 y7.0515
x3.0737 y7.0774 z-0.1247
x3.0909 y7.1017 z-0.1278
x3.1104 y7.1241 z-0.1309
x3.1321 y7.1445 z-0.134
x3.1558 y7.1626 z-0.1372
x3.1811 y7.1782 z-0.1403
x3.1923 y7.1843 z-0.1416
x3.2037 y7.1902 z-0.143
x3.2153 y7.1958 z-0.1443
x3.2269 y7.2011 z-0.1457
x3.2387 y7.2062 z-0.147
x3.2505 y7.211 z-0.1484
x3.202 y7.3661 z-0.1655
x3.1515 y7.3448 z-0.1712
x3.1044 y7.3169 z-0.177
x3.0615 y7.2828 z-0.1827
x3.0236 y7.2433 z-0.1885
x2.9915 y7.1989 z-0.1942
x2.9657 y7.1506 z-0.2
x2.964 y7.1513
g03 x2.9254 y6.9488 i0.5116 j-0.2025
x2.9257 y6.9313 i0.5503 j0.
g02 x2.9257 y6.9284 i-0.0918 j-0.0029
x2.9256 y6.9244 i-0.0918 j0.
g03 x2.925 y6.8932 i0.7199 j-0.0312
x2.9827 y6.6106 i0.7206 j0.
x3.2284 y6.4015 i0.4023 j0.2239
x3.4812 y6.362 i0.2529 j0.7887
x3.6442 y6.3782 i0. j0.8283
g02 x3.6472 y6.3787 i0.0181 j-0.09
g03 x3.9842 y6.6632 i-0.0708 j0.4258
x4.022 y6.9045 i-0.7529 j0.2414
x4.0099 y7.042 i-0.7906 j0.
g02 x4.0094 y7.0454 i0.0904 j0.016
g03 x3.9334 y7.2328 i-0.4066 j-0.0559
x3.7955 y7.3472 i-0.3529 j-0.2846
g01 x3.7604 y7.1846
g02 x3.7747 y7.1764 i-0.1862 j-0.3417
x3.779 y7.1737 i-0.0473 j-0.0787
x3.9187 y6.9099 i-0.1791 j-0.2638
x3.9167 y6.8742 i-0.3189 j0.
x3.679 y6.5854 i-0.3242 j0.0247
x3.678 y6.5852 i-0.0244 j0.0885
x3.4835 y6.5599 i-0.1945 j0.7361
x3.4519 y6.5605 i0. j0.7614
x3.4407 y6.5605 i-0.0112 j0.6785
x3.2454 y6.5892 i0. j0.6786
x3.245 y6.5893 i0.0264 j0.0879
x3.1627 y6.6271 i0.0984 j0.323
x3.1593 y6.6293 i0.0491 j0.0775
x3.0295 y6.8642 i0.174 j0.2496
x3.0277 y6.8996 i0.3638 j0.0354
x3.0584 y7.0462 i0.3655 j0.
x3.0606 y7.0507 i0.0841 j-0.0368
x3.182 y7.1766 i0.264 j-0.1331
x3.2527 y7.21 i0.2793 j-0.5014
g01 x3.2032 y7.3684
g03 x2.964 y7.1513 i0.1291 j-0.3825
g00 z0.1
x1.5715 y9.5937
z0.05
g01 x1.6577 y9.6707 z0.0379
y9.8287 z0.0212
x1.5021 y9.6676 z-0.0023
x1.4887 y9.6562 z-0.0041
x1.4734 y9.6475 z-0.006
x1.4568 y9.6419 z-0.0078
x1.4394 y9.6396 z-0.0097
x1.4218 y9.6406 z-0.0115
x1.4048 y9.6449 z-0.0134
x1.3889 y9.6523 z-0.0152
x0.9451 y9.9143 z-0.0694
y9.7413 z-0.0876
x1.2525 y9.5788 z-0.1241
x1.2668 y9.5695 z-0.1259
x1.2791 y9.5577 z-0.1277
x1.2891 y9.5438 z-0.1295
x1.2963 y9.5283 z-0.1313
x1.3005 y9.5118 z-0.1331
x1.3016 y9.4948 z-0.1349
x1.2995 y9.4778 z-0.1367
x1.2944 y9.4616 z-0.1385
x1.2864 y9.4465 z-0.1402
x1.2757 y9.4332 z-0.142
x1.1523 y9.3056 z-0.1607
x1.1431 y9.2973 z-0.162
x1.133 y9.2904 z-0.1633
x1.122 y9.2848 z-0.1646
x1.1103 y9.2808 z-0.1659
x1.0983 y9.2783 z-0.1672
x1.086 y9.2775 z-0.1685
x0.9451 z-0.1833
y9.1184 z-0.2
x0.9448 y9.118
x2.0016
y9.2779
x1.4592
g02 x1.3674 y9.3697 i0. j0.0918
x1.398 y9.4382 i0.0918 j0.
g01 x1.6581 y9.6705
y9.8296
x1.5018 y9.6679
g02 x1.4358 y9.6399 i-0.066 j0.0638
x1.3891 y9.6526 i0. j0.0918
g01 x0.9448 y9.915
y9.7411
x1.2523 y9.5785
g02 x1.3012 y9.4973 i-0.0429 j-0.0812
x1.2754 y9.4335 i-0.0918 j0.
g01 x1.152 y9.3059
g02 x1.086 y9.2779 i-0.066 j0.0638
g01 x0.9448
y9.118
g00 z0.1
x1.4795 y7.9596
z0.05
g01 x1.5304 y7.9929 z0.0436
x1.5752 y8.035 z0.0372
x1.612 y8.0842 z0.0307
x1.6338 y8.1269 z0.0257
x1.6514 y8.1715 z0.0206
x1.6645 y8.2177 z0.0156
x1.6729 y8.2649 z0.0105
x1.6766 y8.3127 z0.0055
x1.6756 y8.3607 z0.0004
y8.3619 z0.0003
y8.3631 z0.0002
y8.3643 z0.0001
y8.3655 z-0.0001
y8.3667 z-0.0002
y8.3679 z-0.0003
x1.6732 y8.4154 z-0.0053
x1.6664 y8.4624 z-0.0103
x1.6549 y8.5085 z-0.0153
x1.6388 y8.5532 z-0.0203
x1.6183 y8.596 z-0.0253
x1.5936 y8.6366 z-0.0303
x1.5543 y8.6792 z-0.0364
x1.5086 y8.7147 z-0.0425
x1.4576 y8.7422 z-0.0485
x1.4028 y8.761 z-0.0546
x1.3457 y8.7705 z-0.0607
x1.2877 z-0.0668
x1.2867 z-0.0669
x1.2856 z-0.067
x1.2845 z-0.0671
x1.2834 z-0.0673
x1.2824 z-0.0674
x0.9569 y8.5352 z-0.0675
x1.2813 y8.7702
x1.2207 y8.764 z-0.0739
x1.1622 y8.7473 z-0.0803
x1.1074 y8.7208 z-0.0867
x1.0581 y8.6851 z-0.0931
x1.0158 y8.6413 z-0.0995
x0.9817 y8.5909 z-0.1059
x0.9569 y8.5353 z-0.1123
x0.9435 y8.4872 z-0.1175
x0.9339 y8.4382 z-0.1228
x0.9283 y8.3886 z-0.128
x0.9265 y8.3387 z-0.1333
x0.9288 y8.2889 z-0.1385
x0.9349 y8.2394 z-0.1437
x0.935 y8.2387
x0.9351 y8.238
x0.9352 y8.2373
y8.2366
y8.2359
y8.2352
x0.9492 y8.1707 z-0.1511
x0.9745 y8.1098 z-0.158
x1.0103 y8.0545 z-0.165
x1.0557 y8.0067 z-0.1719
x1.109 y7.968 z-0.1788
x1.1684 y7.9395 z-0.1858
x1.2321 y7.9224 z-0.1927
x1.2978 y7.9172 z-0.1996
x1.2984
x1.299
x1.2996
x1.3003
x1.3009
x1.3015
x1.3111 y8.2598
g03 x1.3114 y8.2598 i0.0003 j0.011
x1.3191 y8.2628 i0. j0.011
x1.334 y8.3263 i-0.1269 j0.0634
x1.3337 y8.3364 i-0.1418 j0.
g02 x1.3326 y8.3673 i0.4349 j0.031
x1.3326 y8.37 i0.4361 j0.
g03 x1.3326 y8.3708 i-0.1305 j0.0008
x1.3191 y8.4287 i-0.1305 j0.
x1.3169 y8.429 i-0.0022 j-0.0081
x1.3162 y8.4289 i0. j-0.0084
g02 x1.2862 y8.4275 i-0.0362 j0.4345
g03 x1.2814 y8.4247 i0.0001 j-0.0056
x1.2693 y8.3419 i0.2751 j-0.0828
x1.2731 y8.2951 i0.2873 j0.
g02 x1.2759 y8.2755 i-0.4302 j-0.071
g03 x1.2935 y8.2599 i0.0176 j0.0021
x1.2937 y8.2599 i0. j0.0177
g02 x1.2989 y8.2599 i0.0052 j-0.436
x1.3111 y8.2598 i0. j-0.4361
g01 x1.3092 y8.1909
g03 x1.3114 y8.1909 i0.0022 j0.0799
x1.3772 y8.2255 i0. j0.0799
x1.4029 y8.3263 i-0.185 j0.1007
x1.4024 y8.3412 i-0.2107 j0.
g02 x1.4014 y8.3673 i0.3663 j0.0261
x1.4014 y8.3696 i0.3672 j0.
g03 x1.4014 y8.3708 i-0.1994 j0.0012
x1.3727 y8.4739 i-0.1994 j0.
x1.3169 y8.4978 i-0.0559 j-0.0533
x1.3105 y8.4975 i0. j-0.0772
g02 x1.2852 y8.4963 i-0.0305 j0.3659
g03 x1.2166 y8.448 i0.0011 j-0.0744
x1.2004 y8.3419 i0.34 j-0.1061
x1.2052 y8.2839 i0.3562 j0.
g02 x1.2075 y8.2674 i-0.3623 j-0.0598
g03 x1.2935 y8.1911 i0.086 j0.0102
x1.2945 y8.1911 i0. j0.0866
g02 x1.2989 y8.1911 i0.0044 j-0.3672
x1.3092 y8.1909 i0. j-0.3672
g01 x1.3053 y8.0533
g03 x1.3114 y8.0532 i0.0061 j0.2175
x1.4951 y8.1542 i0. j0.2176
x1.5406 y8.3263 i-0.3029 j0.1721
x1.5397 y8.351 i-0.3484 j0.
g02 x1.5391 y8.3673 i0.2289 j0.0163
x1.5391 y8.3687 i0.2295 j0.
g03 x1.5391 y8.3708 i-0.3371 j0.0021
x1.4836 y8.5562 i-0.3371 j0.
x1.3169 y8.6355 i-0.1667 j-0.1357
x1.299 y8.6348 i0. j-0.2149
g02 x1.2832 y8.634 i-0.019 j0.2287
g03 x1.0861 y8.4921 i0.003 j-0.2121
x1.0627 y8.3419 i0.4705 j-0.1502
x1.0693 y8.2615 i0.4939 j0.
g02 x1.0708 y8.2512 i-0.2264 j-0.0374
g03 x1.2935 y8.0534 i0.2227 j0.0264
x1.2961 y8.0534 i0. j0.2243
g02 x1.2989 y8.0534 i0.0028 j-0.2295
x1.3053 y8.0533 i0. j-0.2295
g01 x1.3015 y7.9157
g03 x1.3114 y7.9155 i0.01 j0.3551
x1.6133 y8.0834 i0. j0.3553
x1.6783 y8.3263 i-0.4211 j0.2429
x1.6771 y8.3608 i-0.4861 j0.
g02 x1.6768 y8.3673 i0.0916 j0.0065
x1.6768 y8.3679 i0.0918 j0.
g03 x1.6768 y8.3708 i-0.4748 j0.0029
x1.5949 y8.6375 i-0.4748 j0.
x1.3169 y8.7732 i-0.278 j-0.2169
x1.2876 y8.772 i0. j-0.3526
g02 x1.2813 y8.7717 i-0.0076 j0.0915
g03 x0.9555 y8.5357 i0.005 j-0.3498
x0.925 y8.3419 i0.6011 j-0.1938
x0.9334 y8.2391 i0.6316 j0.
g02 x0.934 y8.235 i-0.0906 j-0.0149
g03 x1.2935 y7.9157 i0.3594 j0.0426
x1.2978 y7.9157 i0. j0.362
g02 x1.2989 y7.9157 i0.0011 j-0.0918
x1.3015 y7.9157 i0. j-0.0918
g00 z0.1
x1.4795 y6.805
z0.05
g01 x1.5304 y6.8384 z0.0436
x1.5752 y6.8804 z0.0372
x1.612 y6.9296 z0.0307
x1.6338 y6.9723 z0.0257
x1.6514 y7.0169 z0.0206
x1.6645 y7.0631 z0.0156
x1.6729 y7.1103 z0.0105
x1.6766 y7.1582 z0.0055
x1.6756 y7.2061 z0.0004
y7.2073 z0.0003
y7.2085 z0.0002
y7.2097 z0.0001
y7.2109 z-0.0001
y7.2121 z-0.0002
y7.2133 z-0.0003
x1.6732 y7.2608 z-0.0053
x1.6664 y7.3078 z-0.0103
x1.6549 y7.3539 z-0.0153
x1.6388 y7.3986 z-0.0203
x1.6183 y7.4414 z-0.0253
x1.5936 y7.482 z-0.0303
x1.5543 y7.5246 z-0.0364
x1.5086 y7.5601 z-0.0425
x1.4576 y7.5877 z-0.0485
x1.4028 y7.6064 z-0.0546
x1.3457 y7.6159 z-0.0607
x1.2877 z-0.0668
x1.2867 z-0.0669
x1.2856 z-0.067
x1.2845 z-0.0671
x1.2834 z-0.0673
x1.2824 z-0.0674
x0.9569 y7.3807 z-0.0675
x1.2813 y7.6156
x1.2207 y7.6094 z-0.0739
x1.1622 y7.5928 z-0.0803
x1.1074 y7.5662 z-0.0867
x1.0581 y7.5305 z-0.0931
x1.0158 y7.4867 z-0.0995
x0.9817 y7.4363 z-0.1059
x0.9569 y7.3807 z-0.1123
x0.9435 y7.3326 z-0.1175
x0.9339 y7.2836 z-0.1228
x0.9283 y7.234 z-0.128
x0.9265 y7.1842 z-0.1333
x0.9288 y7.1343 z-0.1385
x0.9349 y7.0848 z-0.1437
x0.935 y7.0841
x0.9351 y7.0834
x0.9352 y7.0827
y7.082
y7.0813
y7.0806
x0.9492 y7.0161 z-0.1511
x0.9745 y6.9552 z-0.158
x1.0103 y6.9 z-0.165
x1.0557 y6.8521 z-0.1719
x1.109 y6.8134 z-0.1788
x1.1684 y6.785 z-0.1858
x1.2321 y6.7679 z-0.1927
x1.2978 y6.7626 z-0.1996
x1.2984
x1.299
x1.2996
x1.3003
x1.3009
x1.3015
x1.3111 y7.1052
g03 x1.3114 y7.1052 i0.0003 j0.011
x1.3191 y7.1083 i0. j0.011
x1.334 y7.1717 i-0.1269 j0.0634
x1.3337 y7.1818 i-0.1418 j0.
g02 x1.3326 y7.2128 i0.4349 j0.031
x1.3326 y7.2154 i0.436 j0.
g03 x1.3326 y7.2162 i-0.1305 j0.0008
x1.3191 y7.2741 i-0.1305 j0.
x1.3169 y7.2744 i-0.0022 j-0.0081
x1.3162 y7.2743 i0. j-0.0084
g02 x1.2862 y7.2729 i-0.0362 j0.4345
g03 x1.2814 y7.2701 i0.0001 j-0.0056
x1.2693 y7.1873 i0.2751 j-0.0828
x1.2731 y7.1406 i0.2873 j0.
g02 x1.2759 y7.121 i-0.4302 j-0.071
g03 x1.2935 y7.1053 i0.0176 j0.0021
x1.2937 y7.1053 i0. j0.0177
g02 x1.2989 y7.1054 i0.0052 j-0.436
x1.3111 y7.1052 i0. j-0.436
g01 x1.3092 y7.0364
g03 x1.3114 y7.0363 i0.0022 j0.0799
x1.3772 y7.0709 i0. j0.0799
x1.4029 y7.1717 i-0.185 j0.1007
x1.4024 y7.1867 i-0.2107 j0.
g02 x1.4014 y7.2128 i0.3663 j0.0261
x1.4014 y7.215 i0.3672 j0.
g03 x1.4014 y7.2162 i-0.1994 j0.0012
x1.3727 y7.3193 i-0.1994 j0.
x1.3169 y7.3432 i-0.0559 j-0.0533
x1.3105 y7.343 i0. j-0.0772
g02 x1.2852 y7.3417 i-0.0305 j0.3659
g03 x1.2166 y7.2935 i0.0011 j-0.0744
x1.2004 y7.1873 i0.34 j-0.1061
x1.2052 y7.1293 i0.3562 j0.
g02 x1.2075 y7.1128 i-0.3623 j-0.0598
g03 x1.2935 y7.0365 i0.086 j0.0102
x1.2945 y7.0365 i0. j0.0866
g02 x1.2989 y7.0365 i0.0044 j-0.3672
x1.3092 y7.0364 i0. j-0.3672
g01 x1.3053 y6.8987
g03 x1.3114 y6.8986 i0.0061 j0.2175
x1.4951 y6.9996 i0. j0.2176
x1.5406 y7.1717 i-0.3029 j0.1721
x1.5397 y7.1964 i-0.3484 j0.
g02 x1.5391 y7.2128 i0.2289 j0.0163
x1.5391 y7.2142 i0.2295 j0.
g03 x1.5391 y7.2162 i-0.3371 j0.0021
x1.4836 y7.4017 i-0.3371 j0.
x1.3169 y7.4809 i-0.1667 j-0.1357
x1.299 y7.4802 i0. j-0.2149
g02 x1.2832 y7.4794 i-0.019 j0.2287
g03 x1.0861 y7.3375 i0.003 j-0.2121
x1.0627 y7.1873 i0.4705 j-0.1502
x1.0693 y7.1069 i0.4939 j0.
g02 x1.0708 y7.0966 i-0.2264 j-0.0374
g03 x1.2935 y6.8988 i0.2227 j0.0264
x1.2961 y6.8988 i0. j0.2243
g02 x1.2989 y6.8988 i0.0028 j-0.2295
x1.3053 y6.8987 i0. j-0.2295
g01 x1.3015 y6.7611
g03 x1.3114 y6.7609 i0.01 j0.3551
x1.6133 y6.9288 i0. j0.3553
x1.6783 y7.1717 i-0.4211 j0.2429
x1.6771 y7.2062 i-0.4861 j0.
g02 x1.6768 y7.2128 i0.0916 j0.0065
x1.6768 y7.2133 i0.0918 j0.
g03 x1.6768 y7.2162 i-0.4748 j0.0029
x1.5949 y7.4829 i-0.4748 j0.
x1.3169 y7.6186 i-0.278 j-0.2169
x1.2876 y7.6174 i0. j-0.3526
g02 x1.2813 y7.6171 i-0.0076 j0.0915
g03 x0.9555 y7.3811 i0.005 j-0.3498
x0.925 y7.1873 i0.6011 j-0.1938
x0.9334 y7.0845 i0.6316 j0.
g02 x0.934 y7.0804 i-0.0906 j-0.0149
g03 x1.2935 y6.7611 i0.3594 j0.0426
x1.2978 y6.7611 i0. j0.362
g02 x1.2989 y6.7611 i0.0011 j-0.0918
x1.3015 y6.7611 i0. j-0.0918
g00 z0.1
x1.8726 y5.813
z0.05
g01 x1.6605 z0.0277
x1.6437 y5.8145 z0.0259
x1.6274 y5.819 z0.0242
x1.6123 y5.8264 z0.0224
x1.5987 y5.8364 z0.0206
x1.5872 y5.8487 z0.0188
x1.5781 y5.8629 z0.0171
x1.5716 y5.8784 z0.0153
x1.5681 y5.8949 z0.0135
x1.5677 y5.9118 z0.0118
x1.5702 y5.9284 z0.01
x1.5758 y5.9443 z0.0082
x1.5841 y5.959 z0.0064
x1.5949 y5.9719 z0.0047
x1.6223 y6.0035 z0.0003
x1.6446 y6.0389 z-0.0041
x1.6613 y6.0773 z-0.0085
x1.672 y6.1177 z-0.0129
x1.6766 y6.1593 z-0.0173
x1.6748 y6.2011 z-0.0217
y6.2014
y6.2017
y6.202
y6.2023
y6.2026
y6.2029
x1.665 y6.2531 z-0.0273
x1.6463 y6.3007 z-0.0326
x1.6191 y6.3439 z-0.038
x1.5844 y6.3815 z-0.0434
x1.5435 y6.412 z-0.0488
x1.4976 y6.4344 z-0.0541
x1.4483 y6.448 z-0.0595
x1.4477 y6.4481
x1.4471 y6.4482
x1.4465 y6.4483
x1.4459 y6.4485
x1.4453 y6.4486
x1.4447 y6.4487
x1.3897 y6.4582 z-0.0657
x1.3342 y6.4625 z-0.0716
x1.2784 y6.4618 z-0.0775
x1.223 y6.4559 z-0.0833
x1.1684 y6.445 z-0.0892
x1.115 y6.4291 z-0.095
x1.1147
x1.1145
x1.1143
x1.1141
x1.1139
x1.1137
x1.0876 y6.4185 z-0.0981
x1.0626 y6.4059 z-0.1011
x1.0389 y6.391 z-0.104
x1.0168 y6.3738 z-0.1069
x0.9965 y6.3546 z-0.1099
x0.9781 y6.3335 z-0.1128
x0.9531 y6.2908 z-0.118
x0.936 y6.2443 z-0.1232
x0.9274 y6.1955 z-0.1284
y6.1459 z-0.1336
x0.9363 y6.0972 z-0.1389
x0.9535 y6.0507 z-0.1441
x0.967 y6.0291 z-0.1467
x0.978 y6.0154 z-0.1486
x0.9895 y6.0021 z-0.1504
x1.0016 y5.9893 z-0.1523
x1.0143 y5.9771 z-0.1541
x1.0274 y5.9655 z-0.156
x1.0411 y5.9544 z-0.1578
x1.0532 y5.9432 z-0.1596
x1.0631 y5.9301 z-0.1613
x1.0705 y5.9154 z-0.163
x1.0752 y5.8996 z-0.1647
x1.0771 y5.8832 z-0.1665
x1.0761 y5.8668 z-0.1682
x1.0721 y5.8508 z-0.1699
x1.0655 y5.8358 z-0.1717
x1.0562 y5.8221 z-0.1734
x1.0447 y5.8103 z-0.1751
x1.0313 y5.8008 z-0.1769
x1.0165 y5.7937 z-0.1786
x1.0006 y5.7894 z-0.1803
x0.9842 y5.7879 z-0.1821
x0.9459 z-0.1861
y5.6554 z-0.2
x1.317 y6.0359
g02 x1.4016 y6.1664 i0.3434 j-0.13
g03 x1.4025 y6.1685 i-0.0021 j0.0021
x1.4025 y6.1689 i-0.0029 j0.
g02 x1.4017 y6.1763 i0.3647 j0.0431
g03 x1.4001 y6.178 i-0.0019 j-0.0002
g02 x1.3858 y6.1809 i0.0645 j0.3615
g03 x1.3145 y6.1886 i-0.0713 j-0.3242
x1.2088 y6.1714 i0. j-0.3319
x1.209 y6.1712 i0.0799 j0.1027
g02 x1.317 y6.0359 i-0.2249 j-0.2903
g01 x1.1957 y5.7919
x1.4613
g02 x1.431 y5.9059 i0.1992 j0.114
x1.4987 y6.0688 i0.2295 j0.
g03 x1.5402 y6.1685 i-0.0991 j0.0998
x1.5392 y6.185 i-0.1406 j0.
g02 x1.5387 y6.1897 i0.2279 j0.0269
g03 x1.4243 y6.3136 i-0.1389 j-0.0135
g02 x1.4154 y6.3154 i0.0403 j0.2259
g03 x1.3145 y6.3263 i-0.1008 j-0.4587
x1.1599 y6.3001 i0. j-0.4696
g02 x1.1568 y6.2991 i-0.0756 j0.2167
g03 x1.0875 y6.2516 i0.0481 j-0.1445
x1.0628 y6.1712 i0.119 j-0.0804
x1.0741 y6.1153 i0.1436 j0.
g01 x1.0791 y6.1073
g03 x1.1247 y6.0623 i0.2095 j0.1668
g02 x1.2137 y5.8809 i-0.1405 j-0.1814
x1.1957 y5.7919 i-0.2295 j0.
g01 x0.9448 y5.6542
x2.0016
y5.8141
x1.6605
g02 x1.5687 y5.9059 i0. j0.0918
x1.5958 y5.9711 i0.0918 j0.
g03 x1.6779 y6.1685 i-0.1962 j0.1975
x1.676 y6.2012 i-0.2783 j0.
g02 x1.6758 y6.2031 i0.0912 j0.0108
g03 x1.4485 y6.4491 i-0.276 j-0.0269
g02 x1.4449 y6.4499 i0.0161 j0.0904
g03 x1.3145 y6.464 i-0.1304 j-0.5932
x1.1146 y6.4302 i0. j-0.6073
g02 x1.1133 y6.4297 i-0.0302 j0.0867
g03 x0.9772 y6.3342 i0.0915 j-0.2752
x0.9251 y6.1712 i0.2293 j-0.163
x0.9525 y6.0502 i0.2813 j0.
g01 x0.966 y6.0284
g03 x1.0404 y5.9535 i0.3226 j0.2456
g02 x1.076 y5.8809 i-0.0562 j-0.0726
x0.9842 y5.7891 i-0.0918 j0.
g01 x0.9448
y5.6542
g00 z0.1
x1.5715 y4.9754
z0.05
g01 x1.6577 y5.0523 z0.0379
y5.2104 z0.0212
x1.5021 y5.0493 z-0.0023
x1.4887 y5.0379 z-0.0041
x1.4734 y5.0292 z-0.006
x1.4568 y5.0236 z-0.0078
x1.4394 y5.0213 z-0.0097
x1.4218 y5.0222 z-0.0115
x1.4048 y5.0265 z-0.0134
x1.3889 y5.034 z-0.0152
x0.9451 y5.296 z-0.0694
y5.123 z-0.0876
x1.2525 y4.9605 z-0.1241
x1.2668 y4.9512 z-0.1259
x1.2791 y4.9393 z-0.1277
x1.2891 y4.9255 z-0.1295
x1.2963 y4.91 z-0.1313
x1.3005 y4.8935 z-0.1331
x1.3016 y4.8765 z-0.1349
x1.2995 y4.8595 z-0.1367
x1.2944 y4.8433 z-0.1385
x1.2864 y4.8282 z-0.1402
x1.2757 y4.8149 z-0.142
x1.1523 y4.6873 z-0.1607
x1.1431 y4.679 z-0.162
x1.133 y4.6721 z-0.1633
x1.122 y4.6665 z-0.1646
x1.1103 y4.6625 z-0.1659
x1.0983 y4.66 z-0.1672
x1.086 y4.6592 z-0.1685
x0.9451 z-0.1833
y4.5 z-0.2
x0.9448 y4.4997
x2.0016
y4.6596
x1.4592
g02 x1.3674 y4.7514 i0. j0.0918
x1.398 y4.8198 i0.0918 j0.
g01 x1.6581 y5.0522
y5.2113
x1.5018 y5.0496
g02 x1.4358 y5.0216 i-0.066 j0.0638
x1.3891 y5.0343 i0. j0.0918
g01 x0.9448 y5.2967
y5.1228
x1.2523 y4.9602
g02 x1.3012 y4.879 i-0.0429 j-0.0812
x1.2754 y4.8152 i-0.0918 j0.
g01 x1.152 y4.6875
g02 x1.086 y4.6596 i-0.066 j0.0638
g01 x0.9448
y4.4997
g00 z0.1
x1.4795 y3.3413
z0.05
g01 x1.5304 y3.3746 z0.0436
x1.5752 y3.4167 z0.0372
x1.612 y3.4659 z0.0307
x1.6338 y3.5085 z0.0257
x1.6514 y3.5532 z0.0206
x1.6645 y3.5994 z0.0156
x1.6729 y3.6466 z0.0105
x1.6766 y3.6944 z0.0055
x1.6756 y3.7424 z0.0004
y3.7436 z0.0003
y3.7448 z0.0002
y3.746 z0.0001
y3.7472 z-0.0001
y3.7484 z-0.0002
y3.7496 z-0.0003
x1.6732 y3.797 z-0.0053
x1.6664 y3.8441 z-0.0103
x1.6549 y3.8901 z-0.0153
x1.6388 y3.9348 z-0.0203
x1.6183 y3.9777 z-0.0253
x1.5936 y4.0183 z-0.0303
x1.5543 y4.0609 z-0.0364
x1.5086 y4.0964 z-0.0425
x1.4576 y4.1239 z-0.0485
x1.4028 y4.1427 z-0.0546
x1.3457 y4.1522 z-0.0607
x1.2877 z-0.0668
x1.2867 z-0.0669
x1.2856 z-0.067
x1.2845 z-0.0671
x1.2834 z-0.0673
x1.2824 z-0.0674
x0.9569 y3.9169 z-0.0675
x1.2813 y4.1518
x1.2207 y4.1457 z-0.0739
x1.1622 y4.129 z-0.0803
x1.1074 y4.1024 z-0.0867
x1.0581 y4.0667 z-0.0931
x1.0158 y4.023 z-0.0995
x0.9817 y3.9725 z-0.1059
x0.9569 y3.9169 z-0.1123
x0.9435 y3.8689 z-0.1175
x0.9339 y3.8199 z-0.1228
x0.9283 y3.7703 z-0.128
x0.9265 y3.7204 z-0.1333
x0.9288 y3.6706 z-0.1385
x0.9349 y3.621 z-0.1437
x0.935 y3.6203
x0.9351 y3.6196
x0.9352 y3.6189
y3.6182
y3.6175
y3.6168
x0.9492 y3.5524 z-0.1511
x0.9745 y3.4915 z-0.158
x1.0103 y3.4362 z-0.165
x1.0557 y3.3884 z-0.1719
x1.109 y3.3496 z-0.1788
x1.1684 y3.3212 z-0.1858
x1.2321 y3.3041 z-0.1927
x1.2978 y3.2989 z-0.1996
x1.2984
x1.299
x1.2996
x1.3003
x1.3009
x1.3015
x1.3111 y3.6414
g03 x1.3114 y3.6414 i0.0003 j0.011
x1.3191 y3.6445 i0. j0.011
x1.334 y3.708 i-0.1269 j0.0634
x1.3337 y3.718 i-0.1418 j0.
g02 x1.3326 y3.749 i0.4349 j0.031
x1.3326 y3.7517 i0.436 j0.
g03 x1.3326 y3.7525 i-0.1305 j0.0008
x1.3191 y3.8103 i-0.1305 j0.
x1.3169 y3.8106 i-0.0022 j-0.0081
x1.3162 y3.8106 i0. j-0.0084
g02 x1.2862 y3.8091 i-0.0362 j0.4345
g03 x1.2814 y3.8064 i0.0001 j-0.0056
x1.2693 y3.7236 i0.2751 j-0.0828
x1.2731 y3.6768 i0.2873 j0.
g02 x1.2759 y3.6572 i-0.4302 j-0.071
g03 x1.2935 y3.6416 i0.0176 j0.0021
x1.2937 y3.6416 i0. j0.0177
g02 x1.2989 y3.6416 i0.0052 j-0.436
x1.3111 y3.6414 i0. j-0.436
g01 x1.3092 y3.5726
g03 x1.3114 y3.5726 i0.0022 j0.0799
x1.3772 y3.6072 i0. j0.0799
x1.4029 y3.708 i-0.185 j0.1007
x1.4024 y3.7229 i-0.2107 j0.
g02 x1.4014 y3.749 i0.3663 j0.0261
x1.4014 y3.7513 i0.3672 j0.
g03 x1.4014 y3.7525 i-0.1994 j0.0012
x1.3727 y3.8556 i-0.1994 j0.
x1.3169 y3.8795 i-0.0559 j-0.0533
x1.3105 y3.8792 i0. j-0.0772
g02 x1.2852 y3.878 i-0.0305 j0.3659
g03 x1.2166 y3.8297 i0.0011 j-0.0744
x1.2004 y3.7236 i0.34 j-0.1061
x1.2052 y3.6656 i0.3562 j0.
g02 x1.2075 y3.6491 i-0.3623 j-0.0598
g03 x1.2935 y3.5727 i0.086 j0.0102
x1.2945 y3.5727 i0. j0.0866
g02 x1.2989 y3.5728 i0.0044 j-0.3672
x1.3092 y3.5726 i0. j-0.3672
g01 x1.3053 y3.435
g03 x1.3114 y3.4349 i0.0061 j0.2175
x1.4951 y3.5359 i0. j0.2176
x1.5406 y3.708 i-0.3029 j0.1721
x1.5397 y3.7327 i-0.3484 j0.
g02 x1.5391 y3.749 i0.2289 j0.0163
x1.5391 y3.7504 i0.2295 j0.
g03 x1.5391 y3.7525 i-0.3371 j0.0021
x1.4836 y3.9379 i-0.3371 j0.
x1.3169 y4.0172 i-0.1667 j-0.1357
x1.299 y4.0164 i0. j-0.2149
g02 x1.2832 y4.0157 i-0.019 j0.2287
g03 x1.0861 y3.8738 i0.003 j-0.2121
x1.0627 y3.7236 i0.4705 j-0.1502
x1.0693 y3.6432 i0.4939 j0.
g02 x1.0708 y3.6329 i-0.2264 j-0.0374
g03 x1.2935 y3.435 i0.2227 j0.0264
x1.2961 y3.4351 i0. j0.2243
g02 x1.2989 y3.4351 i0.0028 j-0.2295
x1.3053 y3.435 i0. j-0.2295
g01 x1.3015 y3.2973
g03 x1.3114 y3.2972 i0.01 j0.3551
x1.6133 y3.4651 i0. j0.3553
x1.6783 y3.708 i-0.4211 j0.2429
x1.6771 y3.7425 i-0.4861 j0.
g02 x1.6768 y3.749 i0.0916 j0.0065
x1.6768 y3.7496 i0.0918 j0.
g03 x1.6768 y3.7525 i-0.4748 j0.0029
x1.5949 y4.0192 i-0.4748 j0.
x1.3169 y4.1549 i-0.278 j-0.2169
x1.2876 y4.1537 i0. j-0.3526
g02 x1.2813 y4.1534 i-0.0076 j0.0915
g03 x0.9555 y3.9174 i0.005 j-0.3498
x0.925 y3.7236 i0.6011 j-0.1938
x0.9334 y3.6208 i0.6316 j0.
g02 x0.934 y3.6167 i-0.0906 j-0.0149
g03 x1.2935 y3.2973 i0.3594 j0.0426
x1.2978 y3.2974 i0. j0.362
g02 x1.2989 y3.2974 i0.0011 j-0.0918
x1.3015 y3.2973 i0. j-0.0918
g00 z0.1
x1.4762 y2.1851
z0.05
g01 x1.479 y2.1863 z0.0497
x1.5304 y2.22 z0.0432
x1.5752 y2.2621 z0.0368
x1.612 y2.3113 z0.0303
x1.6338 y2.354 z0.0253
x1.6514 y2.3986 z0.0202
x1.6645 y2.4448 z0.0152
x1.6729 y2.492 z0.0101
x1.6766 y2.5398 z0.0051
x1.6756 y2.5878 z0.
y2.589 z-0.0001
y2.5902 z-0.0002
y2.5914 z-0.0003
y2.5926 z-0.0005
y2.5938 z-0.0006
y2.595 z-0.0007
x1.6732 y2.6425 z-0.0057
x1.6664 y2.6895 z-0.0107
x1.6549 y2.7356 z-0.0157
x1.6388 y2.7803 z-0.0207
x1.6183 y2.8231 z-0.0257
x1.5936 y2.8637 z-0.0307
x1.5543 y2.9063 z-0.0368
x1.5086 y2.9418 z-0.0428
x1.4576 y2.9693 z-0.0489
x1.4028 y2.9881 z-0.055
x1.3457 y2.9976 z-0.0611
x1.2877 z-0.0672
x1.2867 z-0.0673
x1.2856 z-0.0674
x1.2845 z-0.0675
x1.2834 z-0.0676
x1.2824 z-0.0678
x0.9569 y2.7623 z-0.0679
x1.2813 y2.9973
x1.2207 y2.9911 z-0.0743
x1.1622 y2.9744 z-0.0807
x1.1074 y2.9479 z-0.0871
x1.0581 y2.9122 z-0.0935
x1.0158 y2.8684 z-0.0999
x0.9817 y2.818 z-0.1063
x0.9569 y2.7624 z-0.1127
x0.9435 y2.7143 z-0.1179
x0.9339 y2.6653 z-0.1232
x0.9283 y2.6157 z-0.1284
x0.9265 y2.5658 z-0.1337
x0.9288 y2.516 z-0.1389
x0.9349 y2.4665 z-0.1441
x0.935 y2.4658
x0.9351 y2.4651
x0.9352 y2.4644
y2.4637
y2.463
y2.4623
x0.9492 y2.3978 z-0.1515
x0.9745 y2.3369 z-0.1584
x1.0103 y2.2816 z-0.1654
x1.0557 y2.2338 z-0.1723
x1.109 y2.1951 z-0.1792
x1.1684 y2.1666 z-0.1861
x1.2321 y2.1495 z-0.1931
x1.2978 y2.1443 z-0.2
x1.2937 y2.487
g02 x1.2989 y2.487 i0.0052 j-0.436
x1.3111 y2.4869 i0. j-0.436
g03 x1.3114 y2.4869 i0.0003 j0.011
x1.3191 y2.4899 i0. j0.011
x1.334 y2.5534 i-0.1269 j0.0634
x1.3337 y2.5635 i-0.1418 j0.
g02 x1.3326 y2.5944 i0.4349 j0.031
x1.3326 y2.5971 i0.436 j0.
g03 x1.3326 y2.5979 i-0.1305 j0.0008
x1.3191 y2.6558 i-0.1305 j0.
x1.3169 y2.6561 i-0.0022 j-0.0081
x1.3162 y2.656 i0. j-0.0084
g02 x1.2862 y2.6546 i-0.0362 j0.4345
g03 x1.2814 y2.6518 i0.0001 j-0.0056
x1.2693 y2.569 i0.2751 j-0.0828
x1.2731 y2.5222 i0.2873 j0.
g02 x1.2759 y2.5026 i-0.4302 j-0.071
g03 x1.2935 y2.487 i0.0176 j0.0021
x1.2937 y2.487 i0. j0.0177
g01 x1.2945 y2.4182
g02 x1.2989 y2.4182 i0.0044 j-0.3672
x1.3092 y2.418 i0. j-0.3672
g03 x1.3114 y2.418 i0.0022 j0.0799
x1.3772 y2.4526 i0. j0.0799
x1.4029 y2.5534 i-0.185 j0.1007
x1.4024 y2.5683 i-0.2107 j0.
g02 x1.4014 y2.5944 i0.3663 j0.0261
x1.4014 y2.5967 i0.3672 j0.
g03 x1.4014 y2.5979 i-0.1994 j0.0012
x1.3727 y2.701 i-0.1994 j0.
x1.3169 y2.7249 i-0.0559 j-0.0533
x1.3105 y2.7246 i0. j-0.0772
g02 x1.2852 y2.7234 i-0.0305 j0.3659
g03 x1.2166 y2.6751 i0.0011 j-0.0744
x1.2004 y2.569 i0.34 j-0.1061
x1.2052 y2.511 i0.3562 j0.
g02 x1.2075 y2.4945 i-0.3623 j-0.0598
g03 x1.2935 y2.4182 i0.086 j0.0102
x1.2945 y2.4182 i0. j0.0866
g01 x1.2961 y2.2805
g02 x1.2989 y2.2805 i0.0028 j-0.2295
x1.3053 y2.2804 i0. j-0.2295
g03 x1.3114 y2.2803 i0.0061 j0.2175
x1.4951 y2.3813 i0. j0.2176
x1.5406 y2.5534 i-0.3029 j0.1721
x1.5397 y2.5781 i-0.3484 j0.
g02 x1.5391 y2.5944 i0.2289 j0.0163
x1.5391 y2.5958 i0.2295 j0.
g03 x1.5391 y2.5979 i-0.3371 j0.0021
x1.4836 y2.7833 i-0.3371 j0.
x1.3169 y2.8626 i-0.1667 j-0.1357
x1.299 y2.8619 i0. j-0.2149
g02 x1.2832 y2.8611 i-0.019 j0.2287
g03 x1.0861 y2.7192 i0.003 j-0.2121
x1.0627 y2.569 i0.4705 j-0.1502
x1.0693 y2.4886 i0.4939 j0.
g02 x1.0708 y2.4783 i-0.2264 j-0.0374
g03 x1.2935 y2.2805 i0.2227 j0.0264
x1.2961 y2.2805 i0. j0.2243
g01 x1.2978 y2.1428
g02 x1.2989 y2.1428 i0.0011 j-0.0918
x1.3015 y2.1428 i0. j-0.0918
g03 x1.3114 y2.1426 i0.01 j0.3551
x1.6133 y2.3105 i0. j0.3553
x1.6783 y2.5534 i-0.4211 j0.2429
x1.6771 y2.5879 i-0.4861 j0.
g02 x1.6768 y2.5944 i0.0916 j0.0065
x1.6768 y2.595 i0.0918 j0.
g03 x1.6768 y2.5979 i-0.4748 j0.0029
x1.5949 y2.8646 i-0.4748 j0.
x1.3169 y3.0003 i-0.278 j-0.2169
x1.2876 y2.9991 i0. j-0.3526
g02 x1.2813 y2.9988 i-0.0076 j0.0915
g03 x0.9555 y2.7628 i0.005 j-0.3498
x0.925 y2.569 i0.6011 j-0.1938
x0.9334 y2.4662 i0.6316 j0.
g02 x0.934 y2.4621 i-0.0906 j-0.0149
g03 x1.2935 y2.1428 i0.3594 j0.0426
x1.2978 y2.1428 i0. j0.362
g00 z0.1
x1.7479 y1.0761
z0.05
g01 x1.7341 y1.068 z0.0483
x1.6873 y1.0489 z0.043
x1.6382 y1.0369 z0.0377
x1.5734 y1.0275 z0.0308
x1.5082 y1.0227 z0.0239
x1.4428 y1.0226 z0.0171
x1.3775 y1.0271 z0.0102
x1.3128 y1.0363 z0.0033
x1.2488 y1.0501 z-0.0036
x1.2485
x1.2483
x1.248
x1.2478
x1.2475
x1.2472
x1.2006 y1.0675 z-0.009
x1.1574 y1.0921 z-0.0142
x1.119 y1.1236 z-0.0194
x1.0864 y1.1611 z-0.0246
x1.0606 y1.2035 z-0.0298
x1.0422 y1.2496 z-0.0351
y1.2499
y1.2501
y1.2503
y1.2505
y1.2507
x1.0345 y1.4421
x1.0418 y1.251
x1.0342 y1.2822 z-0.0386
x1.0291 y1.314 z-0.042
x1.0266 y1.3461 z-0.0454
y1.3783 z-0.0487
x1.0293 y1.4103 z-0.0521
x1.0345 y1.4421 z-0.0555
x1.0436 y1.4777 z-0.0594
x1.0573 y1.5118 z-0.0632
x1.0752 y1.5439 z-0.0671
x1.0971 y1.5734 z-0.071
x1.1227 y1.5998 z-0.0748
x1.1514 y1.6228 z-0.0787
x1.1516 y1.6229
x1.1517 y1.623
x1.1519 y1.6231
x1.1675 y1.6334 z-0.0807
x1.1834 y1.643 z-0.0827
x1.1996 y1.6521 z-0.0846
x1.2162 y1.6606 z-0.0866
x1.2331 y1.6684 z-0.0885
x1.2502 y1.6756 z-0.0905
x1.202 y1.8298 z-0.1075
x1.1515 y1.8086 z-0.1132
x1.1044 y1.7806 z-0.119
x1.0615 y1.7466 z-0.1247
x1.0236 y1.707 z-0.1305
x0.9915 y1.6626 z-0.1363
x0.9657 y1.6143 z-0.142
x0.9531 y1.5791 z-0.1459
x0.943 y1.5432 z-0.1499
x0.9354 y1.5067 z-0.1538
x0.9302 y1.4697 z-0.1577
x0.9276 y1.4324 z-0.1616
y1.3951 z-0.1656
y1.3939 z-0.1657
y1.3927 z-0.1658
y1.3916 z-0.1659
y1.3904 z-0.1661
y1.3892 z-0.1662
y1.3881 z-0.1663
x0.9271 y1.3346 z-0.1719
x0.9308 y1.2813 z-0.1775
x0.9384 y1.2284 z-0.1831
x0.9499 y1.1762 z-0.1888
x0.9652 y1.125 z-0.1944
x0.9843 y1.0751 z-0.2
x0.9827 y1.0743
g03 x1.2284 y0.8653 i0.4023 j0.2239
x1.4812 y0.8257 i0.2529 j0.7887
x1.6442 y0.8419 i0. j0.8283
g02 x1.6472 y0.8425 i0.0181 j-0.09
g03 x1.9842 y1.1269 i-0.0708 j0.4258
x2.022 y1.3683 i-0.7529 j0.2414
x2.0099 y1.5057 i-0.7906 j0.
g02 x2.0094 y1.5092 i0.0904 j0.016
g03 x1.9334 y1.6965 i-0.4066 j-0.0559
x1.7955 y1.811 i-0.3529 j-0.2846
g01 x1.7604 y1.6485
g02 x1.8503 y1.5716 i-0.1392 j-0.2538
x1.8511 y1.5705 i-0.0727 j-0.0561
x1.9189 y1.3669 i-0.2719 j-0.2036
x1.8797 y1.2084 i-0.3397 j0.
x1.878 y1.2055 i-0.0812 j0.0428
x1.6379 y1.0387 i-0.2966 j0.1708
x1.4737 y1.0239 i-0.1641 j0.8996
x1.2492 y1.0518 i0. j0.9144
x1.2477 y1.0522 i0.0225 j0.089
x1.0439 y1.2502 i0.0769 j0.2831
x1.0435 y1.2515 i0.0878 j0.0266
x1.0281 y1.3614 i0.3827 j0.1099
x1.0363 y1.4417 i0.3982 j0.
x1.1525 y1.6213 i0.2776 j-0.0522
x1.1529 y1.6216 i0.0525 j-0.0753
x1.2525 y1.6746 i0.2835 j-0.4128
g01 x1.2032 y1.8321
g03 x0.964 y1.615 i0.1291 j-0.3825
x0.9254 y1.4125 i0.5116 j-0.2025
x0.9257 y1.395 i0.5503 j0.
g02 x0.9257 y1.3921 i-0.0918 j-0.0029
x0.9256 y1.3881 i-0.0918 j0.
g03 x0.925 y1.357 i0.7199 j-0.0312
x0.9827 y1.0743 i0.7206 j0.
g00 z0.1
x14.9375 y1.4106
z-0.15
g01 x14.9358 y1.3786 z-0.1534
x14.9376 y1.3149 z-0.1601
x14.9445 y1.2515 z-0.1668
x14.9564 y1.1889 z-0.1735
x14.9734 y1.1275 z-0.1802
x15.0049 y1.0575 z-0.1882
x15.0484 y0.9943 z-0.1963
x15.1023 y0.9398 z-0.2044
x15.1652 y0.8957 z-0.2124
x15.2348 y0.8636 z-0.2205
x15.309 y0.8443 z-0.2285
x15.3096
x15.3101
x15.3106
x15.3111
x15.3116
x15.3121 y0.8437
x15.3812 y0.8329 z-0.2362
x15.4511 y0.8279 z-0.2436
x15.521 y0.8289 z-0.2509
x15.5907 y0.8357 z-0.2583
x15.6595 y0.8485 z-0.2656
x15.727 y0.867 z-0.273
x15.7772 y0.8886 z-0.2787
x15.8244 y0.9161 z-0.2845
x15.8681 y0.9489 z-0.2902
x15.9075 y0.9868 z-0.296
x15.9422 y1.029 z-0.3017
x15.9716 y1.0751 z-0.3075
x15.9907 y1.125 z-0.3131
x16.0061 y1.1762 z-0.3187
x16.0176 y1.2284 z-0.3243
x16.0252 y1.2813 z-0.3299
x16.0288 y1.3346 z-0.3356
x16.0285 y1.3881 z-0.3412
y1.3892 z-0.3413
y1.3904 z-0.3414
y1.3916 z-0.3415
y1.3927 z-0.3417
y1.3939 z-0.3418
y1.3951 z-0.3419
y1.4324 z-0.3458
x16.0257 y1.4697 z-0.3498
x16.0206 y1.5067 z-0.3537
x16.0129 y1.5432 z-0.3576
x16.0028 y1.5791 z-0.3615
x15.9902 y1.6143 z-0.3655
x15.9644 y1.6626 z-0.3712
x15.9323 y1.707 z-0.377
x15.8944 y1.7466 z-0.3827
x15.8515 y1.7806 z-0.3885
x15.8044 y1.8086 z-0.3942
x15.7539 y1.8298 z-0.4
x15.7528 y1.8321
x15.7032 y1.6737
g02 x15.774 y1.6404 i-0.2085 j-0.5347
x15.8954 y1.5145 i-0.1426 j-0.259
x15.8975 y1.51 i-0.082 j-0.0413
x15.9282 y1.3633 i-0.3348 j-0.1466
x15.9265 y1.3279 i-0.3655 j0.
x15.7966 y1.093 i-0.3039 j0.0147
x15.7932 y1.0908 i-0.0525 j0.0753
x15.7109 y1.053 i-0.1808 j0.2853
x15.7106 y1.0529 i-0.0268 j0.0878
x15.5152 y1.0242 i-0.1953 j0.6498
x15.504 y1.0243 i0. j0.6786
x15.4724 y1.0236 i-0.0316 j0.7607
x15.2779 y1.0489 i0. j0.7614
x15.2769 y1.0492 i0.0235 j0.0888
x15.0392 y1.3379 i0.0864 j0.3134
x15.0372 y1.3736 i0.3169 j0.0357
x15.177 y1.6375 i0.3189 j0.
x15.1812 y1.6402 i0.0516 j-0.076
x15.1955 y1.6484 i0.2005 j-0.3335
g01 x15.1604 y1.811
g03 x15.0225 y1.6965 i0.215 j-0.3991
x14.9465 y1.5092 i0.3306 j-0.2432
g02 x14.946 y1.5057 i-0.0909 j0.0125
g03 x14.934 y1.3683 i0.7786 j-0.1374
x14.9717 y1.1269 i0.7906 j0.
x15.3087 y0.8425 i0.4079 j0.1414
g02 x15.3117 y0.8419 i-0.0151 j-0.0906
g03 x15.4747 y0.8257 i0.163 j0.8121
x15.7276 y0.8653 i0. j0.8283
x15.9732 y1.0743 i-0.1566 j0.4329
x16.031 y1.357 i-0.6628 j0.2826
x16.0303 y1.3881 i-0.7206 j0.
g02 x16.0302 y1.3921 i0.0917 j0.004
x16.0302 y1.395 i0.0918 j0.
g03 x16.0305 y1.4125 i-0.55 j0.0175
x15.9919 y1.615 i-0.5503 j0.
x15.7528 y1.8321 i-0.3683 j-0.1654
g00 z0.1
x15.4885 y2.9641
z-0.15
g01 x15.4473 y2.9418 z-0.1549
x15.4016 y2.9063 z-0.161
x15.3623 y2.8637 z-0.1671
x15.3376 y2.8231 z-0.1721
x15.3171 y2.7803 z-0.1771
x15.301 y2.7355 z-0.1821
x15.2895 y2.6894 z-0.1871
x15.2827 y2.6424 z-0.1921
x15.2806 y2.595 z-0.1971
y2.5938 z-0.1972
y2.5926 z-0.1973
y2.5914 z-0.1974
y2.5901 z-0.1976
y2.5889 z-0.1977
y2.5877 z-0.1978
x15.2793 y2.5398 z-0.2029
x15.2831 y2.492 z-0.2079
x15.2915 y2.4447 z-0.2129
x15.3045 y2.3986 z-0.218
x15.3221 y2.3539 z-0.223
x15.344 y2.3113 z-0.2281
x15.3808 y2.2621 z-0.2345
x15.4255 y2.22 z-0.241
x15.4769 y2.1863 z-0.2474
x15.5333 y2.162 z-0.2539
x15.5931 y2.1479 z-0.2603
x15.6544 y2.1443 z-0.2668
x15.655
x15.6557
x15.6563
x15.6569
x15.6575
x15.6581
x15.7238 y2.1495 z-0.2741
x15.7875 y2.1666 z-0.2811
x15.8469 y2.1951 z-0.288
x15.9002 y2.2338 z-0.2949
x15.9456 y2.2816 z-0.3018
x15.9815 y2.3369 z-0.3088
x16.0067 y2.3978 z-0.3157
x16.0204 y2.4623 z-0.3226
y2.463
y2.4637
y2.4644
x16.0208 y2.4651
x16.0209 y2.4658
x15.999 y2.7624
x16.021 y2.4665
x16.0272 y2.516 z-0.3283
x16.0294 y2.5659 z-0.3336
x16.0277 y2.6157 z-0.3388
x16.022 y2.6653 z-0.344
x16.0124 y2.7143 z-0.3493
x15.999 y2.7624 z-0.3545
x15.9742 y2.818 z-0.3609
x15.9402 y2.8684 z-0.3673
x15.8978 y2.9122 z-0.3737
x15.8485 y2.9479 z-0.3801
x15.7937 y2.9745 z-0.3865
x15.7352 y2.9911 z-0.3929
x15.6746 y2.9973 z-0.3993
x15.6735 z-0.3994
x15.6725 z-0.3995
x15.6714 z-0.3997
x15.6703 z-0.3998
x15.6693 z-0.3999
x15.6682 z-0.4
x15.6398 y2.656
g03 x15.6391 y2.6561 i-0.0007 j-0.0083
x15.6368 y2.6558 i0. j-0.0084
x15.6233 y2.5979 i0.117 j-0.0578
x15.6233 y2.5971 i0.1305 j0.
g02 x15.6233 y2.5944 i-0.436 j-0.0027
x15.6222 y2.5634 i-0.436 j0.
g03 x15.6219 y2.5534 i0.1414 j-0.0101
x15.6369 y2.4899 i0.1417 j0.
x15.6445 y2.4869 i0.0076 j0.0079
x15.6448 y2.4869 i0. j0.011
g02 x15.657 y2.487 i0.0122 j-0.4359
x15.6623 y2.487 i0. j-0.436
g03 x15.6625 y2.487 i0.0002 j0.0177
x15.6801 y2.5026 i0. j0.0177
g02 x15.6828 y2.5223 i0.433 j-0.0513
g03 x15.6867 y2.569 i-0.2834 j0.0467
x15.6745 y2.6518 i-0.2873 j0.
x15.6697 y2.6546 i-0.0048 j-0.0028
g02 x15.6398 y2.656 i0.0062 j0.436
g01 x15.6455 y2.7246
g03 x15.6391 y2.7249 i-0.0064 j-0.077
x15.5832 y2.701 i0. j-0.0772
x15.5545 y2.5979 i0.1707 j-0.1031
x15.5545 y2.5967 i0.1994 j0.
g02 x15.5545 y2.5944 i-0.3672 j-0.0023
x15.5536 y2.5683 i-0.3672 j0.
g03 x15.553 y2.5534 i0.2101 j-0.015
x15.5787 y2.4526 i0.2106 j0.
x15.6445 y2.418 i0.0658 j0.0453
x15.6467 y2.418 i0. j0.0799
g02 x15.657 y2.4182 i0.0103 j-0.3671
x15.6614 y2.4182 i0. j-0.3672
g03 x15.6625 y2.4182 i0.001 j0.0866
x15.7484 y2.4945 i0. j0.0866
g02 x15.7508 y2.5111 i0.3646 j-0.0432
g03 x15.7555 y2.569 i-0.3514 j0.058
x15.7393 y2.6751 i-0.3561 j0.
x15.6707 y2.7234 i-0.0697 j-0.0261
g02 x15.6455 y2.7246 i0.0052 j0.3672
g01 x15.6569 y2.8619
g03 x15.6391 y2.8626 i-0.0178 j-0.2142
x15.4724 y2.7833 i0. j-0.2149
x15.4168 y2.5979 i0.2815 j-0.1854
x15.4168 y2.5958 i0.3371 j0.
g02 x15.4168 y2.5944 i-0.2295 j-0.0014
x15.4162 y2.5781 i-0.2295 j0.
g03 x15.4153 y2.5534 i0.3474 j-0.0247
x15.4608 y2.3813 i0.3483 j0.
x15.6445 y2.2803 i0.1837 j0.1166
x15.6506 y2.2804 i0. j0.2176
g02 x15.657 y2.2805 i0.0064 j-0.2294
x15.6598 y2.2805 i0. j-0.2295
g03 x15.6625 y2.2805 i0.0027 j0.2243
x15.8852 y2.4783 i0. j0.2243
g02 x15.8866 y2.4886 i0.2279 j-0.027
g03 x15.8932 y2.569 i-0.4872 j0.0804
x15.8698 y2.7192 i-0.4938 j0.
x15.6727 y2.8611 i-0.2002 j-0.0702
g02 x15.6569 y2.8619 i0.0033 j0.2295
g01 x15.6683 y2.9991
g03 x15.6391 y3.0003 i-0.0293 j-0.3514
x15.3611 y2.8646 i0. j-0.3526
x15.2791 y2.5979 i0.3928 j-0.2667
x15.2791 y2.5949 i0.4748 j0.
g02 x15.2791 y2.5944 i-0.0918 j-0.0006
x15.2789 y2.5879 i-0.0918 j0.
g03 x15.2776 y2.5534 i0.4848 j-0.0345
x15.3427 y2.3105 i0.486 j0.
x15.6445 y2.1426 i0.3018 j0.1874
x15.6545 y2.1428 i0. j0.3553
g02 x15.657 y2.1428 i0.0026 j-0.0918
x15.6581 y2.1428 i0. j-0.0918
g03 x15.6625 y2.1428 i0.0043 j0.3619
x16.0219 y2.4621 i0. j0.362
g02 x16.0225 y2.4662 i0.0912 j-0.0108
g03 x16.0309 y2.569 i-0.6231 j0.1028
x16.0004 y2.7628 i-0.6315 j0.
x15.6746 y2.9988 i-0.3308 j-0.1138
g02 x15.6683 y2.9991 i0.0013 j0.0918
g00 z0.1
x15.4748 y4.1126
z-0.15
g01 x15.4726 y4.1116 z-0.1503
x15.4219 y4.0783 z-0.1566
x15.3779 y4.0366 z-0.163
x15.3419 y3.9878 z-0.1694
x15.315 y3.9334 z-0.1758
x15.2985 y3.8789 z-0.1817
x15.2871 y3.8231 z-0.1877
x15.2807 y3.7666 z-0.1937
x15.2795 y3.7096 z-0.1997
x15.2834 y3.6528 z-0.2057
x15.2926 y3.5966 z-0.2117
y3.5962
y3.5958
y3.5954
y3.595
y3.5945
y3.5941
x15.3098 y3.5329 z-0.2186
x15.3371 y3.4756 z-0.2253
x15.374 y3.424 z-0.2319
x15.4194 y3.3797 z-0.2386
x15.472 y3.3441 z-0.2453
x15.5299 y3.3182 z-0.2519
x15.5915 y3.303 z-0.2586
x15.6549 y3.2989 z-0.2653
x15.6557
x15.6564
x15.6572
x15.658
x15.6588
x15.9934 y3.5204
x15.6595 y3.2988
x15.7203 y3.3025 z-0.2722
x15.7795 y3.3168 z-0.2786
x15.8354 y3.3411 z-0.285
x15.8861 y3.3748 z-0.2914
x15.9302 y3.4168 z-0.2978
x15.9663 y3.4658 z-0.3042
x15.9933 y3.5204 z-0.3106
x16.0103 y3.5745 z-0.3166
x16.0221 y3.63 z-0.3225
x16.0286 y3.6863 z-0.3285
x16.0298 y3.743 z-0.3344
x16.0257 y3.7996 z-0.3404
x16.0162 y3.8555 z-0.3464
x16.0161 y3.8561
x16.0159 y3.8567
x16.0158 y3.8574
x16.0157 y3.858
x16.0156 y3.8586
x16.0155 y3.8593
x15.999 y3.9204 z-0.3534
x15.9719 y3.9776 z-0.3601
x15.9351 y4.0292 z-0.3667
x15.8897 y4.0733 z-0.3734
x15.8372 y4.1087 z-0.38
x15.7792 y4.1341 z-0.3867
x15.7176 y4.1488 z-0.3933
x15.6544 y4.1524 z-0.4
x15.6659 y3.8098
g02 x15.6513 y3.8096 i-0.0146 j0.4358
x15.6355 y3.8099 i0. j0.436
g03 x15.635 y3.8098 i0. j-0.001
x15.622 y3.7249 i0.2708 j-0.0849
x15.628 y3.6668 i0.2838 j0.
g02 x15.6303 y3.6551 i-0.4268 j-0.0892
g03 x15.6466 y3.6415 i0.0163 j0.0029
x15.647 y3.6415 i0. j0.0166
g02 x15.657 y3.6416 i0.01 j-0.4359
x15.6687 y3.6415 i0. j-0.436
g03 x15.6689 y3.6415 i0.0001 j0.0055
x15.6735 y3.644 i0. j0.0055
x15.6873 y3.7273 i-0.2452 j0.0833
x15.6813 y3.7825 i-0.259 j0.
g02 x15.6779 y3.8001 i0.426 j0.0929
g03 x15.6663 y3.8098 i-0.0116 j-0.002
x15.6659 y3.8098 i0. j-0.0118
g01 x15.6636 y3.8786
g02 x15.6513 y3.8784 i-0.0123 j0.367
x15.638 y3.8787 i0. j0.3672
g03 x15.6354 y3.8787 i-0.0025 j-0.0698
x15.5715 y3.8372 i0. j-0.0699
x15.5532 y3.7249 i0.3343 j-0.1123
x15.5606 y3.6527 i0.3526 j0.
g02 x15.5626 y3.6429 i-0.3594 j-0.0752
g03 x15.6466 y3.5726 i0.0841 j0.0152
x15.6486 y3.5727 i0. j0.0854
g02 x15.657 y3.5728 i0.0084 j-0.3671
x15.6669 y3.5726 i0. j-0.3672
g03 x15.6689 y3.5726 i0.002 j0.0744
x15.7374 y3.6179 i0. j0.0744
x15.7561 y3.7273 i-0.3091 j0.1094
x15.7486 y3.7971 i-0.3278 j0.
g02 x15.7457 y3.812 i0.3588 j0.0782
g03 x15.6663 y3.8787 i-0.0794 j-0.0139
x15.6636 y3.8786 i0. j-0.0806
g01 x15.659 y4.0163
g02 x15.6513 y4.0161 i-0.0077 j0.2294
x15.643 y4.0163 i0. j0.2295
g03 x15.6354 y4.0164 i-0.0075 j-0.2074
x15.4427 y3.8859 i0. j-0.2076
x15.4155 y3.7249 i0.4631 j-0.1611
x15.4259 y3.6245 i0.4903 j0.
g02 x15.4271 y3.6184 i-0.2246 j-0.047
g03 x15.6466 y3.4349 i0.2196 j0.0397
x15.6517 y3.435 i0. j0.2231
g02 x15.657 y3.4351 i0.0053 j-0.2294
x15.6632 y3.435 i0. j-0.2295
g03 x15.6689 y3.4349 i0.0057 j0.212
x15.866 y3.5687 i0. j0.2121
x15.8938 y3.7273 i-0.4377 j0.1586
x15.8832 y3.8265 i-0.4655 j0.
g02 x15.8813 y3.8358 i0.2242 j0.0489
g03 x15.6663 y4.0164 i-0.2151 j-0.0377
x15.659 y4.0163 i0. j-0.2183
g01 x15.6544 y4.1539
g02 x15.6513 y4.1538 i-0.0031 j0.0917
x15.648 y4.1539 i0. j0.0918
g03 x15.6354 y4.1541 i-0.0125 j-0.3451
x15.3136 y3.9339 i0. j-0.3453
x15.2778 y3.7249 i0.5922 j-0.2091
x15.2911 y3.5963 i0.628 j0.
g02 x15.2916 y3.5939 i-0.0899 j-0.0188
g03 x15.6466 y3.2972 i0.3551 j0.0642
x15.6549 y3.2973 i0. j0.3608
g02 x15.657 y3.2974 i0.0021 j-0.0918
x15.6595 y3.2973 i0. j-0.0918
g03 x15.6689 y3.2972 i0.0094 j0.3497
x15.9948 y3.5199 i0. j0.3498
x16.0315 y3.7273 i-0.5665 j0.2074
x16.0177 y3.8558 i-0.6032 j0.
g02 x16.017 y3.8595 i0.0897 j0.0196
g03 x15.6663 y4.1541 i-0.3507 j-0.0615
x15.6544 y4.1539 i0. j-0.356
g00 z0.1
x14.9547 y4.5798
z-0.15
g01 y4.5 z-0.1584
x16.0108 z-0.2694
y4.6592 z-0.2861
x15.8699 z-0.3009
x15.8576 y4.66 z-0.3022
x15.8456 y4.6625 z-0.3035
x15.8339 y4.6665 z-0.3048
x15.823 y4.6721 z-0.3061
x15.8128 y4.679 z-0.3074
x15.8037 y4.6873 z-0.3087
x15.6802 y4.8149 z-0.3273
x15.6695 y4.8282 z-0.3291
x15.6615 y4.8433 z-0.3309
x15.6564 y4.8595 z-0.3327
x15.6543 y4.8765 z-0.3345
x15.6554 y4.8935 z-0.3363
x15.6597 y4.91 z-0.3381
x15.6669 y4.9255 z-0.3399
x15.6768 y4.9393 z-0.3417
x15.6891 y4.9512 z-0.3435
x15.7034 y4.9605 z-0.3453
x16.0108 y5.123 z-0.3818
y5.296 z-0.4
x16.0112 y5.2967
x15.5668 y5.0343
g02 x15.5202 y5.0216 i-0.0467 j0.079
x15.4541 y5.0496 i0. j0.0918
g01 x15.2978 y5.2113
y5.0522
x15.5579 y4.8198
g02 x15.5885 y4.7514 i-0.0612 j-0.0685
x15.4967 y4.6596 i-0.0918 j0.
g01 x14.9543
y4.4997
x16.0112
y4.6596
x15.8699
g02 x15.8039 y4.6875 i0. j0.0918
g01 x15.6805 y4.8152
g02 x15.6547 y4.879 i0.066 j0.0638
x15.7036 y4.9602 i0.0918 j0.
g01 x16.0112 y5.1228
y5.2967
g00 z0.1
x15.2982 y9.7213
z-0.15
g01 y9.6707 z-0.1553
x15.5582 y9.4384 z-0.192
x15.5698 y9.4259 z-0.1938
x15.5789 y9.4115 z-0.1956
x15.5852 y9.3956 z-0.1973
x15.5885 y9.3788 z-0.1991
x15.5886 y9.3618 z-0.2009
x15.5855 y9.3449 z-0.2027
x15.5795 y9.329 z-0.2045
x15.5705 y9.3144 z-0.2063
x15.5591 y9.3018 z-0.2081
x15.5455 y9.2914 z-0.2099
x15.5302 y9.2838 z-0.2117
x15.5138 y9.2791 z-0.2135
x15.4967 y9.2775 z-0.2153
x14.9547 z-0.2723
y9.1184 z-0.289
x16.0108 z-0.4
x16.0112 y9.118
y9.2779
x15.8699
g02 x15.8039 y9.3059 i0. j0.0918
g01 x15.6805 y9.4335
g02 x15.6547 y9.4973 i0.066 j0.0638
x15.7036 y9.5785 i0.0918 j0.
g01 x16.0112 y9.7411
y9.915
x15.5668 y9.6526
g02 x15.5202 y9.6399 i-0.0467 j0.079
x15.4541 y9.6679 i0. j0.0918
g01 x15.2978 y9.8296
y9.6705
x15.5579 y9.4382
g02 x15.5885 y9.3697 i-0.0612 j-0.0685
x15.4967 y9.2779 i-0.0918 j0.
g01 x14.9543
y9.118
x16.0112
g00 z0.1
x15.832 y7.9608
z-0.15
g01 x15.8469 y7.968 z-0.1517
x15.9002 y8.0067 z-0.1587
x15.9456 y8.0545 z-0.1656
x15.9815 y8.1098 z-0.1725
x16.0067 y8.1707 z-0.1794
x16.0204 y8.2352 z-0.1864
y8.2359
y8.2366
y8.2373
x16.0208 y8.238
x16.0209 y8.2387
x15.999 y8.5353
x16.021 y8.2394
x16.0272 y8.2889 z-0.1921
x16.0294 y8.3388 z-0.1973
x16.0277 y8.3886 z-0.2026
x16.022 y8.4382 z-0.2078
x16.0124 y8.4872 z-0.213
x15.999 y8.5353 z-0.2183
x15.9742 y8.5909 z-0.2247
x15.9402 y8.6413 z-0.2311
x15.8978 y8.6851 z-0.2375
x15.8485 y8.7208 z-0.2439
x15.7937 y8.7474 z-0.2503
x15.7352 y8.764 z-0.2567
x15.6746 y8.7702 z-0.2631
x15.6735 z-0.2632
x15.6725 z-0.2633
x15.6714 z-0.2634
x15.6703 z-0.2635
x15.6693 z-0.2636
x15.6682 z-0.2638
x15.6103 z-0.2699
x15.5531 y8.761 z-0.2759
x15.4983 y8.7422 z-0.282
x15.4473 y8.7147 z-0.2881
x15.4016 y8.6792 z-0.2942
x15.3623 y8.6366 z-0.3003
x15.3376 y8.596 z-0.3053
x15.3171 y8.5532 z-0.3103
x15.301 y8.5084 z-0.3153
x15.2895 y8.4623 z-0.3203
x15.2827 y8.4153 z-0.3253
x15.2806 y8.3679 z-0.3303
y8.3667 z-0.3304
y8.3655 z-0.3305
y8.3643 z-0.3306
y8.3631 z-0.3308
y8.3618 z-0.3309
y8.3607 z-0.331
x15.2793 y8.3127 z-0.3361
x15.2831 y8.2649 z-0.3411
x15.2915 y8.2176 z-0.3461
x15.3045 y8.1715 z-0.3512
x15.3221 y8.1268 z-0.3562
x15.344 y8.0842 z-0.3613
x15.3808 y8.035 z-0.3677
x15.4255 y7.9929 z-0.3742
x15.4769 y7.9592 z-0.3806
x15.5333 y7.9349 z-0.3871
x15.5931 y7.9208 z-0.3935
x15.6544 y7.9172 z-0.4
x15.6448 y8.2598
g02 x15.657 y8.2599 i0.0122 j-0.4359
x15.6623 y8.2599 i0. j-0.436
g03 x15.6625 y8.2599 i0.0002 j0.0177
x15.6801 y8.2755 i0. j0.0177
g02 x15.6828 y8.2952 i0.433 j-0.0513
g03 x15.6867 y8.3419 i-0.2834 j0.0467
x15.6745 y8.4247 i-0.2873 j0.
x15.6697 y8.4275 i-0.0048 j-0.0028
g02 x15.6398 y8.4289 i0.0062 j0.436
g03 x15.6391 y8.429 i-0.0007 j-0.0083
x15.6368 y8.4287 i0. j-0.0084
x15.6233 y8.3708 i0.117 j-0.0578
x15.6233 y8.37 i0.1305 j0.
g02 x15.6233 y8.3673 i-0.436 j-0.0027
x15.6222 y8.3363 i-0.436 j0.
g03 x15.6219 y8.3263 i0.1414 j-0.0101
x15.6369 y8.2628 i0.1417 j0.
x15.6445 y8.2598 i0.0076 j0.0079
x15.6448 y8.2598 i0. j0.011
g01 x15.6467 y8.1909
g02 x15.657 y8.1911 i0.0103 j-0.3671
x15.6614 y8.1911 i0. j-0.3672
g03 x15.6625 y8.1911 i0.001 j0.0866
x15.7484 y8.2674 i0. j0.0866
g02 x15.7508 y8.284 i0.3646 j-0.0432
g03 x15.7555 y8.3419 i-0.3514 j0.058
x15.7393 y8.448 i-0.3561 j0.
x15.6707 y8.4963 i-0.0697 j-0.0261
g02 x15.6455 y8.4975 i0.0052 j0.3672
g03 x15.6391 y8.4978 i-0.0064 j-0.077
x15.5832 y8.4739 i0. j-0.0772
x15.5545 y8.3708 i0.1707 j-0.1031
x15.5545 y8.3696 i0.1994 j0.
g02 x15.5545 y8.3673 i-0.3672 j-0.0023
x15.5536 y8.3412 i-0.3672 j0.
g03 x15.553 y8.3263 i0.2101 j-0.015
x15.5787 y8.2255 i0.2106 j0.
x15.6445 y8.1909 i0.0658 j0.0453
x15.6467 y8.1909 i0. j0.0799
g01 x15.6506 y8.0533
g02 x15.657 y8.0534 i0.0064 j-0.2294
x15.6598 y8.0534 i0. j-0.2295
g03 x15.6625 y8.0534 i0.0027 j0.2243
x15.8852 y8.2512 i0. j0.2243
g02 x15.8866 y8.2615 i0.2279 j-0.027
g03 x15.8932 y8.3419 i-0.4872 j0.0804
x15.8698 y8.4921 i-0.4938 j0.
x15.6727 y8.634 i-0.2002 j-0.0702
g02 x15.6569 y8.6348 i0.0033 j0.2295
g03 x15.6391 y8.6355 i-0.0178 j-0.2142
x15.4724 y8.5562 i0. j-0.2149
x15.4168 y8.3708 i0.2815 j-0.1854
x15.4168 y8.3687 i0.3371 j0.
g02 x15.4168 y8.3673 i-0.2295 j-0.0014
x15.4162 y8.351 i-0.2295 j0.
g03 x15.4153 y8.3263 i0.3474 j-0.0247
x15.4608 y8.1542 i0.3483 j0.
x15.6445 y8.0532 i0.1837 j0.1166
x15.6506 y8.0533 i0. j0.2176
g01 x15.6545 y7.9157
g02 x15.657 y7.9157 i0.0026 j-0.0918
x15.6581 y7.9157 i0. j-0.0918
g03 x15.6625 y7.9157 i0.0043 j0.3619
x16.0219 y8.235 i0. j0.362
g02 x16.0225 y8.2391 i0.0912 j-0.0108
g03 x16.0309 y8.3419 i-0.6231 j0.1028
x16.0004 y8.5357 i-0.6315 j0.
x15.6746 y8.7717 i-0.3308 j-0.1138
g02 x15.6683 y8.772 i0.0013 j0.0918
g03 x15.6391 y8.7732 i-0.0293 j-0.3514
x15.3611 y8.6375 i0. j-0.3526
x15.2791 y8.3708 i0.3928 j-0.2667
x15.2791 y8.3678 i0.4748 j0.
g02 x15.2791 y8.3673 i-0.0918 j-0.0006
x15.2789 y8.3608 i-0.0918 j0.
g03 x15.2776 y8.3263 i0.4848 j-0.0345
x15.3427 y8.0834 i0.486 j0.
x15.6445 y7.9155 i0.3018 j0.1874
x15.6545 y7.9157 i0. j0.3553
g00 z0.1
x15.832 y6.8062
z-0.15
g01 x15.8469 y6.8134 z-0.1517
x15.9002 y6.8521 z-0.1587
x15.9456 y6.9 z-0.1656
x15.9815 y6.9552 z-0.1725
x16.0067 y7.0161 z-0.1794
x16.0204 y7.0806 z-0.1864
y7.0813
y7.082
y7.0827
x16.0208 y7.0834
x16.0209 y7.0841
x15.999 y7.3807
x16.021 y7.0848
x16.0272 y7.1343 z-0.1921
x16.0294 y7.1842 z-0.1973
x16.0277 y7.2341 z-0.2026
x16.022 y7.2836 z-0.2078
x16.0124 y7.3326 z-0.213
x15.999 y7.3807 z-0.2183
x15.9742 y7.4363 z-0.2247
x15.9402 y7.4867 z-0.2311
x15.8978 y7.5305 z-0.2375
x15.8485 y7.5662 z-0.2439
x15.7937 y7.5928 z-0.2503
x15.7352 y7.6094 z-0.2567
x15.6746 y7.6156 z-0.2631
x15.6735 z-0.2632
x15.6725 z-0.2633
x15.6714 z-0.2634
x15.6703 z-0.2635
x15.6693 z-0.2636
x15.6682 z-0.2638
x15.6103 z-0.2699
x15.5531 y7.6064 z-0.2759
x15.4983 y7.5877 z-0.282
x15.4473 y7.5601 z-0.2881
x15.4016 y7.5246 z-0.2942
x15.3623 y7.482 z-0.3003
x15.3376 y7.4414 z-0.3053
x15.3171 y7.3986 z-0.3103
x15.301 y7.3539 z-0.3153
x15.2895 y7.3078 z-0.3203
x15.2827 y7.2607 z-0.3253
x15.2806 y7.2133 z-0.3303
y7.2121 z-0.3304
y7.2109 z-0.3305
y7.2097 z-0.3306
y7.2085 z-0.3308
y7.2073 z-0.3309
y7.2061 z-0.331
x15.2793 y7.1581 z-0.3361
x15.2831 y7.1103 z-0.3411
x15.2915 y7.0631 z-0.3461
x15.3045 y7.0169 z-0.3512
x15.3221 y6.9723 z-0.3562
x15.344 y6.9296 z-0.3613
x15.3808 y6.8804 z-0.3677
x15.4255 y6.8383 z-0.3742
x15.4769 y6.8047 z-0.3806
x15.5333 y6.7804 z-0.3871
x15.5931 y6.7662 z-0.3935
x15.6544 y6.7626 z-0.4
x15.6448 y7.1052
g02 x15.657 y7.1054 i0.0122 j-0.4359
x15.6623 y7.1053 i0. j-0.436
g03 x15.6625 y7.1053 i0.0002 j0.0177
x15.6801 y7.121 i0. j0.0177
g02 x15.6828 y7.1406 i0.433 j-0.0513
g03 x15.6867 y7.1873 i-0.2834 j0.0467
x15.6745 y7.2701 i-0.2873 j0.
x15.6697 y7.2729 i-0.0048 j-0.0028
g02 x15.6398 y7.2743 i0.0062 j0.436
g03 x15.6391 y7.2744 i-0.0007 j-0.0083
x15.6368 y7.2741 i0. j-0.0084
x15.6233 y7.2162 i0.117 j-0.0578
x15.6233 y7.2154 i0.1305 j0.
g02 x15.6233 y7.2127 i-0.436 j-0.0027
x15.6222 y7.1817 i-0.436 j0.
g03 x15.6219 y7.1717 i0.1414 j-0.0101
x15.6369 y7.1083 i0.1417 j0.
x15.6445 y7.1052 i0.0076 j0.0079
x15.6448 y7.1052 i0. j0.011
g01 x15.6467 y7.0364
g02 x15.657 y7.0365 i0.0103 j-0.3671
x15.6614 y7.0365 i0. j-0.3672
g03 x15.6625 y7.0365 i0.001 j0.0866
x15.7484 y7.1129 i0. j0.0866
g02 x15.7508 y7.1294 i0.3646 j-0.0432
g03 x15.7555 y7.1873 i-0.3514 j0.058
x15.7393 y7.2935 i-0.3561 j0.
x15.6707 y7.3417 i-0.0697 j-0.0261
g02 x15.6455 y7.343 i0.0052 j0.3672
g03 x15.6391 y7.3432 i-0.0064 j-0.077
x15.5832 y7.3193 i0. j-0.0772
x15.5545 y7.2162 i0.1707 j-0.1031
x15.5545 y7.215 i0.1994 j0.
g02 x15.5545 y7.2127 i-0.3672 j-0.0023
x15.5536 y7.1866 i-0.3672 j0.
g03 x15.553 y7.1717 i0.2101 j-0.015
x15.5787 y7.071 i0.2106 j0.
x15.6445 y7.0363 i0.0658 j0.0453
x15.6467 y7.0364 i0. j0.0799
g01 x15.6506 y6.8987
g02 x15.657 y6.8988 i0.0064 j-0.2294
x15.6598 y6.8988 i0. j-0.2295
g03 x15.6625 y6.8988 i0.0027 j0.2243
x15.8852 y7.0966 i0. j0.2243
g02 x15.8866 y7.107 i0.2279 j-0.027
g03 x15.8932 y7.1873 i-0.4872 j0.0804
x15.8698 y7.3375 i-0.4938 j0.
x15.6727 y7.4794 i-0.2002 j-0.0702
g02 x15.6569 y7.4802 i0.0033 j0.2295
g03 x15.6391 y7.4809 i-0.0178 j-0.2142
x15.4724 y7.4017 i0. j-0.2149
x15.4168 y7.2162 i0.2815 j-0.1854
x15.4168 y7.2141 i0.3371 j0.
g02 x15.4168 y7.2127 i-0.2295 j-0.0014
x15.4162 y7.1964 i-0.2295 j0.
g03 x15.4153 y7.1717 i0.3474 j-0.0247
x15.4608 y6.9996 i0.3483 j0.
x15.6445 y6.8986 i0.1837 j0.1166
x15.6506 y6.8987 i0. j0.2176
g01 x15.6545 y6.7611
g02 x15.657 y6.7611 i0.0026 j-0.0918
x15.6581 y6.7611 i0. j-0.0918
g03 x15.6625 y6.7611 i0.0043 j0.3619
x16.0219 y7.0804 i0. j0.362
g02 x16.0225 y7.0846 i0.0912 j-0.0108
g03 x16.0309 y7.1873 i-0.6231 j0.1028
x16.0004 y7.3812 i-0.6315 j0.
x15.6746 y7.6171 i-0.3308 j-0.1138
g02 x15.6683 y7.6174 i0.0013 j0.0918
g03 x15.6391 y7.6186 i-0.0293 j-0.3514
x15.3611 y7.4829 i0. j-0.3526
x15.2791 y7.2162 i0.3928 j-0.2667
x15.2791 y7.2133 i0.4748 j0.
g02 x15.2791 y7.2127 i-0.0918 j-0.0006
x15.2789 y7.2062 i-0.0918 j0.
g03 x15.2776 y7.1717 i0.4848 j-0.0345
x15.3427 y6.9288 i0.486 j0.
x15.6445 y6.7609 i0.3018 j0.1874
x15.6545 y6.7611 i0. j0.3553
g00 z0.1
x16.01 y5.7842
z-0.15
g01 y5.7879 z-0.1504
x15.9718 z-0.1544
x15.9555 y5.7894 z-0.1561
x15.9397 y5.7936 z-0.1578
x15.925 y5.8006 z-0.1596
x15.9116 y5.81 z-0.1613
x15.9002 y5.8216 z-0.163
x15.8909 y5.835 z-0.1647
x15.8841 y5.8499 z-0.1664
x15.88 y5.8657 z-0.1681
x15.8788 y5.882 z-0.1699
x15.8804 y5.8982 z-0.1716
x15.8849 y5.9139 z-0.1733
x15.892 y5.9286 z-0.175
x15.9016 y5.9419 z-0.1767
x15.9133 y5.9532 z-0.1784
x15.9237 y5.9618 z-0.1799
x15.9339 y5.9707 z-0.1813
x15.9438 y5.9798 z-0.1827
x15.9536 y5.9892 z-0.1841
x15.9631 y5.9988 z-0.1855
x15.9723 y6.0087 z-0.187
x15.9724 y6.0088
x15.9725 y6.0089
x15.9727 y6.009
x15.9781 y6.0152 z-0.1879
x15.9833 y6.0215 z-0.1887
x15.9882 y6.028 z-0.1896
x15.9929 y6.0348 z-0.1905
x15.9973 y6.0417 z-0.1913
x16.0015 y6.0488 z-0.1922
x16.0193 y6.0952 z-0.1974
x16.0286 y6.1441 z-0.2026
x16.029 y6.1939 z-0.2079
x16.0206 y6.243 z-0.2131
x16.0035 y6.2897 z-0.2183
x15.9784 y6.3327 z-0.2236
x15.9565 y6.3567 z-0.227
x15.9322 y6.3784 z-0.2304
x15.9059 y6.3974 z-0.2338
x15.8777 y6.4137 z-0.2372
x15.8481 y6.4271 z-0.2407
x15.8172 y6.4373 z-0.2441
x15.8171
x15.817
x15.8168
x15.8167
x15.8166
x15.4734 y6.4383
x15.8164 y6.4375
x15.7601 y6.4509 z-0.2502
x15.7028 y6.459 z-0.2563
x15.6449 y6.4618 z-0.2624
x15.5871 y6.4593 z-0.2685
x15.5298 y6.4514 z-0.2746
x15.4734 y6.4383 z-0.2807
x15.4289 y6.4207 z-0.2857
x15.3883 y6.3956 z-0.2907
x15.3526 y6.3638 z-0.2957
x15.3231 y6.3262 z-0.3008
x15.3006 y6.284 z-0.3058
x15.2858 y6.2386 z-0.3108
x15.2791 y6.1912 z-0.3158
x15.2809 y6.1435 z-0.3209
y6.1427
y6.1418
y6.141
y6.1402
y6.1394
y6.1385
x15.2855 y6.1077 z-0.3247
x15.2934 y6.0776 z-0.3279
x15.3049 y6.0487 z-0.3312
x15.3199 y6.0214 z-0.3345
x15.3382 y5.9962 z-0.3377
x15.3594 y5.9734 z-0.341
x15.3706 y5.9607 z-0.3428
x15.3794 y5.946 z-0.3446
x15.3853 y5.9301 z-0.3464
x15.3881 y5.9133 z-0.3482
x15.3879 y5.8963 z-0.35
x15.3846 y5.8796 z-0.3517
x15.3783 y5.8638 z-0.3535
x15.3692 y5.8494 z-0.3553
x15.3577 y5.8369 z-0.3571
x15.3441 y5.8267 z-0.3589
x15.3288 y5.8192 z-0.3607
x15.3124 y5.8145 z-0.3625
x15.2955 y5.813 z-0.3643
x14.9555 z-0.4
x14.9591 y5.8141
x15.2955
g03 x15.3873 y5.9059 i0. j0.0918
x15.3759 y5.9501 i-0.0918 j0.
g01 x15.6389 y6.0359
g02 x15.7409 y6.1665 i0.3329 j-0.155
g03 x15.7475 y6.1719 i-0.1687 j0.2087
x15.7441 y6.173 i-0.0154 j-0.0423
g02 x15.7409 y6.1739 i0.0979 j0.3539
g03 x15.6435 y6.1876 i-0.0973 j-0.3396
x15.5532 y6.1759 i0. j-0.3533
g02 x15.5542 y6.1665 i-0.3646 j-0.0439
x15.6389 y6.0359 i-0.2587 j-0.2606
g01 x15.4946 y5.7919
x15.7602
g02 x15.7423 y5.8809 i0.2116 j0.089
x15.8275 y6.0594 i0.2295 j0.
g03 x15.8716 y6.1009 i-0.2553 j0.3158
g02 x15.8725 y6.1018 i0.1692 j-0.155
g03 x15.8806 y6.1124 i-0.0506 j0.0469
x15.8934 y6.1714 i-0.1289 j0.059
x15.8698 y6.2497 i-0.1417 j0.
x15.7808 y6.3057 i-0.1377 j-0.12
g02 x15.7788 y6.3063 i0.0612 j0.2212
g03 x15.6435 y6.3253 i-0.1353 j-0.472
x15.5115 y6.3072 i0. j-0.491
x15.4153 y6.1772 i0.0397 j-0.13
x15.4164 y6.1604 i0.1359 j0.
g02 x15.4176 y6.1482 i-0.2277 j-0.0284
g03 x15.4533 y6.0726 i0.1151 j0.0082
g02 x15.525 y5.9059 i-0.1578 j-0.1666
x15.4946 y5.7919 i-0.2295 j0.
g01 x14.9543 y5.8141
y5.6542
x16.0112
y5.7891
x15.9718
g02 x15.88 y5.8809 i0. j0.0918
x15.914 y5.9523 i0.0918 j0.
g03 x15.9732 y6.0079 i-0.3419 j0.4229
g02 x15.9735 y6.0082 i0.0677 j-0.062
g03 x16.0025 y6.0482 i-0.1516 j0.1404
x16.0311 y6.1714 i-0.2508 j0.1232
x15.9793 y6.3334 i-0.2794 j0.
x15.8175 y6.4384 i-0.2472 j-0.2037
g02 x15.8167 y6.4387 i0.0245 j0.0885
g03 x15.6435 y6.463 i-0.1732 j-0.6044
x15.473 y6.4395 i0. j-0.6287
x15.2776 y6.1772 i0.0782 j-0.2622
x15.2797 y6.1433 i0.2736 j0.
g02 x15.2802 y6.1385 i-0.0911 j-0.0114
g03 x15.3586 y5.9726 i0.2524 j0.0179
g02 x15.3873 y5.9059 i-0.0631 j-0.0666
x15.2955 y5.8141 i-0.0918 j0.
g01 x14.9543
g00 z0.1
x13.1105 y6.6935
z-0.15
g01 x13.0938 y6.7139 z-0.1528
x13.0657 y6.7637 z-0.1588
x13.0467 y6.8176 z-0.1648
x13.0374 y6.874 z-0.1708
x13.0361 y6.932 z-0.1769
x13.0453 y6.9892 z-0.183
x13.0647 y7.0439 z-0.1891
x13.0936 y7.0942 z-0.1952
x13.1311 y7.1384 z-0.2013
x13.176 y7.1752 z-0.2074
x13.1767 y7.1757
x13.1774 y7.1762
x13.1781 y7.1766
x13.1788 y7.1771
x13.1796 y7.1775
x13.1803 y7.178
x13.1825 y7.1793 z-0.2082
x13.1847 y7.1806 z-0.2084
x13.1869 y7.1818 z-0.2087
x13.1891 y7.1831 z-0.209
x13.1913 y7.1843 z-0.2092
x13.1935 y7.1856 z-0.2095
x13.1591 y7.3445 z-0.2266
x13.1337 y7.3295 z-0.2297
x13.1093 y7.3129 z-0.2328
x13.086 y7.2947 z-0.2359
x13.064 y7.2751 z-0.239
x13.0433 y7.254 z-0.2421
x13.024 y7.2317 z-0.2452
x13.0051 y7.2036 z-0.2488
x12.9885 y7.174 z-0.2523
x12.9745 y7.1431 z-0.2559
x12.9631 y7.1112 z-0.2595
x12.9543 y7.0785 z-0.263
x12.9483 y7.0452 z-0.2666
y7.0446
y7.044
y7.0434
y7.0428
y7.0422
x12.9478 y7.0416
x12.9392 y6.9785 z-0.2737
x12.9358 y6.9148 z-0.2804
x12.9376 y6.8511 z-0.2871
x12.9445 y6.7878 z-0.2938
x12.9564 y6.7252 z-0.3005
x12.9734 y6.6637 z-0.3072
x13.0049 y6.5938 z-0.3152
x13.0484 y6.5305 z-0.3233
x13.1023 y6.476 z-0.3313
x13.1652 y6.432 z-0.3394
x13.2348 y6.3998 z-0.3475
x13.309 y6.3805 z-0.3555
x13.3096
x13.3101
x13.3106
x13.3111
x13.3116
x13.3121 y6.38
x13.3812 y6.3691 z-0.3632
x13.4511 y6.3642 z-0.3706
x13.521 y6.3651 z-0.3779
x13.5907 y6.372 z-0.3853
x13.6595 y6.3847 z-0.3926
x13.727 y6.4033 z-0.4
x13.7276 y6.4015
g03 x13.9732 y6.6106 i-0.1566 j0.4329
x14.031 y6.8932 i-0.6628 j0.2826
x14.0303 y6.9244 i-0.7206 j0.
g02 x14.0302 y6.9284 i0.0917 j0.004
x14.0302 y6.9313 i0.0918 j0.
g03 x14.0305 y6.9488 i-0.55 j0.0175
x13.9919 y7.1513 i-0.5503 j0.
x13.7528 y7.3684 i-0.3683 j-0.1654
g01 x13.7032 y7.21
g02 x13.774 y7.1766 i-0.2085 j-0.5347
x13.8954 y7.0507 i-0.1426 j-0.259
x13.8975 y7.0462 i-0.082 j-0.0413
x13.9282 y6.8996 i-0.3348 j-0.1466
x13.9265 y6.8642 i-0.3655 j0.
x13.7966 y6.6293 i-0.3039 j0.0147
x13.7932 y6.6271 i-0.0525 j0.0753
x13.7109 y6.5893 i-0.1808 j0.2853
x13.7106 y6.5892 i-0.0268 j0.0878
x13.5152 y6.5605 i-0.1953 j0.6498
x13.504 y6.5605 i0. j0.6786
x13.4724 y6.5599 i-0.0316 j0.7607
x13.2779 y6.5852 i0. j0.7614
x13.2769 y6.5854 i0.0235 j0.0888
x13.0392 y6.8742 i0.0864 j0.3134
x13.0372 y6.9099 i0.3169 j0.0357
x13.177 y7.1737 i0.3189 j0.
x13.1812 y7.1764 i0.0516 j-0.076
x13.1955 y7.1846 i0.2005 j-0.3335
g01 x13.1604 y7.3472
g03 x13.0225 y7.2328 i0.215 j-0.3991
x12.9465 y7.0454 i0.3306 j-0.2432
g02 x12.946 y7.042 i-0.0909 j0.0125
g03 x12.934 y6.9045 i0.7786 j-0.1374
x12.9717 y6.6632 i0.7906 j0.
x13.3087 y6.3787 i0.4079 j0.1414
g02 x13.3117 y6.3782 i-0.0151 j-0.0906
g03 x13.4747 y6.362 i0.163 j0.8121
x13.7276 y6.4015 i0. j0.8283
g00 z0.1
x13.3221 y5.9779
z-0.15
g01 x12.9547 z-0.1886
y5.7997 z-0.2073
x13.5501 z-0.2699
x13.5668 y5.7981 z-0.2717
x13.5829 y5.7936 z-0.2734
x13.5979 y5.7863 z-0.2752
x13.6113 y5.7764 z-0.277
x13.6228 y5.7642 z-0.2787
x13.6318 y5.7502 z-0.2805
x13.6382 y5.7347 z-0.2822
x13.6417 y5.7184 z-0.284
x13.6421 y5.7016 z-0.2857
x13.6396 y5.6851 z-0.2875
x13.6341 y5.6693 z-0.2893
x13.6258 y5.6548 z-0.291
x13.615 y5.642 z-0.2928
x13.6021 y5.6314 z-0.2945
x12.9547 y5.1887 z-0.377
y4.9695 z-0.4
x13.7735 y5.7602
x13.8735 y5.8286
y5.8406
x13.7371
g02 x13.7735 y5.7602 i-0.187 j-0.1331
g01 x13.092 y5.1068
x13.2321
g02 x13.1957 y5.1872 i0.187 j0.1331
g01 x13.092 y5.1163
y5.1068
x12.9543 y4.9691
x14.0112
y5.1481
x13.4191
g02 x13.3273 y5.2399 i0. j0.0918
x13.3673 y5.3157 i0.0918 j0.
g01 x14.0112 y5.7559
y5.9783
x12.9543
y5.7993
x13.5501
g02 x13.6419 y5.7075 i0. j-0.0918
x13.6019 y5.6317 i-0.0918 j0.
g01 x12.9543 y5.1889
y4.9691
g00 z0.1
x13.8668 y4.3129
z-0.15
g01 x13.8823 y4.2912 z-0.1528
x13.897 y4.2653 z-0.1559
x13.8974 y4.2645
x13.8977 y4.2638
x13.8981 y4.263
x13.8984 y4.2622
x13.8988 y4.2615
x13.8991 y4.2607
x13.9104 y4.2316 z-0.1597
x13.9192 y4.2017 z-0.163
x13.9254 y4.1711 z-0.1663
x13.929 y4.1401 z-0.1696
x13.93 y4.1089 z-0.1729
x13.9283 y4.0778 z-0.1761
x13.9225 y4.0316 z-0.181
x13.9098 y3.9868 z-0.1859
x13.8904 y3.9445 z-0.1908
x13.8648 y3.9056 z-0.1957
x13.8337 y3.871 z-0.2006
x13.7976 y3.8416 z-0.2055
x13.7971 y3.8412
x13.7965 y3.8408
x13.7959 y3.8404
x13.7953 y3.84
x13.7948 y3.8396
x13.7942 y3.8393
x13.7812 y3.8314 z-0.2075
x13.7678 y3.8241 z-0.2091
x13.7541 y3.8175 z-0.2107
x13.7401 y3.8115 z-0.2123
x13.7259 y3.806 z-0.2139
x13.7114 y3.8013 z-0.2155
x13.7113
x13.7112
x13.7111
x13.6773 y3.792 z-0.2192
x13.6432 y3.7845 z-0.2229
x13.6087 y3.7788 z-0.2266
x13.5739 y3.7749 z-0.2303
x13.539 y3.7728 z-0.2339
x13.504 y3.7725 z-0.2376
x13.4659 y3.7719 z-0.2416
x13.4278 y3.7731 z-0.2456
x13.3898 y3.7763 z-0.2496
x13.352 y3.7814 z-0.2536
x13.3145 y3.7883 z-0.2577
x13.2774 y3.7972 z-0.2617
x13.2773
x13.2771
x13.2769
x13.2768
x13.2766
x13.2765
x13.2229 y3.8174 z-0.2678
x13.1736 y3.8464 z-0.2738
x13.1301 y3.8835 z-0.2798
x13.0938 y3.9276 z-0.2858
x13.0657 y3.9774 z-0.2918
x13.0467 y4.0313 z-0.2978
x13.0374 y4.0877 z-0.3038
x13.0361 y4.1457 z-0.3099
x13.0453 y4.203 z-0.316
x13.0647 y4.2576 z-0.3221
x13.0936 y4.3079 z-0.3282
x13.1311 y4.3522 z-0.3343
x13.176 y4.389 z-0.3404
x13.1767 y4.3894
x13.1774 y4.3899
x13.1781 y4.3904
x13.1788 y4.3908
x13.1796 y4.3913
x13.1803 y4.3917
x13.1825 y4.393 z-0.3412
x13.1847 y4.3943 z-0.3415
x13.1869 y4.3956 z-0.3417
x13.1891 y4.3968 z-0.342
x13.1913 y4.3981 z-0.3423
x13.1935 y4.3993 z-0.3425
x13.1591 y4.5582 z-0.3596
x13.1337 y4.5433 z-0.3627
x13.1093 y4.5266 z-0.3658
x13.086 y4.5085 z-0.3689
x13.064 y4.4888 z-0.3721
x13.0433 y4.4678 z-0.3752
x13.024 y4.4454 z-0.3783
x13.0051 y4.4173 z-0.3818
x12.9885 y4.3877 z-0.3854
x12.9745 y4.3569 z-0.3889
x12.9631 y4.325 z-0.3925
x12.9543 y4.2923 z-0.3961
x12.9483 y4.2589 z-0.3996
y4.2583
y4.2577
y4.2571
y4.2566
y4.256
x12.9478 y4.2554
x12.946 y4.2557
g03 x12.934 y4.1183 i0.7786 j-0.1374
x12.9717 y3.8769 i0.7906 j0.
x13.3087 y3.5925 i0.4079 j0.1414
g02 x13.3117 y3.5919 i-0.0151 j-0.0906
g03 x13.4747 y3.5757 i0.163 j0.8121
x13.7276 y3.6153 i0. j0.8283
x13.9732 y3.8243 i-0.1566 j0.4329
x14.031 y4.107 i-0.6628 j0.2826
x14.0303 y4.1381 i-0.7206 j0.
g02 x14.0302 y4.1421 i0.0917 j0.004
x14.0302 y4.145 i0.0918 j0.
g03 x14.0305 y4.1625 i-0.55 j0.0175
x13.9919 y4.365 i-0.5503 j0.
x13.7528 y4.5821 i-0.3683 j-0.1654
g01 x13.7032 y4.4237
g02 x13.774 y4.3904 i-0.2085 j-0.5347
x13.8954 y4.2645 i-0.1426 j-0.259
x13.8975 y4.26 i-0.082 j-0.0413
x13.9282 y4.1133 i-0.3348 j-0.1466
x13.9265 y4.0779 i-0.3655 j0.
x13.7966 y3.843 i-0.3039 j0.0147
x13.7932 y3.8408 i-0.0525 j0.0753
x13.7109 y3.803 i-0.1808 j0.2853
x13.7106 y3.8029 i-0.0268 j0.0878
x13.5152 y3.7742 i-0.1953 j0.6498
x13.504 y3.7743 i0. j0.6786
x13.4724 y3.7736 i-0.0316 j0.7607
x13.2779 y3.7989 i0. j0.7614
x13.2769 y3.7992 i0.0235 j0.0888
x13.0392 y4.0879 i0.0864 j0.3134
x13.0372 y4.1236 i0.3169 j0.0357
x13.177 y4.3875 i0.3189 j0.
x13.1812 y4.3902 i0.0516 j-0.076
x13.1955 y4.3984 i0.2005 j-0.3335
g01 x13.1604 y4.561
g03 x13.0225 y4.4465 i0.215 j-0.3991
x12.9465 y4.2592 i0.3306 j-0.2432
g02 x12.946 y4.2557 i-0.0909 j0.0125
g00 z0.1
x3.8174 y4.5445
z-0.15
g01 x3.7997 y4.5549 z-0.1522
x3.7993 y4.5551
x3.7989 y4.5553
x3.7985 y4.5555
x3.7981 y4.5557
x3.7977 y4.5559
x3.7974 y4.5561
x3.7972
x3.797
x3.7968
x3.7966
x3.7964
x3.7963
x3.7623 y4.3993 z-0.1695
x3.7792 y4.3892 z-0.1716
x3.7954 y4.3779 z-0.1736
x3.8109 y4.3655 z-0.1757
x3.8254 y4.3522 z-0.1778
x3.839 y4.3378 z-0.1799
x3.8516 y4.3226 z-0.1819
x3.8517 y4.3224
x3.8519 y4.3222
x3.852 y4.322
x3.8522 y4.3219
x3.8523 y4.3217
x3.8524 y4.3215
x3.8859 y4.2668 z-0.1888
x3.9085 y4.2069 z-0.1956
x3.9195 y4.1437 z-0.2023
x3.9185 y4.0797 z-0.209
x3.9055 y4.0169 z-0.2158
x3.8811 y3.9577 z-0.2225
x3.8808 y3.9572
x3.8805 y3.9567
x3.8803 y3.9562
x3.88 y3.9557
x3.8797 y3.9552
x3.6382 y3.7871
x3.8794 y3.9547
x3.8511 y3.9128 z-0.2282
x3.8169 y3.8756 z-0.2335
x3.7776 y3.8438 z-0.2388
x3.7341 y3.8181 z-0.2441
x3.6873 y3.7991 z-0.2494
x3.6382 y3.7871 z-0.2547
x3.5734 y3.7777 z-0.2616
x3.5082 y3.7729 z-0.2685
x3.4428 y3.7727 z-0.2754
x3.3775 y3.7773 z-0.2822
x3.3128 y3.7865 z-0.2891
x3.2488 y3.8003 z-0.296
x3.2486
x3.2483
x3.2481
x3.2478
x3.2475
x3.2473
x3.2006 y3.8177 z-0.3014
x3.1575 y3.8422 z-0.3066
x3.1191 y3.8737 z-0.3118
x3.0866 y3.9112 z-0.317
x3.0607 y3.9536 z-0.3222
x3.0424 y3.9997 z-0.3274
y3.9999
y4.0001
y4.0004
y4.0006
y4.0008
x3.0347 y4.192
x3.042 y4.001
x3.0343 y4.0323 z-0.331
x3.0293 y4.064 z-0.3344
x3.0267 y4.0961 z-0.3377
y4.1282 z-0.3411
x3.0294 y4.1603 z-0.3445
x3.0347 y4.192 z-0.3479
x3.0438 y4.2276 z-0.3517
x3.0574 y4.2617 z-0.3556
x3.0753 y4.2938 z-0.3595
x3.0973 y4.3233 z-0.3633
x3.1228 y4.3497 z-0.3672
x3.1515 y4.3726 z-0.371
x3.1517 y4.3727
x3.1519 y4.3728
x3.152 y4.373
x3.1676 y4.3832 z-0.3731
x3.1835 y4.3929 z-0.375
x3.1998 y4.402 z-0.377
x3.2164 y4.4105 z-0.3789
x3.2333 y4.4183 z-0.3809
x3.2505 y4.4255 z-0.3829
x3.2018 y4.5811 z-0.4
x3.2028 y4.5833
g03 x3.0456 y4.4845 i0.172 j-0.4482
x2.9312 y4.2332 i0.2817 j-0.28
g02 x2.9308 y4.2295 i-0.0916 j0.0066
g03 x2.925 y4.1265 i0.9055 j-0.1029
x2.9552 y3.8937 i0.9113 j0.
x3.1072 y3.683 i0.3771 j0.1118
g02 x3.1086 y3.682 i-0.0526 j-0.0753
g03 x3.3862 y3.5802 i0.3175 j0.4366
g02 x3.3903 y3.5798 i-0.0068 j-0.0915
g03 x3.4798 y3.5745 i0.0895 j0.7497
x3.743 y3.6218 i0. j0.755
x4.0028 y3.941 i-0.1642 j0.3991
g02 x4.0031 y3.9426 i0.0902 j-0.017
g03 x4.0208 y4.1152 i-0.8361 j0.1725
x3.9982 y4.3102 i-0.8537 j0.
x3.8004 y4.5563 i-0.3625 j-0.0887
g02 x3.7981 y4.5575 i0.0405 j0.0824
g03 x3.7951 y4.5591 i-0.3011 j-0.5709
g01 x3.7604 y4.3985
g02 x3.8503 y4.3216 i-0.1392 j-0.2538
x3.8511 y4.3205 i-0.0727 j-0.0561
x3.9189 y4.1169 i-0.2719 j-0.2036
x3.8797 y3.9584 i-0.3397 j0.
x3.878 y3.9555 i-0.0812 j0.0428
x3.6379 y3.7887 i-0.2966 j0.1708
x3.4737 y3.7739 i-0.1641 j0.8996
x3.2492 y3.8018 i0. j0.9144
x3.2477 y3.8022 i0.0225 j0.089
x3.0439 y4.0002 i0.0769 j0.2831
x3.0435 y4.0015 i0.0878 j0.0266
x3.0281 y4.1114 i0.3827 j0.1099
x3.0363 y4.1917 i0.3982 j0.
x3.1525 y4.3713 i0.2776 j-0.0522
x3.1529 y4.3716 i0.0525 j-0.0753
x3.2525 y4.4246 i0.2835 j-0.4128
g01 x3.2028 y4.5833
g00 z0.1
x3.6137 y5.4537
z-0.15
g01 x3.3538 y5.6314 z-0.1831
x3.3409 y5.642 z-0.1848
x3.3301 y5.6548 z-0.1866
x3.3219 y5.6693 z-0.1884
x3.3164 y5.6851 z-0.1901
x3.3138 y5.7016 z-0.1919
x3.3143 y5.7184 z-0.1936
x3.3177 y5.7347 z-0.1954
x3.3241 y5.7502 z-0.1971
x3.3331 y5.7642 z-0.1989
x3.3446 y5.7764 z-0.2007
x3.358 y5.7863 z-0.2024
x3.3731 y5.7936 z-0.2042
x3.3892 y5.7981 z-0.2059
x3.4058 y5.7997 z-0.2077
x4.0012 z-0.2703
y5.9779 z-0.289
x2.9451 z-0.4
x3.1824 y5.7602
g02 x3.2188 y5.8406 i0.2234 j-0.0528
g01 x3.0825
y5.8286
x3.1824 y5.7602
x3.7602 y5.1872
g02 x3.7238 y5.1068 i-0.2234 j0.0527
g01 x3.8639
y5.1163
x3.7602 y5.1872
x2.9448 y5.9783
y5.7559
x3.5887 y5.3157
g02 x3.6287 y5.2399 i-0.0518 j-0.0758
x3.5369 y5.1481 i-0.0918 j0.
g01 x2.9448
y4.9691
x4.0016
y5.1889
x3.354 y5.6317
g02 x3.314 y5.7075 i0.0518 j0.0758
x3.4058 y5.7993 i0.0918 j0.
g01 x4.0016
y5.9783
x2.9448
g00 z0.1
x3.8659 y7.088
z-0.15
g01 x3.8912 y7.0439 z-0.1553
x3.9106 y6.9892 z-0.1614
x3.9198 y6.932 z-0.1675
x3.9185 y6.874 z-0.1736
x3.9092 y6.8176 z-0.1796
x3.8902 y6.7637 z-0.1857
x3.8621 y6.7139 z-0.1917
x3.8258 y6.6697 z-0.1977
x3.7823 y6.6326 z-0.2037
x3.733 y6.6036 z-0.2097
x3.6795 y6.5837 z-0.2157
x3.6793
x3.6791
x3.679
x3.6788
x3.6787
x3.6785
x3.6414 y6.5746 z-0.2198
x3.6039 y6.5676 z-0.2238
x3.5661 y6.5626 z-0.2278
x3.5281 y6.5594 z-0.2318
x3.49 y6.5581 z-0.2358
x3.4519 y6.5587 z-0.2398
x3.4169 y6.5591 z-0.2435
x3.382 y6.5612 z-0.2472
x3.3473 y6.5651 z-0.2509
x3.3128 y6.5708 z-0.2545
x3.2786 y6.5782 z-0.2582
x3.2448 y6.5874 z-0.2619
x3.2447
x3.2446
x3.2445
x3.23 y6.5923 z-0.2635
x3.2158 y6.5977 z-0.2651
x3.2018 y6.6038 z-0.2667
x3.1881 y6.6104 z-0.2683
x3.1748 y6.6177 z-0.2699
x3.1617 y6.6255 z-0.2715
x3.1612 y6.6259
x3.1606 y6.6263
x3.16 y6.6267
x3.1594 y6.627
x3.1589 y6.6274
x3.1583 y6.6278
x3.1222 y6.6573 z-0.2769
x3.0911 y6.6918 z-0.2818
x3.0655 y6.7307 z-0.2866
x3.0462 y6.7731 z-0.2915
x3.0334 y6.8178 z-0.2964
x3.0276 y6.864 z-0.3013
x3.026 y6.8952 z-0.3046
x3.0269 y6.9264 z-0.3079
x3.0305 y6.9574 z-0.3112
x3.0367 y6.9879 z-0.3144
x3.0455 y7.0179 z-0.3177
x3.0568 y7.047 z-0.321
x3.0571 y7.0477
x3.0575 y7.0485
x3.0578 y7.0493
x3.0582 y7.05
x3.0586 y7.0508
x3.1811 y7.1782
x3.0589 y7.0515
x3.0737 y7.0774 z-0.3247
x3.0909 y7.1017 z-0.3278
x3.1104 y7.1241 z-0.3309
x3.1321 y7.1445 z-0.334
x3.1558 y7.1626 z-0.3372
x3.1811 y7.1782 z-0.3403
x3.1923 y7.1843 z-0.3416
x3.2037 y7.1902 z-0.343
x3.2153 y7.1958 z-0.3443
x3.2269 y7.2011 z-0.3457
x3.2387 y7.2062 z-0.347
x3.2505 y7.211 z-0.3484
x3.202 y7.3661 z-0.3655
x3.1515 y7.3448 z-0.3712
x3.1044 y7.3169 z-0.377
x3.0615 y7.2828 z-0.3827
x3.0236 y7.2433 z-0.3885
x2.9915 y7.1989 z-0.3942
x2.9657 y7.1506 z-0.4
x2.964 y7.1513
g03 x2.9254 y6.9488 i0.5116 j-0.2025
x2.9257 y6.9313 i0.5503 j0.
g02 x2.9257 y6.9284 i-0.0918 j-0.0029
x2.9256 y6.9244 i-0.0918 j0.
g03 x2.925 y6.8932 i0.7199 j-0.0312
x2.9827 y6.6106 i0.7206 j0.
x3.2284 y6.4015 i0.4023 j0.2239
x3.4812 y6.362 i0.2529 j0.7887
x3.6442 y6.3782 i0. j0.8283
g02 x3.6472 y6.3787 i0.0181 j-0.09
g03 x3.9842 y6.6632 i-0.0708 j0.4258
x4.022 y6.9045 i-0.7529 j0.2414
x4.0099 y7.042 i-0.7906 j0.
g02 x4.0094 y7.0454 i0.0904 j0.016
g03 x3.9334 y7.2328 i-0.4066 j-0.0559
x3.7955 y7.3472 i-0.3529 j-0.2846
g01 x3.7604 y7.1846
g02 x3.7747 y7.1764 i-0.1862 j-0.3417
x3.779 y7.1737 i-0.0473 j-0.0787
x3.9187 y6.9099 i-0.1791 j-0.2638
x3.9167 y6.8742 i-0.3189 j0.
x3.679 y6.5854 i-0.3242 j0.0247
x3.678 y6.5852 i-0.0244 j0.0885
x3.4835 y6.5599 i-0.1945 j0.7361
x3.4519 y6.5605 i0. j0.7614
x3.4407 y6.5605 i-0.0112 j0.6785
x3.2454 y6.5892 i0. j0.6786
x3.245 y6.5893 i0.0264 j0.0879
x3.1627 y6.6271 i0.0984 j0.323
x3.1593 y6.6293 i0.0491 j0.0775
x3.0295 y6.8642 i0.174 j0.2496
x3.0277 y6.8996 i0.3638 j0.0354
x3.0584 y7.0462 i0.3655 j0.
x3.0606 y7.0507 i0.0841 j-0.0368
x3.182 y7.1766 i0.264 j-0.1331
