(1001)
(TEST SLOTTING)
(T1 D=8. CR=0. - ZMIN=-14. - FLAT END MILL)
(CYCLE TIME = 0.471 MINUTES)
G90 G94 G17
G21
G28 G91 Z0.
G64 P0.1 Q0.01
(2D ADAPTIVE1)
(T1 M06)
(8MM FLAT ENDMILL)
S10000 M03
G54
M08
G90 G00 X0.519 Y33.458
(G43 Z15. H01)
G00 Z5.
Z-11.2
G01 Z-12. F2500.
Z-14.
G03 X-0.108 Y29.103 I19.785 J-5.068
G01 Y28.97
X-0.017 Y28.85
X0.09 Y28.746
X0.206 Y28.65
X0.341 Y28.553
X0.512 Y28.443
X0.724 Y28.323
X0.99 Y28.193
X1.322 Y28.052
X1.658 Y27.97
X2.004 Y27.962
X2.344 Y28.026
X2.662 Y28.161
X2.945 Y28.36
X3.179 Y28.614
X3.355 Y28.912
X3.463 Y29.241
X3.5 Y29.585
G03 X3.13 Y30.232 Z-13.876 I-0.8 J-0.028
X2.673 Y30.356 Z-13.8 I-0.429 J-0.675 F8000.
X2.617 Y30.352 I0.027 J-0.8
G01 X-2.674 Y29.794
X-2.784 Y29.782 Z-13.818
G03 X-3.13 Y29.662 Z-13.876 I0.084 J-0.796
X-3.5 Y29.015 Z-14. I0.429 J-0.675 F2500.
G01 Y28.865
X-3.499 Y28.839
X-3.39 Y28.735
X-3.274 Y28.641
X-2.477 Y28.072
X-1.757 Y27.617
X-1.254 Y27.337
X-0.869 Y27.15
X-0.508 Y27.
X-0.192 Y26.889
X0.088 Y26.807
X0.38 Y26.74
X0.63 Y26.698
X0.874 Y26.67
X1.122 Y26.656
X1.339
X1.72 Y26.709
X2.087 Y26.826
X2.429 Y27.003
X2.736 Y27.234
X3. Y27.513
X3.214 Y27.833
X3.372 Y28.185
X3.468 Y28.557
X3.5 Y28.941
G03 X3.13 Y29.588 Z-13.876 I-0.8 J-0.028
X2.689 Y29.713 Z-13.803 I-0.429 J-0.675 F8000.
G01 X2.673 Y29.712 Z-13.8
X-2.673 Y29.637
X-2.712 Z-13.806
G03 X-3.13 Y29.512 Z-13.876 I0.011 J-0.8
X-3.5 Y28.865 Z-14. I0.429 J-0.675 F2500.
G01 Y28.163
X-3.493 Y28.014
X-3.383 Y27.822
X-3.258 Y27.629
X-3.105 Y27.421
X-2.935 Y27.214
X-2.744 Y27.007
X-2.531 Y26.801
X-2.301 Y26.601
X-2.053 Y26.411
X-1.794 Y26.233
X-1.524 Y26.07
X-1.245 Y25.922
X-0.96 Y25.791
X-0.702 Y25.689
X-0.427 Y25.598
X-0.168 Y25.528
X0.074 Y25.478
X0.337 Y25.438
X0.567 Y25.416
X0.811 Y25.407
X1.049 Y25.412
X1.262 Y25.428
X1.497 Y25.459
X1.712 Y25.5
X2.082 Y25.626
X2.426 Y25.811
X2.735 Y26.05
X3. Y26.337
X3.214 Y26.663
X3.371 Y27.021
X3.468 Y27.4
X3.5 Y27.789
G03 X3.13 Y28.436 Z-13.876 I-0.8 J-0.028
X2.756 Y28.559 Z-13.813 I-0.429 J-0.675 F8000.
G01 X2.673 Y28.565 Z-13.8
X-2.645 Y28.934
G03 X-2.673 Y28.935 I-0.055 J-0.798
X-3.13 Y28.811 Z-13.876 I-0.027 J-0.8
X-3.5 Y28.163 Z-14. I0.429 J-0.675 F2500.
G01 Y27.204
X-3.493 Y27.054
X-3.448 Y26.911
X-3.392 Y26.761
X-3.321 Y26.602
X-3.239 Y26.441
X-3.139 Y26.27
X-3.022 Y26.093
X-2.892 Y25.919
X-2.745 Y25.744
X-2.579 Y25.567
X-2.398 Y25.394
X-2.202 Y25.229
X-1.994 Y25.071
X-1.772 Y24.922
X-1.538 Y24.783
X-1.293 Y24.656
X-1.038 Y24.541
X-0.776 Y24.44
X-0.505 Y24.354
X-0.233 Y24.283
X0.012 Y24.234
X0.282 Y24.196
X0.524 Y24.176
X0.763 Y24.169
X1.013 Y24.176
X1.232 Y24.194
X1.468 Y24.228
X1.692 Y24.273
X1.894 Y24.325
X2.277 Y24.487
X2.624 Y24.714
X2.926 Y25.001
X3.171 Y25.337
X3.352 Y25.711
X3.463 Y26.111
X3.5 Y26.525
G03 X3.13 Y27.173 Z-13.876 I-0.8 J-0.028
X2.8 Y27.291 Z-13.82 I-0.429 J-0.675 F8000.
G01 X2.674 Y27.307 Z-13.8
X-2.601 Y27.97
G03 X-2.673 Y27.976 I-0.1 J-0.794
X-3.13 Y27.851 Z-13.876 I-0.027 J-0.8
X-3.5 Y27.204 Z-14. I0.429 J-0.675 F2500.
G01 Y26.137
X-3.493 Y25.987
X-3.466 Y25.84
X-3.429 Y25.694
X-3.383 Y25.552
X-3.327 Y25.407
X-3.257 Y25.253
X-3.175 Y25.096
X-3.08 Y24.937
X-2.968 Y24.771
X-2.841 Y24.603
X-2.7 Y24.439
X-2.542 Y24.274
X-2.366 Y24.109
X-2.176 Y23.95
X-1.971 Y23.798
X-1.753 Y23.655
X-1.523 Y23.522
X-1.283 Y23.399
X-1.031 Y23.289
X-0.771 Y23.192
X-0.503 Y23.109
X-0.228 Y23.04
X0.046 Y22.988
X0.289 Y22.956
X0.559 Y22.935
X0.806 Y22.931
X1.033 Y22.939
X1.284 Y22.963
X1.508 Y22.996
X1.719 Y23.041
X1.95 Y23.103
X2.32 Y23.263
X2.656 Y23.486
X2.947 Y23.766
X3.183 Y24.093
X3.357 Y24.456
X3.464 Y24.845
X3.5 Y25.247
G03 X3.13 Y25.894 Z-13.876 I-0.8 J-0.028
X2.831 Y26.008 Z-13.825 I-0.429 J-0.675 F8000.
G01 X2.675 Y26.034 Z-13.8
X-2.57 Y26.899
G03 X-2.673 Y26.909 I-0.13 J-0.789
X-3.13 Y26.784 Z-13.876 I-0.027 J-0.8
X-3.5 Y26.137 Z-14. I0.429 J-0.675 F2500.
G01 Y24.987
X-3.493 Y24.837
X-3.475 Y24.688
X-3.446 Y24.541
X-3.407 Y24.396
X-3.359 Y24.254
X-3.301 Y24.111
X-3.23 Y23.958
X-3.145 Y23.801
X-3.048 Y23.644
X-2.935 Y23.482
X-2.805 Y23.316
X-2.662 Y23.152
X-2.504 Y22.991
X-2.327 Y22.831
X-2.133 Y22.674
X-1.926 Y22.524
X-1.706 Y22.383
X-1.473 Y22.252
X-1.229 Y22.133
X-0.976 Y22.026
X-0.712 Y21.931
X-0.441 Y21.851
X-0.166 Y21.787
X0.112 Y21.738
X0.358 Y21.708
X0.631 Y21.692
X0.876 Y21.69
X1.105 Y21.702
X1.356 Y21.729
X1.575 Y21.765
X1.79 Y21.813
X2.146 Y21.946
X2.476 Y22.134
X2.771 Y22.374
X3.024 Y22.657
X3.228 Y22.978
X3.378 Y23.328
X3.469 Y23.697
X3.5 Y24.075
Y25.247
G03 X3.13 Y25.894 Z-13.876 I-0.8 J-0.028
X2.673 Y26.018 Z-13.8 I-0.429 J-0.675 F8000.
X2.662 I0.027 J-0.8
G01 X-2.673 Y25.761
X-2.739 Y25.758 Z-13.81
G03 X-3.13 Y25.634 Z-13.876 I0.038 J-0.799
X-3.5 Y24.987 Z-14. I0.429 J-0.675 F2500.
G01 Y23.739
X-3.493 Y23.59
X-3.474 Y23.441
X-3.445 Y23.293
X-3.406 Y23.149
X-3.358 Y23.007
X-3.299 Y22.861
X-3.227 Y22.708
X-3.143 Y22.555
X-3.045 Y22.396
X-2.93 Y22.232
X-2.801 Y22.068
X-2.659 Y21.906
X-2.498 Y21.744
X-2.319 Y21.582
X-2.125 Y21.426
X-1.918 Y21.277
X-1.698 Y21.137
X-1.463 Y21.006
X-1.217 Y20.886
X-0.961 Y20.779
X-0.695 Y20.684
X-0.422 Y20.605
X-0.146 Y20.54
X0.102 Y20.497
X0.371 Y20.466
X0.617 Y20.452
X0.855 Y20.451
X1.106 Y20.464
X1.324 Y20.488
X1.561 Y20.528
X1.781 Y20.578
X1.856 Y20.599
X2.246 Y20.751
X2.601 Y20.972
X2.909 Y21.254
X3.161 Y21.587
X3.347 Y21.962
X3.461 Y22.364
X3.5 Y22.78
Y24.075
G03 X3.13 Y24.723 Z-13.876 I-0.8 J-0.028
X2.673 Y24.847 Z-13.8 I-0.429 J-0.675 F8000.
X2.651 Y24.846 I0.027 J-0.8
G01 X-2.673 Y24.515
X-2.75 Y24.51 Z-13.812
G03 X-3.13 Y24.386 Z-13.876 I0.05 J-0.798
X-3.5 Y23.739 Z-14. I0.429 J-0.675 F2500.
G01 Y22.54
X-3.492 Y22.372
X-3.476 Y22.223
X-3.448 Y22.075
X-3.411 Y21.93
X-3.364 Y21.788
X-3.307 Y21.642
X-3.238 Y21.492
X-3.157 Y21.34
X-3.06 Y21.18
X-2.948 Y21.016
X-2.823 Y20.855
X-2.682 Y20.692
X-2.522 Y20.527
X-2.346 Y20.365
X-2.157 Y20.21
X-1.955 Y20.062
X-1.737 Y19.92
X-1.505 Y19.788
X-1.263 Y19.667
X-1.008 Y19.557
X-0.747 Y19.462
X-0.478 Y19.38
X-0.202 Y19.314
X0.06 Y19.265
X0.318 Y19.233
X0.593 Y19.214
X0.828 Y19.211
X1.074 Y19.222
X1.32 Y19.247
X1.534 Y19.281
X1.762 Y19.33
X1.793 Y19.339
X2.148 Y19.469
X2.477 Y19.654
X2.772 Y19.891
X3.025 Y20.172
X3.228 Y20.49
X3.378 Y20.838
X3.469 Y21.204
X3.5 Y21.581
Y22.78
G03 X3.13 Y23.427 Z-13.876 I-0.8 J-0.028
X2.673 Y23.552 Z-13.8 I-0.429 J-0.675 F8000.
G01 X2.665 Y23.551
X-2.673 Y23.314
X-2.736 Y23.312 Z-13.81
G03 X-3.13 Y23.188 Z-13.876 I0.035 J-0.799
X-3.5 Y22.54 Z-14. I0.429 J-0.675 F2500.
G01 Y21.269
X-3.493 Y21.119
X-3.475 Y20.97
X-3.447 Y20.823
X-3.409 Y20.678
X-3.361 Y20.535
X-3.304 Y20.392
X-3.233 Y20.239
X-3.15 Y20.085
X-3.054 Y19.928
X-2.941 Y19.765
X-2.813 Y19.6
X-2.671 Y19.439
X-2.513 Y19.277
X-2.336 Y19.116
X-2.144 Y18.959
X-1.939 Y18.81
X-1.72 Y18.67
X-1.487 Y18.538
X-1.243 Y18.418
X-0.988 Y18.31
X-0.723 Y18.214
X-0.452 Y18.133
X-0.175 Y18.068
X0.076 Y18.023
X0.349 Y17.99
X0.597 Y17.974
X0.837 Y17.972
X1.09 Y17.985
X1.31 Y18.008
X1.547 Y18.046
X1.769 Y18.095
X2.129 Y18.229
X2.463 Y18.419
X2.762 Y18.661
X3.018 Y18.947
X3.225 Y19.271
X3.376 Y19.624
X3.469 Y19.997
X3.5 Y20.38
Y21.581
G03 X3.13 Y22.228 Z-13.876 I-0.8 J-0.028
X2.673 Y22.353 Z-13.8 I-0.429 J-0.675 F8000.
X2.654 Y22.352 I0.027 J-0.8
G01 X-2.673 Y22.044
X-2.747 Y22.04 Z-13.812
G03 X-3.13 Y21.916 Z-13.876 I0.046 J-0.799
X-3.5 Y21.269 Z-14. I0.429 J-0.675 F2500.
G01 Y20.011
X-3.493 Y19.861
X-3.474 Y19.712
X-3.444 Y19.565
X-3.404 Y19.42
X-3.356 Y19.278
X-3.297 Y19.134
X-3.224 Y18.981
X-3.14 Y18.826
X-3.042 Y18.669
X-2.927 Y18.505
X-2.796 Y18.34
X-2.653 Y18.179
X-2.492 Y18.017
X-2.313 Y17.855
X-2.119 Y17.7
X-1.912 Y17.552
X-1.691 Y17.412
X-1.458 Y17.282
X-1.214 Y17.164
X-0.958 Y17.058
X-0.694 Y16.965
X-0.423 Y16.886
X-0.147 Y16.823
X0.099 Y16.781
X0.37 Y16.75
X0.613 Y16.736
X0.854
X1.103 Y16.75
X1.321 Y16.775
X1.56 Y16.815
X1.779 Y16.866
X2.138 Y17.001
X2.47 Y17.193
X2.767 Y17.435
X3.022 Y17.722
X3.227 Y18.046
X3.377 Y18.399
X3.469 Y18.772
X3.5 Y19.154
Y20.38
G03 X3.13 Y21.028 Z-13.876 I-0.8 J-0.028
X2.673 Y21.152 Z-13.8 I-0.429 J-0.675 F8000.
X2.646 Y21.151 I0.027 J-0.8
G01 X-2.673 Y20.786
X-2.755 Y20.781 Z-13.813
G03 X-3.13 Y20.658 Z-13.876 I0.055 J-0.798
X-3.5 Y20.011 Z-14. I0.429 J-0.675 F2500.
G01 Y18.812
X-3.492 Y18.651
X-3.476 Y18.501
X-3.449 Y18.354
X-3.411 Y18.209
X-3.364 Y18.066
X-3.307 Y17.92
X-3.238 Y17.771
X-3.157 Y17.619
X-3.06 Y17.459
X-2.949 Y17.296
X-2.824 Y17.135
X-2.683 Y16.973
X-2.524 Y16.808
X-2.349 Y16.647
X-2.161 Y16.493
X-1.959 Y16.345
X-1.741 Y16.204
X-1.51 Y16.072
X-1.268 Y15.951
X-1.014 Y15.842
X-0.753 Y15.747
X-0.484 Y15.665
X-0.209 Y15.599
X0.042 Y15.553
X0.306 Y15.52
X0.56 Y15.503
X0.794 Y15.5
X1.049 Y15.511
X1.273 Y15.534
X1.503 Y15.57
X1.732 Y15.62
X1.935 Y15.676
X2.309 Y15.841
X2.648 Y16.069
X2.942 Y16.354
X3.18 Y16.686
X3.356 Y17.055
X3.464 Y17.45
X3.5 Y17.857
Y19.154
G03 X3.13 Y19.801 Z-13.876 I-0.8 J-0.028
X2.673 Y19.926 Z-13.8 I-0.429 J-0.675 F8000.
X2.65 Y19.924 I0.027 J-0.8
G01 X-2.673 Y19.587
X-2.751 Y19.582 Z-13.812
G03 X-3.13 Y19.459 Z-13.876 I0.051 J-0.798
X-3.5 Y18.812 Z-14. I0.429 J-0.675 F2500.
G01 Y17.505
X-3.493 Y17.355
X-3.472 Y17.206
X-3.44 Y17.06
X-3.399 Y16.916
X-3.348 Y16.774
X-3.288 Y16.631
X-3.214 Y16.478
X-3.126 Y16.32
X-3.025 Y16.163
X-2.909 Y16.001
X-2.776 Y15.836
X-2.628 Y15.672
X-2.466 Y15.512
X-2.287 Y15.354
X-2.092 Y15.201
X-1.881 Y15.053
X-1.657 Y14.915
X-1.423 Y14.788
X-1.177 Y14.672
X-0.922 Y14.568
X-0.659 Y14.479
X-0.388 Y14.403
X-0.111 Y14.343
X0.159 Y14.299
X0.404 Y14.274
X0.676 Y14.261
X0.914 Y14.263
X1.148 Y14.279
X1.396 Y14.309
X1.61 Y14.348
X1.831 Y14.401
X2.179 Y14.536
X2.502 Y14.726
X2.79 Y14.964
X3.037 Y15.246
X3.236 Y15.563
X3.381 Y15.907
X3.47 Y16.271
X3.5 Y16.644
Y17.857
G03 X3.13 Y18.504 Z-13.876 I-0.8 J-0.028
X2.673 Y18.629 Z-13.8 I-0.429 J-0.675 F8000.
X2.648 Y18.628 I0.027 J-0.8
G01 X-2.673 Y18.28
X-2.753 Y18.275 Z-13.813
G03 X-3.13 Y18.152 Z-13.876 I0.052 J-0.798
X-3.5 Y17.505 Z-14. I0.429 J-0.675 F2500.
G01 Y16.306
X-3.493 Y16.156
X-3.475 Y16.007
X-3.447 Y15.86
X-3.408 Y15.715
X-3.36 Y15.573
X-3.301 Y15.426
X-3.231 Y15.278
X-3.149 Y15.124
X-3.05 Y14.964
X-2.937 Y14.802
X-2.812 Y14.642
X-2.668 Y14.479
X-2.507 Y14.315
X-2.332 Y14.156
X-2.142 Y14.002
X-1.937 Y13.854
X-1.717 Y13.714
X-1.482 Y13.582
X-1.237 Y13.461
X-0.981 Y13.354
X-0.717 Y13.259
X-0.446 Y13.179
X-0.169 Y13.115
X0.086 Y13.07
X0.349 Y13.039
X0.605 Y13.023
X0.839 Y13.022
X1.093 Y13.035
X1.317 Y13.059
X1.547 Y13.097
X1.774 Y13.148
X1.976 Y13.205
X2.341 Y13.369
X2.671 Y13.594
X2.957 Y13.874
X3.189 Y14.2
X3.36 Y14.561
X3.465 Y14.947
X3.5 Y15.345
Y16.644
G03 X3.13 Y17.291 Z-13.876 I-0.8 J-0.028
X2.673 Y17.415 Z-13.8 I-0.429 J-0.675 F8000.
X2.651 Y17.414 I0.027 J-0.8
G01 X-2.673 Y17.081
X-2.75 Y17.076 Z-13.812
G03 X-3.13 Y16.953 Z-13.876 I0.05 J-0.798
X-3.5 Y16.306 Z-14. I0.429 J-0.675 F2500.
G01 Y15.107
X-3.491 Y14.934
X-3.475 Y14.785
X-3.448 Y14.638
X-3.41 Y14.493
X-3.364 Y14.35
X-3.307 Y14.206
X-3.237 Y14.055
X-3.156 Y13.903
X-3.06 Y13.745
X-2.948 Y13.581
X-2.823 Y13.42
X-2.682 Y13.258
X-2.523 Y13.094
X-2.347 Y12.933
X-2.158 Y12.777
X-1.955 Y12.629
X-1.738 Y12.488
X-1.506 Y12.356
X-1.264 Y12.236
X-1.009 Y12.127
X-0.747 Y12.031
X-0.478 Y11.95
X-0.202 Y11.883
X0.078 Y11.832
X0.328 Y11.801
X0.592 Y11.783
X0.848 Y11.781
X1.074 Y11.791
X1.324 Y11.816
X1.552 Y11.852
X1.76 Y11.898
X1.797 Y11.908
X2.151 Y12.038
X2.48 Y12.224
X2.774 Y12.46
X3.026 Y12.741
X3.229 Y13.059
X3.378 Y13.405
X3.469 Y13.772
X3.5 Y14.148
Y15.345
G03 X3.13 Y15.993 Z-13.876 I-0.8 J-0.028
X2.673 Y16.117 Z-13.8 I-0.429 J-0.675 F8000.
G01 X2.665
X-2.673 Y15.881
X-2.736 Y15.878 Z-13.81
G03 X-3.13 Y15.754 Z-13.876 I0.035 J-0.799
X-3.5 Y15.107 Z-14. I0.429 J-0.675 F2500.
G01 Y13.835
X-3.493 Y13.686
X-3.475 Y13.537
X-3.447 Y13.389
X-3.408 Y13.244
X-3.361 Y13.102
X-3.304 Y12.959
X-3.232 Y12.806
X-3.15 Y12.653
X-3.054 Y12.496
X-2.941 Y12.333
X-2.813 Y12.169
X-2.671 Y12.007
X-2.513 Y11.846
X-2.336 Y11.684
X-2.143 Y11.527
X-1.937 Y11.378
X-1.718 Y11.238
X-1.485 Y11.106
X-1.24 Y10.985
X-0.985 Y10.877
X-0.72 Y10.782
X-0.448 Y10.701
X-0.171 Y10.636
X0.08 Y10.591
X0.352 Y10.558
X0.601 Y10.542
X0.841 Y10.541
X1.093 Y10.553
X1.313 Y10.576
X1.55 Y10.615
X1.772 Y10.664
X2.132 Y10.798
X2.465 Y10.988
X2.764 Y11.229
X3.019 Y11.515
X3.225 Y11.839
X3.377 Y12.192
X3.469 Y12.564
X3.5 Y12.946
Y14.148
G03 X3.13 Y14.795 Z-13.876 I-0.8 J-0.028
X2.673 Y14.919 Z-13.8 I-0.429 J-0.675 F8000.
X2.654 Y14.918 I0.027 J-0.8
G01 X-2.673 Y14.61
X-2.747 Y14.606 Z-13.812
G03 X-3.13 Y14.483 Z-13.876 I0.046 J-0.799
X-3.5 Y13.835 Z-14. I0.429 J-0.675 F2500.
G01 Y12.577
X-3.493 Y12.427
X-3.474 Y12.278
X-3.444 Y12.131
X-3.404 Y11.987
X-3.355 Y11.845
X-3.296 Y11.701
X-3.223 Y11.547
X-3.139 Y11.393
X-3.04 Y11.235
X-2.925 Y11.071
X-2.794 Y10.906
X-2.65 Y10.745
X-2.489 Y10.583
X-2.31 Y10.421
X-2.116 Y10.266
X-1.908 Y10.118
X-1.686 Y9.978
X-1.453 Y9.849
X-1.209 Y9.731
X-0.953 Y9.624
X-0.689 Y9.532
X-0.418 Y9.453
X-0.142 Y9.39
X0.105 Y9.348
X0.375 Y9.318
X0.618 Y9.304
X0.86 Y9.305
X1.108 Y9.319
X1.326 Y9.344
X1.565 Y9.384
X1.784 Y9.435
X2.142 Y9.571
X2.473 Y9.762
X2.769 Y10.004
X3.023 Y10.291
X3.228 Y10.614
X3.378 Y10.966
X3.469 Y11.338
X3.5 Y11.719
Y12.946
G03 X3.13 Y13.594 Z-13.876 I-0.8 J-0.028
X2.673 Y13.718 Z-13.8 I-0.429 J-0.675 F8000.
X2.646 Y13.717 I0.027 J-0.8
G01 X-2.673 Y13.353
X-2.755 Y13.347 Z-13.813
G03 X-3.13 Y13.224 Z-13.876 I0.055 J-0.798
X-3.5 Y12.577 Z-14. I0.429 J-0.675 F2500.
G01 Y11.378
X-3.492 Y11.219
X-3.476 Y11.07
X-3.449 Y10.923
X-3.411 Y10.778
X-3.365 Y10.635
X-3.307 Y10.489
X-3.238 Y10.34
X-3.157 Y10.187
X-3.06 Y10.027
X-2.949 Y9.865
X-2.825 Y9.704
X-2.683 Y9.541
X-2.524 Y9.377
X-2.349 Y9.216
X-2.161 Y9.061
X-1.959 Y8.913
X-1.741 Y8.772
X-1.51 Y8.64
X-1.267 Y8.519
X-1.014 Y8.41
X-0.753 Y8.315
X-0.484 Y8.234
X-0.209 Y8.167
X0.043 Y8.121
X0.307 Y8.088
X0.562 Y8.071
X0.795 Y8.068
X1.05 Y8.079
X1.274 Y8.102
X1.504 Y8.138
X1.734 Y8.188
X1.936 Y8.244
X2.31 Y8.409
X2.649 Y8.637
X2.942 Y8.921
X3.18 Y9.253
X3.356 Y9.622
X3.464 Y10.016
X3.5 Y10.423
Y11.719
G03 X3.13 Y12.366 Z-13.876 I-0.8 J-0.028
X2.673 Y12.491 Z-13.8 I-0.429 J-0.675 F8000.
X2.65 Y12.49 I0.027 J-0.8
G01 X-2.673 Y12.153
X-2.751 Y12.149 Z-13.812
G03 X-3.13 Y12.025 Z-13.876 I0.05 J-0.798
X-3.5 Y11.378 Z-14. I0.429 J-0.675 F2500.
G01 Y10.071
X-3.493 Y9.921
X-3.472 Y9.773
X-3.44 Y9.626
X-3.398 Y9.482
X-3.348 Y9.341
X-3.287 Y9.197
X-3.213 Y9.045
X-3.124 Y8.886
X-3.024 Y8.729
X-2.908 Y8.567
X-2.774 Y8.402
X-2.625 Y8.238
X-2.463 Y8.078
X-2.284 Y7.92
X-2.088 Y7.767
X-1.877 Y7.619
X-1.653 Y7.481
X-1.418 Y7.354
X-1.173 Y7.238
X-0.917 Y7.135
X-0.654 Y7.045
X-0.383 Y6.97
X-0.106 Y6.91
X0.163 Y6.867
X0.41 Y6.841
X0.681 Y6.829
X0.919 Y6.831
X1.153 Y6.847
X1.4 Y6.878
X1.614 Y6.916
X1.835 Y6.969
X2.183 Y7.105
X2.505 Y7.294
X2.792 Y7.533
X3.038 Y7.813
X3.236 Y8.13
X3.382 Y8.474
X3.47 Y8.836
X3.5 Y9.208
Y10.423
G03 X3.13 Y11.07 Z-13.876 I-0.8 J-0.028
X2.673 Y11.195 Z-13.8 I-0.429 J-0.675 F8000.
X2.648 Y11.194 I0.027 J-0.8
G01 X-2.673 Y10.847
X-2.753 Y10.842 Z-13.813
G03 X-3.13 Y10.718 Z-13.876 I0.052 J-0.798
X-3.5 Y10.071 Z-14. I0.429 J-0.675 F2500.
G01 Y8.872
X-3.493 Y8.722
X-3.475 Y8.573
X-3.446 Y8.426
X-3.408 Y8.281
X-3.36 Y8.139
X-3.3 Y7.992
X-3.231 Y7.844
X-3.147 Y7.691
X-3.048 Y7.53
X-2.936 Y7.369
X-2.81 Y7.208
X-2.666 Y7.045
X-2.505 Y6.881
X-2.329 Y6.722
X-2.14 Y6.568
X-1.934 Y6.42
X-1.714 Y6.28
X-1.479 Y6.148
X-1.233 Y6.028
X-0.978 Y5.92
X-0.713 Y5.826
X-0.442 Y5.746
X-0.165 Y5.682
X0.09 Y5.637
X0.353 Y5.606
X0.61 Y5.59
X0.843 Y5.589
X1.097 Y5.603
X1.321 Y5.627
X1.551 Y5.665
X1.778 Y5.716
X1.98 Y5.774
X2.344 Y5.937
X2.673 Y6.162
X2.958 Y6.441
X3.19 Y6.767
X3.36 Y7.127
X3.465 Y7.512
X3.5 Y7.91
Y9.208
G03 X3.13 Y9.856 Z-13.876 I-0.8 J-0.028
X2.673 Y9.98 Z-13.8 I-0.429 J-0.675 F8000.
X2.651 Y9.979 I0.027 J-0.8
G01 X-2.673 Y9.648
X-2.75 Y9.643 Z-13.812
G03 X-3.13 Y9.519 Z-13.876 I0.05 J-0.798
X-3.5 Y8.872 Z-14. I0.429 J-0.675 F2500.
G01 Y7.673
X-3.491 Y7.503
X-3.476 Y7.353
X-3.448 Y7.206
X-3.411 Y7.061
X-3.364 Y6.918
X-3.307 Y6.774
X-3.237 Y6.623
X-3.156 Y6.471
X-3.06 Y6.313
X-2.948 Y6.149
X-2.823 Y5.988
X-2.682 Y5.826
X-2.523 Y5.662
X-2.347 Y5.5
X-2.158 Y5.345
X-1.955 Y5.197
X-1.738 Y5.056
X-1.506 Y4.924
X-1.263 Y4.803
X-1.009 Y4.694
X-0.747 Y4.599
X-0.477 Y4.517
X-0.201 Y4.451
X0.079 Y4.4
X0.33 Y4.369
X0.593 Y4.351
X0.849 Y4.348
X1.076 Y4.358
X1.325 Y4.384
X1.553 Y4.42
X1.762 Y4.465
X1.797 Y4.475
X2.151 Y4.605
X2.48 Y4.79
X2.774 Y5.027
X3.026 Y5.308
X3.229 Y5.625
X3.378 Y5.972
X3.469 Y6.338
X3.5 Y6.714
Y7.91
G03 X3.13 Y8.557 Z-13.876 I-0.8 J-0.028
X2.673 Y8.681 Z-13.8 I-0.429 J-0.675 F8000.
G01 X2.665
X-2.673 Y8.447
X-2.735 Y8.445 Z-13.81
G03 X-3.13 Y8.32 Z-13.876 I0.035 J-0.799
X-3.5 Y7.673 Z-14. I0.429 J-0.675 F2500.
G01 Y6.402
X-3.493 Y6.252
X-3.475 Y6.103
X-3.447 Y5.956
X-3.408 Y5.811
X-3.361 Y5.669
X-3.303 Y5.525
X-3.232 Y5.373
X-3.149 Y5.219
X-3.053 Y5.062
X-2.939 Y4.899
X-2.811 Y4.735
X-2.67 Y4.573
X-2.511 Y4.412
X-2.334 Y4.251
X-2.141 Y4.093
X-1.935 Y3.944
X-1.716 Y3.804
X-1.483 Y3.672
X-1.237 Y3.551
X-0.982 Y3.444
X-0.717 Y3.348
X-0.444 Y3.268
X-0.168 Y3.202
X0.083 Y3.158
X0.356 Y3.125
X0.604 Y3.11
X0.844 Y3.108
X1.096 Y3.121
X1.316 Y3.144
X1.553 Y3.183
X1.774 Y3.232
X2.134 Y3.366
X2.467 Y3.556
X2.765 Y3.797
X3.02 Y4.083
X3.226 Y4.406
X3.377 Y4.758
X3.469 Y5.13
X3.5 Y5.512
Y6.714
G03 X3.13 Y7.361 Z-13.876 I-0.8 J-0.028
X2.673 Y7.486 Z-13.8 I-0.429 J-0.675 F8000.
X2.654 Y7.485 I0.027 J-0.8
G01 X-2.673 Y7.177
X-2.747 Y7.173 Z-13.812
G03 X-3.13 Y7.049 Z-13.876 I0.046 J-0.799
X-3.5 Y6.402 Z-14. I0.429 J-0.675 F2500.
G01 Y5.144
X-3.493 Y4.994
X-3.474 Y4.845
X-3.444 Y4.698
X-3.404 Y4.553
X-3.355 Y4.411
X-3.296 Y4.267
X-3.223 Y4.114
X-3.138 Y3.959
X-3.039 Y3.801
X-2.924 Y3.637
X-2.793 Y3.473
X-2.649 Y3.311
X-2.488 Y3.149
X-2.308 Y2.987
X-2.114 Y2.832
X-1.906 Y2.684
X-1.684 Y2.544
X-1.451 Y2.415
X-1.206 Y2.297
X-0.95 Y2.191
X-0.687 Y2.098
X-0.415 Y2.02
X-0.139 Y1.957
X0.107 Y1.915
X0.378 Y1.885
X0.621 Y1.872
X0.863
X1.111 Y1.886
X1.329 Y1.911
X1.567 Y1.952
X1.786 Y2.002
X2.144 Y2.138
X2.475 Y2.329
X2.77 Y2.571
X3.024 Y2.858
X3.228 Y3.181
X3.378 Y3.532
X3.469 Y3.904
X3.5 Y4.285
Y5.512
G03 X3.13 Y6.159 Z-13.876 I-0.8 J-0.028
X2.673 Y6.284 Z-13.8 I-0.429 J-0.675 F8000.
X2.646 Y6.283 I0.027 J-0.8
G01 X-2.673 Y5.919
X-2.755 Y5.914 Z-13.813
G03 X-3.13 Y5.791 Z-13.876 I0.054 J-0.798
X-3.5 Y5.144 Z-14. I0.429 J-0.675 F2500.
G01 Y3.945
X-3.492 Y3.787
X-3.476 Y3.638
X-3.449 Y3.49
X-3.411 Y3.345
X-3.365 Y3.203
X-3.307 Y3.056
X-3.238 Y2.907
X-3.157 Y2.755
X-3.06 Y2.595
X-2.949 Y2.432
X-2.825 Y2.272
X-2.683 Y2.108
X-2.524 Y1.944
X-2.349 Y1.783
X-2.161 Y1.628
X-1.959 Y1.481
X-1.741 Y1.339
X-1.51 Y1.207
X-1.267 Y1.086
X-1.013 Y0.977
X-0.752 Y0.882
X-0.483 Y0.801
X-0.208 Y0.734
X0.044 Y0.688
X0.307 Y0.655
X0.563 Y0.638
X0.795 Y0.635
X1.051 Y0.646
X1.275 Y0.669
X1.505 Y0.705
X1.734 Y0.755
X1.937 Y0.811
X2.311 Y0.976
X2.649 Y1.204
X2.942 Y1.488
X3.18 Y1.82
X3.356 Y2.189
X3.464 Y2.583
X3.5 Y2.989
Y4.285
G03 X3.13 Y4.932 Z-13.876 I-0.8 J-0.028
X2.673 Y5.056 Z-13.8 I-0.429 J-0.675 F8000.
X2.65 Y5.055 I0.027 J-0.8
G01 X-2.673 Y4.72
X-2.751 Y4.715 Z-13.812
G03 X-3.13 Y4.592 Z-13.876 I0.05 J-0.798
X-3.5 Y3.945 Z-14. I0.429 J-0.675 F2500.
G01 Y2.638
X-3.493 Y2.488
X-3.472 Y2.339
X-3.44 Y2.193
X-3.398 Y2.049
X-3.348 Y1.907
X-3.287 Y1.763
X-3.212 Y1.611
X-3.124 Y1.453
X-3.023 Y1.295
X-2.907 Y1.133
X-2.773 Y0.968
X-2.624 Y0.804
X-2.462 Y0.644
X-2.282 Y0.486
X-2.087 Y0.333
X-1.876 Y0.186
X-1.651 Y0.047
X-1.416 Y-0.08
X-1.171 Y-0.196
X-0.915 Y-0.299
X-0.651 Y-0.388
X-0.381 Y-0.463
X-0.103 Y-0.524
X0.166 Y-0.567
X0.412 Y-0.592
X0.683 Y-0.604
X0.921 Y-0.602
X1.155 Y-0.586
X1.402 Y-0.555
X1.616 Y-0.516
X1.837 Y-0.463
X2.185 Y-0.328
X2.506 Y-0.138
X2.793 Y0.1
X3.039 Y0.38
X3.237 Y0.696
X3.382 Y1.04
X3.47 Y1.402
X3.5 Y1.774
Y2.989
G03 X3.13 Y3.636 Z-13.876 I-0.8 J-0.028
X2.673 Y3.761 Z-13.8 I-0.429 J-0.675 F8000.
X2.649 Y3.76 I0.027 J-0.8
G01 X-2.673 Y3.413
X-2.752 Y3.408 Z-13.813
G03 X-3.13 Y3.285 Z-13.876 I0.052 J-0.798
X-3.5 Y2.638 Z-14. I0.429 J-0.675 F2500.
G01 Y1.439
X-3.493 Y1.289
X-3.475 Y1.14
X-3.446 Y0.993
X-3.407 Y0.848
X-3.359 Y0.706
X-3.3 Y0.559
X-3.23 Y0.411
X-3.147 Y0.257
X-3.048 Y0.096
X-2.935 Y-0.065
X-2.809 Y-0.226
X-2.666 Y-0.389
X-2.504 Y-0.553
X-2.328 Y-0.712
X-2.139 Y-0.865
X-1.933 Y-1.014
X-1.713 Y-1.154
X-1.478 Y-1.286
X-1.232 Y-1.406
X-0.976 Y-1.513
X-0.711 Y-1.608
X-0.44 Y-1.687
X-0.164 Y-1.752
X0.092 Y-1.797
X0.355 Y-1.827
X0.611 Y-1.843
X0.845 Y-1.844
X1.099 Y-1.83
X1.323 Y-1.806
X1.553 Y-1.768
X1.78 Y-1.717
X1.859 Y-1.694
X2.248 Y-1.543
X2.602 Y-1.324
X2.91 Y-1.043
X3.162 Y-0.71
X3.347 Y-0.337
X3.462 Y0.064
X3.5 Y0.48
Y1.774
G03 X3.13 Y2.421 Z-13.876 I-0.8 J-0.028
X2.673 Y2.545 Z-13.8 I-0.429 J-0.675 F8000.
X2.651 Y2.544 I0.027 J-0.8
G01 X-2.673 Y2.214
X-2.75 Y2.209 Z-13.812
G03 X-3.13 Y2.086 Z-13.876 I0.05 J-0.798
X-3.5 Y1.439 Z-14. I0.429 J-0.675 F2500.
G01 Y0.24
X-3.491 Y0.07
X-3.476 Y-0.079
X-3.448 Y-0.227
X-3.411 Y-0.372
X-3.364 Y-0.515
X-3.307 Y-0.659
X-3.237 Y-0.81
X-3.156 Y-0.961
X-3.06 Y-1.12
X-2.948 Y-1.284
X-2.823 Y-1.445
X-2.682 Y-1.607
X-2.523 Y-1.771
X-2.347 Y-1.933
X-2.158 Y-2.088
X-1.955 Y-2.236
X-1.737 Y-2.377
X-1.506 Y-2.509
X-1.263 Y-2.63
X-1.008 Y-2.739
X-0.746 Y-2.835
X-0.476 Y-2.916
X-0.2 Y-2.983
X0.063 Y-3.031
X0.323 Y-3.063
X0.597 Y-3.081
X0.833 Y-3.084
X1.08 Y-3.073
X1.326 Y-3.048
X1.539 Y-3.014
X1.768 Y-2.964
X1.799 Y-2.955
X2.153 Y-2.826
X2.481 Y-2.64
X2.775 Y-2.404
X3.027 Y-2.124
X3.23 Y-1.807
X3.378 Y-1.46
X3.469 Y-1.095
X3.5 Y-0.719
Y0.48
G03 X3.13 Y1.127 Z-13.876 I-0.8 J-0.028
X2.673 Y1.251 Z-13.8 I-0.429 J-0.675 F8000.
G01 X2.665
X-2.673 Y1.014
X-2.736 Y1.011 Z-13.81
G03 X-3.13 Y0.887 Z-13.876 I0.035 J-0.799
X-3.5 Y0.24 Z-14. I0.429 J-0.675 F2500.
G01 Y-1.032
X-3.493 Y-1.182
X-3.475 Y-1.331
X-3.447 Y-1.478
X-3.408 Y-1.623
X-3.36 Y-1.765
X-3.303 Y-1.908
X-3.232 Y-2.061
X-3.149 Y-2.214
X-3.052 Y-2.371
X-2.939 Y-2.535
X-2.811 Y-2.699
X-2.669 Y-2.86
X-2.511 Y-3.022
X-2.334 Y-3.183
X-2.141 Y-3.34
X-1.935 Y-3.488
X-1.717 Y-3.628
X-1.483 Y-3.76
X-1.239 Y-3.88
X-0.983 Y-3.988
X-0.718 Y-4.084
X-0.446 Y-4.164
X-0.169 Y-4.229
X0.083 Y-4.274
X0.356 Y-4.307
X0.604 Y-4.322
X0.844 Y-4.324
X1.097 Y-4.311
X1.317 Y-4.288
X1.554 Y-4.249
X1.776 Y-4.199
X2.135 Y-4.066
X2.467 Y-3.876
X2.765 Y-3.635
X3.02 Y-3.349
X3.226 Y-3.026
X3.377 Y-2.674
X3.469 Y-2.302
X3.5 Y-1.92
Y-0.719
G03 X3.13 Y-0.072 Z-13.876 I-0.8 J-0.028
X2.673 Y0.052 Z-13.8 I-0.429 J-0.675 F8000.
X2.654 Y0.051 I0.027 J-0.8
G01 X-2.673 Y-0.257
X-2.747 Y-0.261 Z-13.812
G03 X-3.13 Y-0.385 Z-13.876 I0.046 J-0.799
X-3.5 Y-1.032 Z-14. I0.429 J-0.675 F2500.
G01 Y-2.29
X-3.493 Y-2.44
X-3.474 Y-2.589
X-3.444 Y-2.736
X-3.404 Y-2.88
X-3.355 Y-3.022
X-3.296 Y-3.166
X-3.222 Y-3.32
X-3.138 Y-3.474
X-3.039 Y-3.632
X-2.924 Y-3.796
X-2.793 Y-3.96
X-2.649 Y-4.122
X-2.488 Y-4.284
X-2.308 Y-4.445
X-2.114 Y-4.601
X-1.905 Y-4.749
X-1.684 Y-4.888
X-1.451 Y-5.017
X-1.206 Y-5.135
X-0.95 Y-5.242
X-0.686 Y-5.334
X-0.414 Y-5.412
X-0.138 Y-5.475
X0.108 Y-5.517
X0.379 Y-5.547
X0.622 Y-5.561
X0.864 Y-5.56
X1.112 Y-5.546
X1.33 Y-5.521
X1.569 Y-5.48
X1.787 Y-5.429
X2.144 Y-5.294
X2.475 Y-5.102
X2.771 Y-4.861
X3.024 Y-4.574
X3.228 Y-4.251
X3.378 Y-3.9
X3.469 Y-3.529
X3.5 Y-3.148
Y-1.92
G03 X3.13 Y-1.273 Z-13.876 I-0.8 J-0.028
X2.673 Y-1.149 Z-13.8 I-0.429 J-0.675 F8000.
X2.646 Y-1.15 I0.027 J-0.8
G01 X-2.673 Y-1.514
X-2.755 Y-1.52 Z-13.813
G03 X-3.13 Y-1.643 Z-13.876 I0.055 J-0.798
X-3.5 Y-2.29 Z-14. I0.429 J-0.675 F2500.
G01 Y-3.489
X-3.492 Y-3.646
X-3.476 Y-3.795
X-3.449 Y-3.942
X-3.411 Y-4.088
X-3.365 Y-4.23
X-3.307 Y-4.376
X-3.238 Y-4.525
X-3.157 Y-4.678
X-3.06 Y-4.838
X-2.949 Y-5.
X-2.825 Y-5.161
X-2.683 Y-5.324
X-2.524 Y-5.488
X-2.349 Y-5.649
X-2.161 Y-5.804
X-1.959 Y-5.951
X-1.74 Y-6.093
X-1.509 Y-6.225
X-1.267 Y-6.346
X-1.013 Y-6.455
X-0.752 Y-6.55
X-0.483 Y-6.632
X-0.208 Y-6.698
X0.045 Y-6.744
X0.308 Y-6.777
X0.563 Y-6.795
X0.796 Y-6.797
X1.051 Y-6.786
X1.276 Y-6.763
X1.505 Y-6.727
X1.735 Y-6.677
X1.938 Y-6.621
X2.311 Y-6.457
X2.65 Y-6.228
X2.943 Y-5.944
X3.181 Y-5.612
X3.356 Y-5.244
X3.464 Y-4.85
X3.5 Y-4.443
Y-3.148
G03 X3.13 Y-2.501 Z-13.876 I-0.8 J-0.028
X2.673 Y-2.376 Z-13.8 I-0.429 J-0.675 F8000.
X2.65 Y-2.378 I0.027 J-0.8
G01 X-2.673 Y-2.714
X-2.751 Y-2.718 Z-13.812
G03 X-3.13 Y-2.842 Z-13.876 I0.05 J-0.798
X-3.5 Y-3.489 Z-14. I0.429 J-0.675 F2500.
G01 Y-4.747
X-3.493 Y-4.897
X-3.475 Y-5.046
X-3.447 Y-5.193
X-3.409 Y-5.338
X-3.361 Y-5.481
X-3.304 Y-5.624
X-3.233 Y-5.776
X-3.15 Y-5.93
X-3.054 Y-6.087
X-2.941 Y-6.25
X-2.813 Y-6.414
X-2.672 Y-6.575
X-2.514 Y-6.737
X-2.337 Y-6.897
X-2.146 Y-7.053
X-1.941 Y-7.202
X-1.723 Y-7.341
X-1.493 Y-7.472
X-1.252 Y-7.591
X-0.998 Y-7.698
X-0.737 Y-7.792
X-0.467 Y-7.872
X-0.191 Y-7.938
X0.086 Y-7.987
X0.332 Y-8.017
X0.601 Y-8.034
X0.85 Y-8.035
X1.077 Y-8.024
X1.328 Y-7.998
X1.552 Y-7.961
X1.763 Y-7.914
X2.125 Y-7.78
X2.46 Y-7.589
X2.76 Y-7.347
X3.017 Y-7.059
X3.224 Y-6.734
X3.376 Y-6.38
X3.469 Y-6.005
X3.5 Y-5.621
Y-4.443
G03 X3.13 Y-3.796 Z-13.876 I-0.8 J-0.028
X2.673 Y-3.672 Z-13.8 I-0.429 J-0.675 F8000.
X2.656 Y-3.673 I0.027 J-0.8
G01 X-2.673 Y-3.972
X-2.745 Y-3.976 Z-13.812
G03 X-3.13 Y-4.1 Z-13.876 I0.045 J-0.799
X-3.5 Y-4.747 Z-14. I0.429 J-0.675 F2500.
G01 Y-5.995
X-3.493 Y-6.145
X-3.475 Y-6.294
X-3.446 Y-6.441
X-3.406 Y-6.585
X-3.359 Y-6.728
X-3.3 Y-6.872
X-3.228 Y-7.024
X-3.145 Y-7.177
X-3.048 Y-7.334
X-2.934 Y-7.498
X-2.806 Y-7.661
X-2.664 Y-7.822
X-2.505 Y-7.983
X-2.327 Y-8.144
X-2.134 Y-8.3
X-1.927 Y-8.448
X-1.708 Y-8.588
X-1.475 Y-8.718
X-1.23 Y-8.838
X-0.975 Y-8.945
X-0.71 Y-9.039
X-0.438 Y-9.119
X-0.163 Y-9.183
X0.083 Y-9.226
X0.353 Y-9.257
X0.598 Y-9.272
X0.837 Y-9.273
X1.087 Y-9.259
X1.306 Y-9.235
X1.543 Y-9.196
X1.765 Y-9.146
X1.968 Y-9.088
X2.335 Y-8.923
X2.667 Y-8.696
X2.954 Y-8.414
X3.187 Y-8.086
X3.359 Y-7.722
X3.465 Y-7.334
X3.5 Y-6.934
Y-5.621
G03 X3.13 Y-4.974 Z-13.876 I-0.8 J-0.028
X2.673 Y-4.849 Z-13.8 I-0.429 J-0.675 F8000.
X2.645 Y-4.851 I0.027 J-0.8
G01 X-2.673 Y-5.219
X-2.756 Y-5.225 Z-13.813
G03 X-3.13 Y-5.348 Z-13.876 I0.055 J-0.798
X-3.5 Y-5.995 Z-14. I0.429 J-0.675 F2500.
G01 Y-7.194
X-3.492 Y-7.361
X-3.476 Y-7.51
X-3.448 Y-7.658
X-3.411 Y-7.803
X-3.364 Y-7.945
X-3.307 Y-8.091
X-3.237 Y-8.241
X-3.157 Y-8.392
X-3.06 Y-8.551
X-2.948 Y-8.714
X-2.824 Y-8.875
X-2.683 Y-9.038
X-2.524 Y-9.201
X-2.348 Y-9.363
X-2.159 Y-9.518
X-1.958 Y-9.665
X-1.74 Y-9.806
X-1.51 Y-9.938
X-1.268 Y-10.058
X-1.014 Y-10.167
X-0.754 Y-10.262
X-0.485 Y-10.343
X-0.209 Y-10.41
X0.069 Y-10.46
X0.32 Y-10.492
X0.582 Y-10.509
X0.839 Y-10.512
X1.065 Y-10.502
X1.315 Y-10.477
X1.544 Y-10.44
X1.752 Y-10.395
X1.806 Y-10.38
X2.158 Y-10.251
X2.485 Y-10.067
X2.778 Y-9.832
X3.028 Y-9.552
X3.231 Y-9.236
X3.379 Y-8.891
X3.47 Y-8.527
X3.5 Y-8.153
Y-6.934
G03 X3.13 Y-6.286 Z-13.876 I-0.8 J-0.028
X2.673 Y-6.162 Z-13.8 I-0.429 J-0.675 F8000.
X2.662 I0.027 J-0.8
G01 X-2.673 Y-6.419
X-2.739 Y-6.423 Z-13.81
G03 X-3.13 Y-6.547 Z-13.876 I0.038 J-0.799
X-3.5 Y-7.194 Z-14. I0.429 J-0.675 F2500.
G01 Y-8.465
X-3.493 Y-8.615
X-3.475 Y-8.764
X-3.446 Y-8.911
X-3.407 Y-9.056
X-3.36 Y-9.198
X-3.302 Y-9.341
X-3.231 Y-9.494
X-3.148 Y-9.648
X-3.051 Y-9.804
X-2.938 Y-9.967
X-2.81 Y-10.131
X-2.668 Y-10.292
X-2.51 Y-10.453
X-2.333 Y-10.614
X-2.14 Y-10.771
X-1.933 Y-10.92
X-1.714 Y-11.06
X-1.482 Y-11.19
X-1.236 Y-11.311
X-0.982 Y-11.418
X-0.717 Y-11.513
X-0.445 Y-11.593
X-0.169 Y-11.658
X0.085 Y-11.703
X0.358 Y-11.735
X0.608 Y-11.751
X0.849 Y-11.752
X1.101 Y-11.739
X1.322 Y-11.715
X1.559 Y-11.676
X1.781 Y-11.627
X2.139 Y-11.493
X2.471 Y-11.304
X2.767 Y-11.063
X3.022 Y-10.778
X3.227 Y-10.455
X3.377 Y-10.104
X3.469 Y-9.733
X3.5 Y-9.352
Y-8.153
G03 X3.13 Y-7.506 Z-13.876 I-0.8 J-0.028
X2.673 Y-7.381 Z-13.8 I-0.429 J-0.675 F8000.
X2.654 Y-7.382 I0.027 J-0.8
G01 X-2.673 Y-7.69
X-2.747 Y-7.694 Z-13.812
G03 X-3.13 Y-7.818 Z-13.876 I0.046 J-0.799
X-3.5 Y-8.465 Z-14. I0.429 J-0.675 F2500.
G01 Y-9.724
X-3.493 Y-9.873
X-3.473 Y-10.022
X-3.443 Y-10.169
X-3.403 Y-10.314
X-3.354 Y-10.455
X-3.294 Y-10.6
X-3.221 Y-10.753
X-3.136 Y-10.908
X-3.037 Y-11.065
X-2.921 Y-11.229
X-2.79 Y-11.394
X-2.646 Y-11.555
X-2.484 Y-11.717
X-2.305 Y-11.877
X-2.11 Y-12.033
X-1.901 Y-12.181
X-1.68 Y-12.32
X-1.446 Y-12.449
X-1.201 Y-12.567
X-0.944 Y-12.673
X-0.68 Y-12.765
X-0.408 Y-12.843
X-0.132 Y-12.905
X0.116 Y-12.947
X0.387 Y-12.977
X0.629 Y-12.99
X0.871 Y-12.989
X1.119 Y-12.974
X1.337 Y-12.949
X1.576 Y-12.908
X1.794 Y-12.857
X2.15 Y-12.721
X2.479 Y-12.53
X2.774 Y-12.289
X3.026 Y-12.003
X3.229 Y-11.681
X3.378 Y-11.33
X3.469 Y-10.961
X3.5 Y-10.581
Y-9.352
G03 X3.13 Y-8.705 Z-13.876 I-0.8 J-0.028
X2.673 Y-8.581 Z-13.8 I-0.429 J-0.675 F8000.
X2.646 Y-8.582 I0.027 J-0.8
G01 X-2.673 Y-8.948
X-2.755 Y-8.953 Z-13.813
G03 X-3.13 Y-9.076 Z-13.876 I0.055 J-0.798
X-3.5 Y-9.724 Z-14. I0.429 J-0.675 F2500.
G01 Y-10.922
X-3.492 Y-11.075
X-3.476 Y-11.224
X-3.449 Y-11.372
X-3.412 Y-11.517
X-3.365 Y-11.66
X-3.307 Y-11.806
X-3.239 Y-11.954
X-3.157 Y-12.107
X-3.06 Y-12.267
X-2.949 Y-12.429
X-2.825 Y-12.59
X-2.683 Y-12.753
X-2.523 Y-12.918
X-2.349 Y-13.078
X-2.161 Y-13.233
X-1.959 Y-13.381
X-1.74 Y-13.522
X-1.509 Y-13.654
X-1.266 Y-13.775
X-1.012 Y-13.884
X-0.751 Y-13.98
X-0.482 Y-14.061
X-0.207 Y-14.127
X0.047 Y-14.174
X0.309 Y-14.206
X0.566 Y-14.224
X0.798 Y-14.227
X1.054 Y-14.215
X1.279 Y-14.192
X1.508 Y-14.156
X1.737 Y-14.106
X1.94 Y-14.05
X2.313 Y-13.886
X2.651 Y-13.658
X2.943 Y-13.374
X3.181 Y-13.043
X3.356 Y-12.675
X3.464 Y-12.281
X3.5 Y-11.875
Y-10.581
G03 X3.13 Y-9.934 Z-13.876 I-0.8 J-0.028
X2.673 Y-9.809 Z-13.8 I-0.429 J-0.675 F8000.
X2.65 Y-9.81 I0.027 J-0.8
G01 X-2.673 Y-10.147
X-2.751 Y-10.152 Z-13.812
G03 X-3.13 Y-10.275 Z-13.876 I0.05 J-0.798
X-3.5 Y-10.922 Z-14. I0.429 J-0.675 F2500.
G01 Y-12.181
X-3.493 Y-12.331
X-3.475 Y-12.48
X-3.446 Y-12.627
X-3.408 Y-12.772
X-3.36 Y-12.914
X-3.302 Y-13.057
X-3.231 Y-13.209
X-3.148 Y-13.364
X-3.051 Y-13.52
X-2.938 Y-13.683
X-2.809 Y-13.848
X-2.667 Y-14.009
X-2.509 Y-14.17
X-2.332 Y-14.331
X-2.14 Y-14.487
X-1.935 Y-14.635
X-1.716 Y-14.775
X-1.485 Y-14.905
X-1.243 Y-15.023
X-0.99 Y-15.131
X-0.728 Y-15.224
X-0.458 Y-15.304
X-0.182 Y-15.369
X0.095 Y-15.418
X0.34 Y-15.447
X0.61 Y-15.464
X0.858 Y-15.465
X1.085 Y-15.453
X1.337 Y-15.426
X1.559 Y-15.39
X1.771 Y-15.342
X2.131 Y-15.208
X2.465 Y-15.017
X2.763 Y-14.776
X3.019 Y-14.489
X3.225 Y-14.165
X3.377 Y-13.811
X3.469 Y-13.438
X3.5 Y-13.055
Y-11.875
G03 X3.13 Y-11.228 Z-13.876 I-0.8 J-0.028
X2.673 Y-11.104 Z-13.8 I-0.429 J-0.675 F8000.
X2.655 Y-11.105 I0.027 J-0.8
G01 X-2.673 Y-11.406
X-2.746 Y-11.41 Z-13.812
G03 X-3.13 Y-11.534 Z-13.876 I0.045 J-0.799
X-3.5 Y-12.181 Z-14. I0.429 J-0.675 F2500.
G01 Y-13.428
X-3.493 Y-13.578
X-3.474 Y-13.727
X-3.445 Y-13.874
X-3.405 Y-14.019
X-3.357 Y-14.161
X-3.299 Y-14.305
X-3.226 Y-14.458
X-3.143 Y-14.611
X-3.045 Y-14.769
X-2.93 Y-14.932
X-2.801 Y-15.095
X-2.659 Y-15.256
X-2.499 Y-15.418
X-2.321 Y-15.578
X-2.127 Y-15.734
X-1.92 Y-15.882
X-1.701 Y-16.021
X-1.467 Y-16.152
X-1.222 Y-16.271
X-0.967 Y-16.378
X-0.701 Y-16.472
X-0.429 Y-16.551
X-0.154 Y-16.614
X0.093 Y-16.657
X0.363 Y-16.688
X0.607 Y-16.702
X0.847
X1.097 Y-16.689
X1.316 Y-16.664
X1.553 Y-16.624
X1.774 Y-16.574
X1.977 Y-16.515
X2.342 Y-16.351
X2.672 Y-16.124
X2.958 Y-15.844
X3.189 Y-15.517
X3.36 Y-15.155
X3.465 Y-14.769
X3.5 Y-14.37
Y-13.055
G03 X3.13 Y-12.408 Z-13.876 I-0.8 J-0.028
X2.673 Y-12.284 Z-13.8 I-0.429 J-0.675 F8000.
X2.645 Y-12.285 I0.027 J-0.8
G01 X-2.673 Y-12.652
X-2.756 Y-12.658 Z-13.813
G03 X-3.13 Y-12.781 Z-13.876 I0.055 J-0.798
X-3.5 Y-13.428 Z-14. I0.429 J-0.675 F2500.
G01 Y-14.627
X-3.492 Y-14.79
X-3.476 Y-14.939
X-3.448 Y-15.087
X-3.411 Y-15.232
X-3.364 Y-15.375
X-3.307 Y-15.52
X-3.238 Y-15.67
X-3.157 Y-15.821
X-3.06 Y-15.981
X-2.948 Y-16.144
X-2.824 Y-16.305
X-2.683 Y-16.467
X-2.524 Y-16.631
X-2.348 Y-16.793
X-2.159 Y-16.947
X-1.958 Y-17.095
X-1.74 Y-17.236
X-1.509 Y-17.368
X-1.267 Y-17.488
X-1.013 Y-17.597
X-0.752 Y-17.692
X-0.483 Y-17.773
X-0.208 Y-17.84
X0.071 Y-17.891
X0.323 Y-17.922
X0.584 Y-17.94
X0.842 Y-17.943
X1.068 Y-17.933
X1.318 Y-17.907
X1.547 Y-17.871
X1.755 Y-17.826
X1.808 Y-17.811
X2.16 Y-17.682
X2.486 Y-17.498
X2.778 Y-17.263
X3.029 Y-16.984
X3.231 Y-16.668
X3.379 Y-16.324
X3.47 Y-15.96
X3.5 Y-15.586
Y-14.37
G03 X3.13 Y-13.723 Z-13.876 I-0.8 J-0.028
X2.673 Y-13.598 Z-13.8 I-0.429 J-0.675 F8000.
X2.662 Y-13.599 I0.027 J-0.8
G01 X-2.673 Y-13.853
X-2.739 Y-13.856 Z-13.81
G03 X-3.13 Y-13.98 Z-13.876 I0.038 J-0.799
X-3.5 Y-14.627 Z-14. I0.429 J-0.675 F2500.
G01 Y-15.899
X-3.493 Y-16.049
X-3.475 Y-16.198
X-3.446 Y-16.345
X-3.407 Y-16.489
X-3.359 Y-16.632
X-3.301 Y-16.775
X-3.229 Y-16.927
X-3.145 Y-17.081
X-3.049 Y-17.238
X-2.935 Y-17.401
X-2.806 Y-17.565
X-2.664 Y-17.727
X-2.505 Y-17.888
X-2.328 Y-18.048
X-2.134 Y-18.205
X-1.927 Y-18.354
X-1.707 Y-18.494
X-1.475 Y-18.624
X-1.229 Y-18.744
X-0.974 Y-18.852
X-0.709 Y-18.946
X-0.436 Y-19.026
X-0.16 Y-19.09
X0.093 Y-19.135
X0.367 Y-19.167
X0.616 Y-19.182
X0.858 Y-19.183
X1.109 Y-19.169
X1.329 Y-19.145
X1.567 Y-19.106
X1.787 Y-19.056
X2.144 Y-18.922
X2.475 Y-18.733
X2.771 Y-18.493
X3.024 Y-18.208
X3.228 Y-17.887
X3.378 Y-17.537
X3.469 Y-17.167
X3.5 Y-16.787
Y-15.586
G03 X3.13 Y-14.939 Z-13.876 I-0.8 J-0.028
X2.673 Y-14.815 Z-13.8 I-0.429 J-0.675 F8000.
X2.654 Y-14.816 I0.027 J-0.8
G01 X-2.673 Y-15.124
X-2.747 Y-15.128 Z-13.812
G03 X-3.13 Y-15.252 Z-13.876 I0.046 J-0.799
X-3.5 Y-15.899 Z-14. I0.429 J-0.675 F2500.
G01 Y-17.157
X-3.493 Y-17.307
X-3.473 Y-17.456
X-3.442 Y-17.602
X-3.402 Y-17.747
X-3.353 Y-17.889
X-3.293 Y-18.033
X-3.219 Y-18.187
X-3.134 Y-18.342
X-3.034 Y-18.499
X-2.918 Y-18.663
X-2.787 Y-18.828
X-2.642 Y-18.99
X-2.48 Y-19.151
X-2.3 Y-19.312
X-2.104 Y-19.467
X-1.895 Y-19.615
X-1.673 Y-19.754
X-1.439 Y-19.883
X-1.193 Y-20.
X-0.936 Y-20.106
X-0.672 Y-20.198
X-0.4 Y-20.275
X-0.123 Y-20.338
X0.124 Y-20.379
X0.395 Y-20.408
X0.637 Y-20.421
X0.88 Y-20.42
X1.127 Y-20.405
X1.345 Y-20.379
X1.584 Y-20.337
X1.801 Y-20.287
X2.156 Y-20.151
X2.484 Y-19.96
X2.777 Y-19.719
X3.028 Y-19.434
X3.231 Y-19.113
X3.379 Y-18.764
X3.47 Y-18.395
X3.5 Y-18.017
Y-16.787
G03 X3.13 Y-16.14 Z-13.876 I-0.8 J-0.028
X2.673 Y-16.015 Z-13.8 I-0.429 J-0.675 F8000.
X2.646 Y-16.017 I0.027 J-0.8
G01 X-2.673 Y-16.381
X-2.755 Y-16.387 Z-13.813
G03 X-3.13 Y-16.51 Z-13.876 I0.055 J-0.798
X-3.5 Y-17.157 Z-14. I0.429 J-0.675 F2500.
G01 Y-18.356
X-3.484 Y-18.656
X-3.464 Y-18.804
X-3.433 Y-18.951
X-3.392 Y-19.095
X-3.342 Y-19.237
X-3.285 Y-19.375
X-3.22 Y-19.511
X-3.149 Y-19.643
X-3.072 Y-19.771
X-2.988 Y-19.896
X-2.9 Y-20.017
X-2.806 Y-20.134
X-2.708 Y-20.248
X-2.606 Y-20.357
X-2.499 Y-20.463
X-2.389 Y-20.565
X-2.275 Y-20.662
X-2.158 Y-20.756
X-2.038 Y-20.846
X-1.914 Y-20.931
X-1.789 Y-21.013
X-1.66 Y-21.09
X-1.529 Y-21.164
X-1.396 Y-21.233
X-1.261 Y-21.298
X-1.124 Y-21.359
X-0.985 Y-21.415
X-0.844 Y-21.467
X-0.702 Y-21.516
X-0.559 Y-21.559
X-0.414 Y-21.599
X-0.268 Y-21.634
X-0.121 Y-21.665
X0.026 Y-21.691
X0.175 Y-21.712
X0.324 Y-21.729
X0.473 Y-21.741
X0.623 Y-21.748
X0.773 Y-21.75
X0.923 Y-21.746
X1.073 Y-21.738
X1.222 Y-21.725
X1.371 Y-21.706
X1.519 Y-21.681
X1.666 Y-21.652
X1.812 Y-21.617
X1.839 Y-21.61
X2.184 Y-21.483
X2.505 Y-21.301
X2.792 Y-21.07
X3.038 Y-20.796
X3.236 Y-20.486
X3.381 Y-20.148
X3.47 Y-19.79
X3.5 Y-19.423
Y-18.017
G03 X3.13 Y-17.37 Z-13.876 I-0.8 J-0.028
X2.673 Y-17.245 Z-13.8 I-0.429 J-0.675 F8000.
X2.65 Y-17.246 I0.027 J-0.8
G01 X-2.673 Y-17.581
X-2.751 Y-17.585 Z-13.812
G03 X-3.13 Y-17.709 Z-13.876 I0.05 J-0.798
X-3.5 Y-18.356 Z-14. I0.429 J-0.675 F2500.
G01 Y-19.663
X-3.483 Y-19.987
X-3.463 Y-20.136
X-3.431 Y-20.283
X-3.39 Y-20.427
X-3.341 Y-20.568
X-3.283 Y-20.707
X-3.219 Y-20.842
X-3.147 Y-20.974
X-3.07 Y-21.103
X-2.95 Y-21.329
X-2.852 Y-21.565
X-2.777 Y-21.81
X-2.727 Y-22.061
X-2.7 Y-22.316
X-2.698 Y-22.572
X-2.721 Y-22.827
X-2.768 Y-23.079
X-2.839 Y-23.325
X-2.933 Y-23.563
X-3.05 Y-23.791
X-3.08 Y-23.838
X-3.261 Y-24.171
X-3.393 Y-24.527
X-3.473 Y-24.897
X-3.5 Y-25.275
G03 X-3.13 Y-25.922 Z-13.876 I0.8 J0.028
X-2.673 Y-26.047 Z-13.8 I0.429 J0.675 F8000.
X-1.9 Y-25.247 I-0.027 J0.8
G01 Y-19.691
G03 X-2.673 Y-18.891 I-0.8
X-3.13 Y-19.016 Z-13.876 I-0.027 J-0.8
X-3.5 Y-19.663 Z-14. I0.429 J-0.675 F2500.
G01 Y-24.938
G03 X-3.179 Y-25.551 Z-13.886 I0.8 J0.028
G01 X-3.131 Y-25.587 Z-13.876
X-2.746 Y-25.875 Z-13.8 F8000.
X2.222 Y-29.588
G03 X2.673 Y-29.746 I0.479 J0.641
X3.13 Y-29.622 Z-13.876 I0.027 J0.8
X3.5 Y-28.975 Z-14. I-0.429 J0.675 F2500.
G01 Y-19.423
G03 X3.121 Y-18.771 I-0.8 J-0.028
G01 X3.033 Y-18.716 Z-13.993
X2.945 Y-18.662 Z-13.973
X2.861 Y-18.61 Z-13.939
X2.781 Y-18.56 Z-13.893
X2.707 Y-18.514 Z-13.835
X2.64 Y-18.473 Z-13.766
X2.582 Y-18.437 Z-13.687
X2.532 Y-18.406 Z-13.6
X2.493 Y-18.382 Z-13.506
X2.464 Y-18.364 Z-13.407
X2.447 Y-18.353 Z-13.304
X2.441 Y-18.35 Z-13.2
G00 Z15.

M09
G28 G91 Z0. M05
G28 X0. Y0.
(T1 M06)
M30

