%
(LCVETTE_SHAKE_TEST)
(MACHINE)
(  VENDOR BOOST CONCEPTS)
(  MODEL XK7130)
(  DESCRIPTION XK7130)
(       STOCK LENGTH  X 4.51 )
(       STOCK WIDTH   Y 2. )
(       STOCK HEIGHT  Z 2. )
(T7 D=0.5 CR=0. - ZMIN=-1.12 - FLAT END MILL)
G90 G94 G17 G91.1
G20
G53 G0 Z0.
(ADAPTIVE2)
T7 M6
S6000 M3
G17 G90 G94
G54
G64 P0.001 Q0.001
M8
G0 X1.0999 Y1.3392
G43 Z0.22 H7
G0 Z-1.02
G1 Z-1.07 F100.
X1.1002 Y1.3391 Z-1.0756
X1.1011 Y1.3388 Z-1.0811
X1.1026 Y1.3382 Z-1.0865
X1.1046 Y1.3375 Z-1.0917
X1.1071 Y1.3365 Z-1.0966
X1.1101 Y1.3353 Z-1.1012
X1.1136 Y1.334 Z-1.1054
X1.1175 Y1.3324 Z-1.1091
X1.1218 Y1.3308 Z-1.1123
X1.1263 Y1.329 Z-1.115
X1.1312 Y1.3271 Z-1.1172
X1.1362 Y1.3252 Z-1.1187
X1.1413 Y1.3232 Z-1.1197
X1.1466 Y1.3212 Z-1.12
G3 X1.4122 Y1.25 I0.4613 J1.1902
G2 X1.5409 Y1.227 I-0.1553 J-1.2432
G3 X1.7575 Y1.2055 I0.2287 J1.2019
X2.1206 Y1.2005 I0.299 J8.5317
G2 X2.2967 Y1.1165 I-0.0185 J-0.2653
X2.3851 Y0.9804 I-0.2814 J-0.2795
X2.436 Y0.7693 I-0.6979 J-0.28
X2.4509 Y0.5339 I-2.1272 J-0.2528
X2.454 Y0.4056 I-38.6072 J-1.0125
G1 X2.456 Y0.3889
X2.4591 Y0.3724
X2.4634 Y0.3561
G2 X2.5011 Y0.1854 I-1.1539 J-0.3443
G1 X2.5017 Y0.1813
X2.5019 Y0.1808
G2 X2.5151 Y0.1379 I-0.4843 J-0.1735
X2.5168 Y0.1257 I-0.0484 J-0.0127
G1 X2.519 Y-0.1015
G2 X2.5176 Y-0.1137 I-0.05 J-0.0005
X2.5051 Y-0.1568 I-0.5 J0.121
G1 X2.505 Y-0.1574
G2 X2.4822 Y-0.2852 I-1.2617 J0.1587
G3 X2.4606 Y-0.5017 I1.1751 J-0.2269
X2.4556 Y-0.8285 I7.4872 J-0.277
G1 X2.4552 Y-0.8467
G2 X2.3963 Y-1.0142 I-0.2486 J-0.0067
X2.2527 Y-1.1225 I-0.29 J0.2352
X2.0611 Y-1.1761 I-0.2742 J0.6106
X1.826 Y-1.1948 I-0.2594 J1.7728
X1.6605 Y-1.1987 I-0.2211 J5.9412
G1 X1.6438 Y-1.201
X1.6273 Y-1.2041
X1.6111 Y-1.2084
G2 X1.4371 Y-1.2466 I-0.346 J1.1612
G1 X1.4321 Y-1.2478
X1.4272 Y-1.2496
X1.4226 Y-1.2518
X1.4182 Y-1.2545
X1.4141 Y-1.2577
X1.4104 Y-1.2612
G3 X1.4508 Y-1.3455 I0.0362 J-0.0345
G1 X2.0009 Y-1.3384
X2.1384 Y-1.3175
X2.2566 Y-1.2845
X2.3447 Y-1.2471
X2.4181 Y-1.2017
X2.4822 Y-1.1452
X2.5635 Y-1.0369
X2.5942 Y-0.9545
X2.6061 Y-0.8858
X2.6041 Y-0.309
G3 X2.4834 Y-0.2815 I-0.062 J0.0066
G1 X2.4822 Y-0.2852
G2 X2.4479 Y-0.4052 I-1.2409 J0.2899
G3 X2.4167 Y-0.5898 I0.7192 J-0.2168
X2.409 Y-0.7349 I2.391 J-0.1988
G2 X2.2782 Y-0.9856 I-0.3604 J0.0285
X2.1051 Y-1.0827 I-0.3306 J0.3867
X1.8747 Y-1.1309 I-0.3099 J0.9064
G3 X1.8031 Y-1.1399 I0.1133 J-1.1857
G1 X1.7874 Y-1.1443
X1.7719 Y-1.1495
X1.7568 Y-1.1557
G2 X1.6159 Y-1.207 I-0.4955 J1.1407
G1 X1.6111 Y-1.2089
X1.6065 Y-1.2113
X1.6022 Y-1.2141
X1.5982 Y-1.2174
X1.5946 Y-1.221
X1.5914 Y-1.225
G3 X1.6434 Y-1.303 I0.0405 J-0.0293
G1 X2.0559 Y-1.2558
X2.1522 Y-1.2282
X2.2669 Y-1.177
X2.3447 Y-1.1272
X2.404 Y-1.0781
X2.4734 Y-0.9957
X2.5098 Y-0.9332
X2.5478 Y-0.8309
X2.5681 Y-0.4326
G3 X2.4479 Y-0.4051 I-0.0621 J0.0048
G2 X2.4109 Y-0.5013 I-1.2215 J0.4145
G3 X2.3783 Y-0.6253 I0.4626 J-0.188
G2 X2.3308 Y-0.781 I-0.532 J0.077
X2.1278 Y-0.9825 I-0.4211 J0.2214
X1.9823 Y-1.0413 I-0.3166 J0.5743
G3 X1.9223 Y-1.0685 I0.0732 J-0.2412
G2 X1.7671 Y-1.151 I-0.6419 J1.0203
G1 X1.7568 Y-1.1557
G3 X1.7946 Y-1.248 I0.0222 J-0.0448
G1 X2.1109 Y-1.1595
X2.2081 Y-1.112
X2.2897 Y-1.0589
X2.3722 Y-0.9842
X2.4301 Y-0.9133
X2.4757 Y-0.8309
X2.497 Y-0.776
X2.5275 Y-0.5425
G3 X2.496 Y-0.474 I-0.0608 J0.0135
G1 X2.4822 Y-0.4686
G3 X2.4109 Y-0.5013 I-0.0155 J-0.0603
G2 X2.3679 Y-0.5905 I-1.2304 J0.5384
X2.2805 Y-0.7495 I-0.9498 J0.4187
X2.1723 Y-0.8631 I-0.5171 J0.3837
G1 X2.1661 Y-0.8703
G3 X2.1697 Y-0.9078 I0.0198 J-0.017
X2.207 Y-0.9025 I0.0161 J0.0205
G1 X2.4117 Y-0.6186
G3 X2.4046 Y-0.5814 I-0.0211 J0.0152
X2.3679 Y-0.5906 I-0.0141 J-0.0219
G2 X1.9322 Y-1.0624 I-1.1127 J0.5903
G1 X1.9223 Y-1.0685
G3 X1.9597 Y-1.159 I0.0281 J-0.0414
G1 X2.1384 Y-1.097
X2.1988 Y-1.0506
X2.2954 Y-0.9545
X2.4059 Y-0.8172
X2.4767 Y-0.7073
X2.5468 Y-0.57
X2.5968 Y-0.4326
X2.6335 Y-0.3086
X2.6508 Y-0.2129
X2.6583 Y-0.1167
X2.657 Y0.1579
X2.5852 Y0.8034
X2.5614 Y0.927
X2.5268 Y1.0369
X2.4859 Y1.1193
X2.4471 Y1.1742
X2.3982 Y1.2292
X2.3035 Y1.3021
X2.2622 Y1.3202
X2.1935 Y1.3439
X2.1247 Y1.3524
X1.5609 Y1.3493
G3 X1.5409 Y1.227 I-0.0033 J-0.0622
G2 X1.6647 Y1.1913 I-0.2791 J-1.2011
G3 X1.8394 Y1.162 I0.2093 J0.7112
X1.9845 Y1.1542 I0.2056 J2.4745
G2 X2.2371 Y1.0272 I-0.0218 J-0.358
X2.3359 Y0.8552 I-0.3774 J-0.3311
X2.3853 Y0.625 I-0.8868 J-0.3109
X2.3921 Y0.5638 I-2.507 J-0.3088
G3 X2.4107 Y0.5016 I0.2446 J0.0396
G2 X2.4611 Y0.364 I-1.1686 J-0.5057
G1 X2.463 Y0.3592
X2.4654 Y0.3546
X2.4682 Y0.3503
X2.4715 Y0.3463
X2.4751 Y0.3427
X2.4791 Y0.3395
G3 X2.5571 Y0.3914 I0.0293 J0.0405
G1 X2.4986 Y0.8446
X2.4669 Y0.9408
X2.4186 Y1.0369
X2.3805 Y1.0918
X2.331 Y1.1506
X2.2604 Y1.2089
X2.2072 Y1.2442
X2.1247 Y1.2813
X2.0559 Y1.2981
X1.6905 Y1.3116
G3 X1.6647 Y1.1913 I-0.0031 J-0.0622
G2 X1.7576 Y1.1553 I-0.3863 J-1.1361
G3 X1.8811 Y1.1231 I0.1868 J0.4633
G2 X2.0368 Y1.0754 I-0.077 J-0.5294
X2.2379 Y0.872 I-0.2224 J-0.4211
X2.2961 Y0.7276 I-0.5743 J-0.3157
G3 X2.3234 Y0.6674 I0.2407 J0.0727
G2 X2.4107 Y0.5016 I-1.0432 J-0.6549
G1 X2.4132 Y0.4971
X2.4162 Y0.4929
X2.4196 Y0.489
X2.4234 Y0.4855
X2.4275 Y0.4824
X2.4319 Y0.4798
G3 X2.5019 Y0.5425 I0.0236 J0.0441
G1 X2.396 Y0.8996
X2.3412 Y0.9957
X2.3008 Y1.0506
X2.2485 Y1.1079
X2.1797 Y1.1651
X2.0966 Y1.2154
X2.0284 Y1.2431
X1.7946 Y1.2728
G3 X1.7575 Y1.1553 I-0.0095 J-0.0616
G2 X1.8496 Y1.1107 I-0.5379 J-1.2284
X1.9932 Y1.033 I-0.4457 J-0.9946
X2.1163 Y0.9193 I-0.351 J-0.503
G1 X2.1234 Y0.9129
G3 X2.1609 Y0.9163 I0.0171 J0.0197
X2.1558 Y0.9537 I-0.0204 J0.0162
G1 X1.8782 Y1.1543
G3 X1.8411 Y1.1475 I-0.0153 J-0.0211
X1.8497 Y1.1108 I0.0218 J-0.0143
G2 X2.3235 Y0.6675 I-0.5955 J-1.1115
G1 X2.3266 Y0.6634
X2.3301 Y0.6596
X2.334 Y0.6562
X2.3382 Y0.6532
X2.3426 Y0.6507
X2.3474 Y0.6486
X2.3526 Y0.6467 Z-1.1197
X2.3578 Y0.6448 Z-1.1187
X2.3628 Y0.6429 Z-1.1172
X2.3677 Y0.6411 Z-1.115
X2.3723 Y0.6394 Z-1.1123
X2.3766 Y0.6378 Z-1.1091
X2.3805 Y0.6363 Z-1.1054
X2.384 Y0.635 Z-1.1012
X2.387 Y0.6339 Z-1.0966
X2.3896 Y0.6329 Z-1.0917
X2.3916 Y0.6322 Z-1.0865
X2.393 Y0.6316 Z-1.0811
X2.3939 Y0.6313 Z-1.0756
X2.3942 Y0.6312 Z-1.07
G0 Z0.22
M5
M9
G90
G53 G0 Z-3.19
G53 G0 X13.1 Y-0.1
M30
%
