(LIFT_HEIGHT_EXAMPLE)
(  BOOST CONCEPTS)
(    XK7130 - XK7130)
(       STOCK LENGTH  X 5.02 )
(       STOCK WIDTH   Y 4.02 )
(       STOCK HEIGHT  Z 0.75 )
(T8 D=0.5 CR=0. - ZMIN=-0.615 - FLAT END MILL)
G90 G94 G17 G91.1
G20
G53 G0 Z0.
(ADAPTIVE1)
T8 M6
S6000 M3
G17 G90 G94
G54
G64 P0.005 Q0.1
M8
G0 X-2.9716 Y-2.3461
G43 Z0.6 H8
G0 Z-0.515
G1 Z-0.565 F72.
X-2.9713 Y-2.346 Z-0.5706
X-2.9705 Y-2.3456 Z-0.5761
X-2.9691 Y-2.3449 Z-0.5815
X-2.9672 Y-2.3439 Z-0.5867
X-2.9647 Y-2.3427 Z-0.5916
X-2.9618 Y-2.3412 Z-0.5962
X-2.9585 Y-2.3395 Z-0.6004
X-2.9548 Y-2.3376 Z-0.6041
X-2.9507 Y-2.3356 Z-0.6073
X-2.9463 Y-2.3334 Z-0.61
X-2.9417 Y-2.331 Z-0.6122
X-2.9369 Y-2.3286 Z-0.6137
X-2.9319 Y-2.3261 Z-0.6147
X-2.9269 Y-2.3236 Z-0.615
G3 X-2.6961 Y-2.1741 I-0.5744 J1.1399
G1 X-2.6894 Y-2.1683
G2 X-2.6949 Y-1.6729 I14.2697 J0.4046
G1 X-2.695 Y-1.3189
Y-0.1864
Y1.7957
G2 X-2.4917 Y2.1297 I0.297 J0.0482
X-2.0741 Y2.191 I0.3753 J-1.1051
X-1.6494 Y2.1949 I0.3365 J-13.4418
G1 X-1.2954 Y2.195
X-0.9415
X1.0405
X2.3854
G2 X2.6074 Y2.0383 I-0.0299 J-0.2778
X2.6859 Y1.6966 I-0.6758 J-0.335
X2.6949 Y1.1304 I-9.7811 J-0.4395
G1 X2.695 Y0.6349
Y-0.2853
Y-1.8426
G2 X2.5772 Y-2.0844 I-0.2485 J-0.0285
G1 X2.5167 Y-2.121
X2.4509 Y-2.1471
G2 X1.9594 Y-2.1916 I-0.398 J1.6567
G1 X1.8885 Y-2.1943
X1.8177 Y-2.1946
X1.6761 Y-2.1949
X1.393 Y-2.195
X0.4728
X-1.5093
X-2.2879
G2 X-2.5261 Y-2.0685 I-0.0162 J0.2569
X-2.624 Y-1.6615 I0.6424 J0.3698
X-2.6318 Y-1.166 I7.3022 J0.363
G1 X-2.6325 Y-0.8828
Y0.8161
Y1.7363
G2 X-2.5014 Y1.9956 I0.3342 J-0.0062
G1 X-2.4954 Y2.0019
G2 X-2.0832 Y2.1707 I0.3808 J-0.342
G1 X-0.7963
G2 X-0.6515 Y2.1582 I0.019 J-0.6216
G3 X0.0265 Y2.1326 I0.5168 J4.7046
G1 X0.3805 Y2.1325
X0.5469
X0.5627 Y2.1335
X0.5784 Y2.1364
X0.5935 Y2.1411
G2 X0.8124 Y2.1707 I0.1833 J-0.5313
G1 X2.0832
G2 X2.228 Y2.1586 I0.0197 J-0.6347
X2.5336 Y1.9546 I-0.0321 J-0.379
G3 X2.558 Y1.9365 I0.0406 J0.0292
G1 X2.5633 Y1.9347 Z-0.6147
X2.5686 Y1.9329 Z-0.6137
X2.5737 Y1.9311 Z-0.6122
X2.5786 Y1.9295 Z-0.61
X2.5832 Y1.9279 Z-0.6073
X2.5875 Y1.9264 Z-0.6041
X2.5915 Y1.925 Z-0.6004
X2.595 Y1.9238 Z-0.5962
X2.5981 Y1.9228 Z-0.5916
X2.6006 Y1.9219 Z-0.5867
X2.6027 Y1.9212 Z-0.5815
X2.6041 Y1.9207 Z-0.5761
X2.605 Y1.9204 Z-0.5706
X2.6053 Y1.9203 Z-0.565
G0 Z0.2
X2.1652 Y2.2086
Z-0.515
G1 Z-0.565 F72.
X2.1654 Y2.2084 Z-0.5706
X2.1661 Y2.2077 Z-0.5761
X2.1672 Y2.2067 Z-0.5815
X2.1688 Y2.2052 Z-0.5867
X2.1707 Y2.2033 Z-0.5916
X2.173 Y2.201 Z-0.5962
X2.1757 Y2.1984 Z-0.6004
X2.1787 Y2.1955 Z-0.6041
X2.182 Y2.1923 Z-0.6073
X2.1855 Y2.1889 Z-0.61
X2.1892 Y2.1853 Z-0.6122
X2.1931 Y2.1816 Z-0.6137
X2.1971 Y2.1777 Z-0.6147
X2.2011 Y2.1738 Z-0.615
G3 X2.228 Y2.1585 I0.0434 J0.0447
G2 X2.6245 Y1.6629 I-0.1074 J-0.4924
X2.6323 Y1.0967 I-12.2222 J-0.4517
G1 X2.6325 Y0.8135
Y-0.319
Y-1.7348
G2 X2.4997 Y-1.9975 I-0.3465 J0.0102
G1 X2.4931 Y-2.0045
G2 X2.0832 Y-2.1707 I-0.3786 J0.3451
G1 X-2.0832
G2 X-2.625 Y-1.6629 I-0.0332 J0.5075
G1 Y1.6629
G2 X-2.4959 Y2.0023 I0.5089 J0.0008
G1 X-2.4952
G2 X-2.4537 Y2.0684 Z-0.61 I0.976 J-0.566
X-2.3154 Y2.2356 I0.9345 J-0.6321
X-2.2844 Y2.25 I0.0353 J-0.0354
G1 X-0.9026 Y2.3677
G2 X-0.8696 Y2.3587 I0.0042 J-0.0498
X-0.7041 Y2.2163 I-0.6496 J-0.9224
X-0.6529 Y2.1592 Z-0.6149 I-0.8151 J-0.7801
G1 X-0.6523 Y2.1586
X-0.6515 Y2.1582 Z-0.615
G2 X-0.5523 Y2.125 I-0.1114 J-0.4986
G3 X-0.2461 Y2.0757 I0.2796 J0.7601
X0.4575 Y2.0729 I0.4078 J14.0576
G1 X0.475 Y2.0823
X0.4915 Y2.0915
G2 X0.5935 Y2.1411 I0.2465 J-0.3766
G3 X0.62 Y2.2067 Z-0.61 I-0.0196 J0.046
X0.5731 Y2.2372 I-0.046 J-0.0195
G1 X-0.5297 Y2.2192
G3 X-0.5731 Y2.1926 I0.0008 J-0.05
X-0.5523 Y2.125 Z-0.615 I0.0442 J-0.0233
G1 X-0.5389 Y2.1185
X-0.5067 Y2.1015
X-0.4906 Y2.0909
G3 X-0.2247 Y2.0214 I0.2708 J0.4925
X0.3656 Y2.0102 I0.4096 J6.0615
X0.4264 Y2.0429 I-0.0405 J0.1483
G2 X0.4915 Y2.0915 I0.2892 J-0.3198
G3 X0.5034 Y2.1612 Z-0.61 I-0.0289 J0.0408
X0.4625 Y2.1823 I-0.0408 J-0.0289
G1 X-0.4617 Y2.1817
G3 X-0.5025 Y2.1606 I0. J-0.05
X-0.4906 Y2.0909 Z-0.615 I0.0408 J-0.0289
G2 X-0.4325 Y2.0485 I-0.2327 J-0.3799
G3 X-0.2015 Y1.971 I0.2553 J0.3783
X0.3194 Y1.9528 I0.3446 J2.4016
X0.3811 Y1.9971 I-0.0673 J0.1591
G2 X0.4264 Y2.043 I0.3923 J-0.3416
G1 X0.4298 Y2.0468 Z-0.6147
X0.4329 Y2.0509 Z-0.6143
X0.4356 Y2.0553 Z-0.614
X0.4378 Y2.0599 Z-0.6137
X0.4394 Y2.0648 Z-0.6134
X0.4406 Y2.0698 Z-0.613
G3 X0.4272 Y2.1136 Z-0.61 I-0.0492 J0.0089
X0.3918 Y2.1286 I-0.0357 J-0.035
G1 X-0.3971 Y2.1342
G3 X-0.4332 Y2.1191 I-0.0004 J-0.05
X-0.4325 Y2.0485 Z-0.615 I0.0357 J-0.035
G1 X-0.4102 Y2.0281
X-0.3988 Y2.0163
X-0.3941 Y2.0114
G3 X-0.0978 Y1.9082 I0.2956 J0.3721
X0.2806 Y1.8979 I0.2205 J1.1447
X0.3456 Y1.95 I-0.0599 J0.1412
G1 X0.3619 Y1.9738
X0.378 Y1.9934
X0.3811 Y1.9971
G3 X0.372 Y2.0672 Z-0.61 I-0.0396 J0.0305
X0.3427 Y2.0776 I-0.0305 J-0.0396
G1 X-0.3553 Y2.0942
G3 X-0.3894 Y2.0819 I-0.0012 J-0.05
X-0.3941 Y2.0114 Z-0.615 I0.0329 J-0.0376
G2 X-0.3608 Y1.9721 I-0.4463 J-0.413
G3 X-0.1159 Y1.8607 I0.2707 J0.2702
X0.255 Y1.8463 I0.2168 J0.7993
X0.3184 Y1.9063 I-0.0708 J0.1381
G1 X0.3298 Y1.9269
X0.3456 Y1.95
G3 X0.3302 Y2.019 Z-0.61 I-0.0422 J0.0268
X0.3052 Y2.0268 I-0.0268 J-0.0422
G1 X-0.3169 Y2.0491
G3 X-0.3458 Y2.0412 I-0.0018 J-0.05
X-0.3608 Y1.9721 Z-0.615 I0.0271 J-0.042
G1 X-0.3298 Y1.9269
G3 X-0.0716 Y1.803 I0.2863 J0.2655
X0.2354 Y1.8006 I0.1571 J0.4661
X0.3003 Y1.8697 I-0.0557 J0.1174
X0.2703 Y1.9337 Z-0.61 I-0.047 J0.017
X0.2591 Y1.9363 I-0.017 J-0.047
G1 X-0.2794 Y1.9993
G3 X-0.308 Y1.9942 I-0.0058 J-0.0497
X-0.3298 Y1.9269 Z-0.615 I0.0228 J-0.0445
G1 X-0.3137 Y1.8978
X-0.3108 Y1.8923
G3 X-0.0771 Y1.7561 I0.2731 J0.2
X0.2212 Y1.7543 I0.1516 J0.4043
X0.2834 Y1.8258 I-0.0602 J0.1151
G1 X0.2883 Y1.8396
X0.3003 Y1.8697
G3 X0.2703 Y1.9337 Z-0.61 I-0.047 J0.017
X0.2559 Y1.9366 I-0.017 J-0.047
G1 X-0.263 Y1.9637
G3 X-0.2871 Y1.9589 I-0.0026 J-0.0499
X-0.3108 Y1.8923 Z-0.615 I0.0215 J-0.0452
G1 X-0.3085 Y1.8878
X-0.3012 Y1.8717
X-0.2947 Y1.8557
G3 X-0.0753 Y1.7093 I0.2637 J0.1577
X0.2413 Y1.7284 I0.1395 J0.3212
X0.2732 Y1.7906 I-0.161 J0.1218
G1 X0.2825 Y1.8235
X0.2834 Y1.8258
G3 X0.2509 Y1.8886 Z-0.61 I-0.0477 J0.0151
X0.239 Y1.8909 I-0.0152 J-0.0476
G1 X-0.2444 Y1.9225
G3 X-0.2647 Y1.9197 I-0.0033 J-0.0499
X-0.2947 Y1.8557 Z-0.615 I0.017 J-0.047
G1 X-0.2883 Y1.8396
X-0.2825 Y1.8235
X-0.2804 Y1.8161
G3 X-0.0504 Y1.6579 I0.264 J0.1375
X0.2195 Y1.6741 I0.1164 J0.3166
X0.2651 Y1.7547 I-0.1037 J0.1118
G1 X0.2692 Y1.7753
X0.2732 Y1.7906
G3 X0.2352 Y1.8502 Z-0.61 I-0.0488 J0.0108
G1 X0.2312 Y1.8509
X0.2273 Y1.8513
X-0.229 Y1.8781
G3 X-0.244 Y1.8767 I-0.0029 J-0.0499
X-0.2804 Y1.8161 Z-0.615 I0.0121 J-0.0485
G1 X-0.2734 Y1.7914
X-0.2692 Y1.7753
G3 X-0.0433 Y1.6121 I0.2575 J0.1183
X0.2208 Y1.6373 I0.1056 J0.2891
X0.2609 Y1.725 I-0.1108 J0.1038
X0.2174 Y1.7771 Z-0.6103 I-0.0499 J0.0025
G1 X0.2135 Y1.7776 Z-0.61
X-0.2134 Y1.8331
G3 X-0.2281 Y1.8328 I-0.0064 J-0.0496
X-0.2692 Y1.7753 Z-0.615 I0.0082 J-0.0493
G1 X-0.2654 Y1.7566
X-0.2629 Y1.7432
X-0.2626 Y1.7405
G3 X-0.0589 Y1.5733 I0.2415 J0.0865
X0.2211 Y1.5988 I0.1154 J0.2833
X0.2578 Y1.686 I-0.1188 J0.1012
G1 X0.2584 Y1.695
X0.2609 Y1.725
G3 X0.2135 Y1.7774 Z-0.61 I-0.0499 J0.0025
G1 X0.213 Y1.7775
X-0.2108 Y1.7945
X-0.2138
X-0.2168 Y1.7943
G3 X-0.2626 Y1.7405 Z-0.615 I0.004 J-0.0498
G1 X-0.2611 Y1.7271
X-0.2593 Y1.7062
G3 X-0.0718 Y1.535 I0.2319 J0.0657
X0.2102 Y1.5512 I0.1249 J0.2885
X0.257 Y1.6525 I-0.0954 J0.1056
G1 X0.2573 Y1.6789
X0.2578 Y1.686
G3 X0.2103 Y1.7375 Z-0.6101 I-0.05 J0.0015
G1 X0.2093 Z-0.61
X-0.2068 Y1.7586
X-0.2094 Y1.7587
X-0.2119 Y1.7586
G3 X-0.2593 Y1.7062 Z-0.615 I0.0025 J-0.0499
G1 X-0.2584 Y1.695
X-0.2573 Y1.6789
X-0.2572 Y1.6707
G3 X-0.0804 Y1.4964 I0.224 J0.0504
X0.2111 Y1.5117 I0.1311 J0.2854
X0.2568 Y1.6135 I-0.0966 J0.1045
G1 Y1.6307
X0.257 Y1.6525
G3 X0.2092 Y1.7013 Z-0.6102 I-0.05 J-0.0012
G1 X0.2059 Y1.7014 Z-0.61
X-0.205 Y1.7194
X-0.2061 Y1.7195
G3 X-0.2572 Y1.6707 Z-0.615 I-0.0012 J-0.05
G1 X-0.2568 Y1.634
G3 X-0.0871 Y1.4573 I0.2208 J0.0422
X0.2128 Y1.4723 I0.136 J0.2851
X0.2568 Y1.5729 I-0.0997 J0.1036
G1 Y1.6135
G3 X0.2094 Y1.6617 Z-0.6103 I-0.05 J-0.0017
G1 X0.2051 Y1.6619 Z-0.61
X-0.2043 Y1.6827
X-0.2056
G3 X-0.2568 Y1.634 Z-0.615 I-0.0012 J-0.05
G1 Y1.5937
G3 X-0.0763 Y1.4121 I0.2261 J0.0442
X0.2119 Y1.4313 I0.1258 J0.2837
X0.2568 Y1.5322 I-0.0965 J0.1034
G1 Y1.5729
G3 X0.2093 Y1.6211 Z-0.6103 I-0.05 J-0.0017
G1 X0.2051 Y1.6213 Z-0.61
X-0.2043 Y1.6419
X-0.2051 Y1.642
G3 X-0.2568 Y1.5937 Z-0.615 I-0.0017 J-0.05
G1 Y1.5537
G3 X-0.0783 Y1.3716 I0.225 J0.042
X0.2172 Y1.3942 I0.1269 J0.2828
X0.2568 Y1.4886 I-0.0998 J0.0974
G1 Y1.5322
G3 X0.2094 Y1.5804 Z-0.6103 I-0.05 J-0.0017
G1 X0.2051 Y1.5806 Z-0.61
X-0.2042 Y1.6018
X-0.2051 Y1.6019
G3 X-0.2568 Y1.5537 Z-0.615 I-0.0017 J-0.05
G1 Y1.51
G3 X-0.0757 Y1.3294 I0.2271 J0.0466
X0.2263 Y1.3609 I0.1236 J0.2779
X0.2568 Y1.4502 I-0.1273 J0.0934
G1 Y1.4886
G3 X0.2094 Y1.5368 Z-0.6103 I-0.05 J-0.0017
G1 X0.2051 Y1.5371 Z-0.61
X-0.2043 Y1.5582
X-0.2051
G3 X-0.2568 Y1.51 Z-0.615 I-0.0017 J-0.05
G1 Y1.4701
G3 X-0.0774 Y1.2889 I0.2254 J0.0438
X0.2181 Y1.3129 I0.1256 J0.2843
X0.2568 Y1.406 I-0.1003 J0.0962
G1 Y1.4502
G3 X0.2092 Y1.4984 Z-0.6103 I-0.05 J-0.0017
G1 X0.2051 Y1.4986 Z-0.61
X-0.2044 Y1.5183
X-0.2051
G3 X-0.2568 Y1.4701 Z-0.615 I-0.0017 J-0.05
G1 Y1.4291
G3 X-0.0778 Y1.2479 I0.2249 J0.0432
X0.2258 Y1.2781 I0.1254 J0.2799
X0.2568 Y1.3682 I-0.1278 J0.0943
G1 Y1.406
G3 X0.2096 Y1.4542 Z-0.6103 I-0.05 J-0.0017
G1 X0.2051 Y1.4545 Z-0.61
X-0.204 Y1.4773
X-0.2051
G3 X-0.2568 Y1.4291 Z-0.615 I-0.0017 J-0.05
G1 Y1.3871
G3 X-0.0767 Y1.2064 I0.2256 J0.0448
X0.2275 Y1.2387 I0.1242 J0.2786
X0.2568 Y1.3255 I-0.1262 J0.091
G1 Y1.3682
G3 X0.2091 Y1.4164 Z-0.6103 I-0.05 J-0.0017
G1 X0.2051 Y1.4166 Z-0.61
X-0.2051 Y1.4353
G3 X-0.2568 Y1.3871 Z-0.615 I-0.0017 J-0.05
G1 Y1.3466
G3 X-0.0775 Y1.1657 I0.2248 J0.0435
X0.2262 Y1.1967 I0.1249 J0.2791
X0.2568 Y1.2864 I-0.1286 J0.094
G1 Y1.3255
G3 X0.2094 Y1.3737 Z-0.6103 I-0.05 J-0.0017
G1 X0.2051 Y1.3739 Z-0.61
X-0.2043 Y1.3948
X-0.2051
G3 X-0.2568 Y1.3466 Z-0.615 I-0.0017 J-0.05
G1 Y1.3045
G3 X-0.0764 Y1.1242 I0.2256 J0.0452
X0.2269 Y1.1565 I0.1237 J0.2782
X0.2568 Y1.2451 I-0.1292 J0.093
G1 Y1.2864
G3 X0.209 Y1.3346 Z-0.6102 I-0.05 J-0.0017
G1 X0.2051 Y1.3348 Z-0.61
X-0.2051 Y1.3528
G3 X-0.2568 Y1.3045 Z-0.615 I-0.0017 J-0.05
G1 Y1.2645
G3 X-0.0776 Y1.0836 I0.2245 J0.0432
X0.2263 Y1.1151 I0.1247 J0.2784
X0.2568 Y1.2046 I-0.1288 J0.0938
G1 Y1.2451
G3 X0.2092 Y1.2933 Z-0.6103 I-0.05 J-0.0017
G1 X0.2051 Y1.2935 Z-0.61
X-0.2051 Y1.3127
G3 X-0.2568 Y1.2645 Z-0.615 I-0.0017 J-0.05
G1 Y1.2242
G3 X-0.0786 Y1.0429 I0.2236 J0.0415
X0.2261 Y1.074 I0.1255 J0.2782
X0.2568 Y1.1637 I-0.1279 J0.0939
G1 Y1.2046
G3 X0.2092 Y1.2528 Z-0.6103 I-0.05 J-0.0017
G1 X0.2051 Y1.253 Z-0.61
X-0.2045 Y1.2724
X-0.2051
G3 X-0.2568 Y1.2242 Z-0.615 I-0.0017 J-0.05
G1 Y1.1809
G3 X-0.0759 Y1.0008 I0.2257 J0.0459
X0.2267 Y1.0337 I0.1229 J0.2781
X0.2568 Y1.1228 I-0.1295 J0.0934
G1 Y1.1637
G3 X0.2089 Y1.2119 Z-0.6102 I-0.05 J-0.0017
G1 X0.2051 Y1.2121 Z-0.61
X-0.2048 Y1.2291
G3 X-0.2466 Y1.2095 Z-0.613 I-0.0021 J-0.05
X-0.2568 Y1.1809 Z-0.615 I0.0397 J-0.0303
G1 Y1.1405
G3 X-0.0768 Y0.9601 I0.2249 J0.0445
X0.2265 Y0.9926 I0.1237 J0.2783
X0.2568 Y1.0818 I-0.1291 J0.0935
G1 Y1.1228
G3 X0.209 Y1.171 Z-0.6102 I-0.05 J-0.0017
G1 X0.2051 Y1.1711 Z-0.61
X-0.2051 Y1.1887
G3 X-0.2568 Y1.1405 Z-0.615 I-0.0017 J-0.05
G1 Y1.1005
G3 X-0.0782 Y0.9196 I0.2237 J0.0422
X0.2173 Y0.9438 I0.1254 J0.2845
X0.2568 Y1.0381 I-0.0999 J0.0972
G1 Y1.0818
G3 X0.2091 Y1.13 Z-0.6103 I-0.05 J-0.0017
G1 X0.2051 Y1.1302 Z-0.61
X-0.2051 Y1.1488
G3 X-0.2568 Y1.1005 Z-0.615 I-0.0017 J-0.05
G1 Y1.0596
G3 X-0.0783 Y0.8786 I0.2236 J0.0421
X0.2258 Y0.9095 I0.1251 J0.28
X0.2568 Y0.9995 I-0.1271 J0.0941
G1 Y1.0381
G3 X0.2094 Y1.0862 Z-0.6103 I-0.05 J-0.0017
G1 X0.2051 Y1.0865 Z-0.61
X-0.2042 Y1.1078
X-0.2051
G3 X-0.2568 Y1.0596 Z-0.615 I-0.0017 J-0.05
G1 Y1.0175
G3 X-0.077 Y0.8372 I0.2246 J0.0441
X0.224 Y0.867 I0.1241 J0.2812
X0.2568 Y0.9559 I-0.1128 J0.0921
G1 Y0.9995
G3 X0.209 Y1.0477 Z-0.6102 I-0.05 J-0.0017
G1 X0.2051 Y1.0479 Z-0.61
X-0.2051 Y1.0658
G3 X-0.2568 Y1.0175 Z-0.615 I-0.0017 J-0.05
G1 Y0.9771
G3 X-0.0777 Y0.7964 I0.224 J0.0429
X0.2258 Y0.8275 I0.1247 J0.28
X0.2568 Y0.9174 I-0.1272 J0.0941
G1 Y0.9559
G3 X0.2094 Y1.0041 Z-0.6103 I-0.05 J-0.0017
G1 X0.2051 Y1.0044 Z-0.61
X-0.2043 Y1.0252
X-0.2051 Y1.0253
G3 X-0.2568 Y0.9771 Z-0.615 I-0.0017 J-0.05
G1 Y0.935
G3 X-0.0764 Y0.7549 I0.225 J0.0449
X0.2271 Y0.7877 I0.1234 J0.2788
X0.2569 Y0.8756 I-0.1389 J0.0961
G1 X0.2568 Y0.9174
G3 X0.209 Y0.9656 Z-0.6102 I-0.05 J-0.0017
G1 X0.2051 Y0.9658 Z-0.61
X-0.2051 Y0.9832
G3 X-0.2568 Y0.935 Z-0.615 I-0.0017 J-0.05
G1 Y0.8949
G3 X-0.0776 Y0.7143 I0.2241 J0.0431
X0.2263 Y0.746 I0.1245 J0.279
X0.2569 Y0.8355 I-0.1393 J0.0976
G1 X0.2568 Y0.8756
G3 X0.2092 Y0.9238 Z-0.6103 I-0.05 J-0.0017
G1 X0.2051 Y0.924 Z-0.61
X-0.2051 Y0.9432
G3 X-0.2568 Y0.8949 Z-0.615 I-0.0017 J-0.05
G1 Y0.8547
G3 X-0.0785 Y0.6736 I0.2233 J0.0416
X0.2262 Y0.705 I0.1252 J0.2786
X0.2573 Y0.7946 I-0.1523 J0.1031
G1 X0.2568 Y0.8355
G3 X0.2091 Y0.8837 Z-0.6103 I-0.05 J-0.0017
G1 X0.2051 Y0.8839 Z-0.61
X-0.2051 Y0.9029
G3 X-0.2568 Y0.8547 Z-0.615 I-0.0017 J-0.05
G1 Y0.8113
G3 X-0.0757 Y0.6315 I0.2256 J0.0461
X0.2268 Y0.6647 I0.1226 J0.2783
X0.2573 Y0.7536 I-0.1552 J0.1029
G1 X0.2568 Y0.7946
G3 X0.2089 Y0.8428 Z-0.6102 I-0.05 J-0.0017
G1 X0.2051 Y0.843 Z-0.61
X-0.2048 Y0.8596
G3 X-0.2466 Y0.8399 Z-0.613 I-0.002 J-0.05
X-0.2568 Y0.8113 Z-0.615 I0.0397 J-0.0303
G1 Y0.771
G3 X-0.0766 Y0.5908 I0.2249 J0.0448
X0.2267 Y0.6235 I0.1233 J0.2784
X0.2573 Y0.7126 I-0.1543 J0.1029
G1 X0.2568 Y0.7536
G3 X0.2089 Y0.8018 Z-0.6102 I-0.05 J-0.0017
G1 X0.2051 Y0.802 Z-0.61
X-0.2047 Y0.8192
G3 X-0.2466 Y0.7996 Z-0.613 I-0.0021 J-0.05
X-0.2568 Y0.771 Z-0.615 I0.0397 J-0.0303
G1 Y0.731
G3 X-0.0779 Y0.5503 I0.2238 J0.0427
X0.2176 Y0.5748 I0.1251 J0.2845
X0.2568 Y0.6688 I-0.0999 J0.0969
G1 Y0.7126
G3 X0.209 Y0.7608 Z-0.6102 I-0.05 J-0.0017
G1 X0.2051 Y0.761 Z-0.61
X-0.2051 Y0.7792
G3 X-0.2568 Y0.731 Z-0.615 I-0.0017 J-0.05
G1 Y0.69
G3 X-0.0779 Y0.5093 I0.2238 J0.0426
X0.2259 Y0.5404 I0.1248 J0.2802
X0.2573 Y0.6303 I-0.1509 J0.1032
G1 X0.2568 Y0.6688
G3 X0.2094 Y0.717 Z-0.6103 I-0.05 J-0.0017
G1 X0.2051 Y0.7172 Z-0.61
X-0.2043 Y0.7382
X-0.2051 Y0.7383
G3 X-0.2568 Y0.69 Z-0.615 I-0.0017 J-0.05
G1 Y0.648
G3 X-0.0767 Y0.4678 I0.2248 J0.0446
X0.2243 Y0.498 I0.1238 J0.2814
X0.2568 Y0.5864 I-0.1125 J0.0916
G1 Y0.6303
G3 X0.209 Y0.6785 Z-0.6102 I-0.05 J-0.0017
G1 X0.2051 Y0.6787 Z-0.61
X-0.2051 Y0.6962
G3 X-0.2568 Y0.648 Z-0.615 I-0.0017 J-0.05
G1 Y0.6075
G3 X-0.0774 Y0.4271 I0.2242 J0.0435
X0.2258 Y0.4585 I0.1242 J0.2794
X0.2573 Y0.5482 I-0.1471 J0.102
G1 X0.2568 Y0.5864
G3 X0.2094 Y0.6346 Z-0.6103 I-0.05 J-0.0017
G1 X0.2051 Y0.6348 Z-0.61
X-0.2043 Y0.6557
X-0.2051 Y0.6558
G3 X-0.2568 Y0.6075 Z-0.615 I-0.0017 J-0.05
G1 Y0.5677
G3 X-0.0786 Y0.3865 I0.2231 J0.0412
X0.2268 Y0.4181 I0.1255 J0.2791
X0.2573 Y0.5061 I-0.1498 J0.1013
G1 X0.2568 Y0.5482
G3 X0.2092 Y0.5964 Z-0.6103 I-0.05 J-0.0017
G1 X0.2051 Y0.5966 Z-0.61
X-0.2045 Y0.6159
X-0.2051
G3 X-0.2568 Y0.5677 Z-0.615 I-0.0017 J-0.05
G1 Y0.5254
G3 X-0.0771 Y0.345 I0.2244 J0.0437
X0.2264 Y0.3768 I0.1241 J0.279
X0.2573 Y0.4662 I-0.1533 J0.1031
G1 X0.2568 Y0.5061
G3 X0.2092 Y0.5543 Z-0.6103 I-0.05 J-0.0017
G1 X0.2051 Y0.5545 Z-0.61
X-0.2051 Y0.5736
G3 X-0.2568 Y0.5254 Z-0.615 I-0.0017 J-0.05
G1 Y0.4852
G3 X-0.078 Y0.3043 I0.2236 J0.0422
X0.2263 Y0.3359 I0.1249 J0.2785
X0.2573 Y0.4253 I-0.1531 J0.1031
G1 X0.2568 Y0.4663
G3 X0.2091 Y0.5145 Z-0.6103 I-0.05 J-0.0017
G1 X0.2051 Y0.5147 Z-0.61
X-0.2051 Y0.5334
G3 X-0.2568 Y0.4852 Z-0.615 I-0.0017 J-0.05
G1 Y0.4451
G3 X-0.0791 Y0.2637 I0.2228 J0.0405
X0.2169 Y0.2871 I0.1264 J0.2845
X0.2568 Y0.382 I-0.0998 J0.0978
G1 Y0.4254
G3 X0.2092 Y0.4736 Z-0.6103 I-0.05 J-0.0017
G1 X0.2051 Y0.4738 Z-0.61
X-0.2045 Y0.4933
X-0.2051
G3 X-0.2568 Y0.4451 Z-0.615 I-0.0017 J-0.05
G1 Y0.4014
G3 X-0.0761 Y0.2215 I0.2254 J0.0456
X0.2265 Y0.2538 I0.1231 J0.2797
X0.2573 Y0.343 I-0.1543 J0.1031
G1 X0.2568 Y0.382
G3 X0.2092 Y0.4302 Z-0.6103 I-0.05 J-0.0017
G1 X0.2051 Y0.4304 Z-0.61
X-0.2045 Y0.4496
X-0.2051 Y0.4497
G3 X-0.2568 Y0.4014 Z-0.615 I-0.0017 J-0.05
G1 Y0.3615
G3 X-0.0774 Y0.1809 I0.2242 J0.0434
X0.2183 Y0.2059 I0.1249 J0.2851
X0.2568 Y0.2988 I-0.1003 J0.096
G1 Y0.3431
G3 X0.2091 Y0.3913 Z-0.6103 I-0.05 J-0.0017
G1 X0.2051 Y0.3915 Z-0.61
X-0.2051 Y0.4097
G3 X-0.2568 Y0.3615 Z-0.615 I-0.0017 J-0.05
G1 Y0.3205
G3 X-0.0775 Y0.14 I0.2241 J0.0433
X0.226 Y0.171 I0.1246 J0.2806
X0.2573 Y0.2608 I-0.1523 J0.1034
G1 X0.2568 Y0.2988
G3 X0.2095 Y0.347 Z-0.6103 I-0.05 J-0.0017
G1 X0.2051 Y0.3472 Z-0.61
X-0.2042 Y0.3687
X-0.2051
G3 X-0.2568 Y0.3205 Z-0.615 I-0.0017 J-0.05
G1 Y0.2812
G3 X-0.0793 Y0.0996 I0.2225 J0.0401
X0.2174 Y0.123 I0.1268 J0.2853
X0.2572 Y0.2171 I-0.1064 J0.1003
G1 X0.2568 Y0.2608
G3 X0.2093 Y0.309 Z-0.6103 I-0.05 J-0.0017
G1 X0.2051 Y0.3092 Z-0.61
X-0.2044 Y0.3294
X-0.2051
G3 X-0.2568 Y0.2812 Z-0.615 I-0.0017 J-0.05
G1 Y0.2402
G3 X-0.0794 Y0.0587 I0.2225 J0.04
X0.2256 Y0.0885 I0.1265 J0.2802
X0.2573 Y0.1788 I-0.15 J0.1035
G1 X0.2568 Y0.2171
G3 X0.2096 Y0.2653 Z-0.6103 I-0.05 J-0.0017
G1 X0.2051 Y0.2655 Z-0.61
X-0.204 Y0.2884
X-0.2051
G3 X-0.2568 Y0.2402 Z-0.615 I-0.0017 J-0.05
G1 Y0.1982
G3 X-0.0781 Y0.0171 I0.2237 J0.0421
X0.2269 Y0.0489 I0.1252 J0.2788
X0.2573 Y0.1365 I-0.1502 J0.1011
G1 X0.2568 Y0.1788
G3 X0.2092 Y0.227 Z-0.6103 I-0.05 J-0.0017
G1 X0.2051 Y0.2272 Z-0.61
X-0.2045 Y0.2464
X-0.2051
G3 X-0.2568 Y0.1982 Z-0.615 I-0.0017 J-0.05
G1 Y0.1559
G3 X-0.0766 Y-0.0244 I0.2249 J0.0445
X0.2265 Y0.0075 I0.1238 J0.2788
X0.2573 Y0.0969 I-0.154 J0.1032
G1 X0.2568 Y0.1366
G3 X0.2092 Y0.1848 Z-0.6103 I-0.05 J-0.0017
G1 X0.2051 Y0.185 Z-0.61
X-0.2051 Y0.2041
G3 X-0.2568 Y0.1559 Z-0.615 I-0.0017 J-0.05
G1 Y0.1156
G3 X-0.0776 Y-0.0651 I0.2241 J0.043
X0.2264 Y-0.0333 I0.1246 J0.2784
X0.2573 Y0.056 I-0.1539 J0.1032
G1 X0.2568 Y0.0969
G3 X0.2091 Y0.1451 Z-0.6103 I-0.05 J-0.0017
G1 X0.2051 Y0.1453 Z-0.61
X-0.2051 Y0.1639
G3 X-0.2568 Y0.1156 Z-0.615 I-0.0017 J-0.05
G1 Y0.0756
G3 X-0.0787 Y-0.1057 I0.2232 J0.0411
X0.2246 Y-0.0758 I0.1256 J0.279
X0.2567 Y0.0101 I-0.1532 J0.1062
G1 X0.2568 Y0.056
G3 X0.2092 Y0.1042 Z-0.6103 I-0.05 J-0.0017
G1 X0.2051 Y0.1044 Z-0.61
X-0.2045 Y0.1238
X-0.2051
G3 X-0.2568 Y0.0756 Z-0.615 I-0.0017 J-0.05
G1 Y0.0319
G3 X-0.0757 Y-0.1479 I0.2258 J0.0462
X0.2163 Y-0.1228 I0.1228 J0.2813
X0.2493 Y-0.0609 I-0.1767 J0.1338
X0.2562 Y0.0102 I-0.2866 J0.064
X0.2087 Y0.0601 Z-0.6101 I-0.05 J0.
G1 X0.2063 Y0.0603 Z-0.61
X-0.2044 Y0.0803
X-0.2053
G3 X-0.2568 Y0.0319 Z-0.615 I-0.0015 J-0.05
G1 X-0.2567 Y0.0241
X-0.2554 Y-0.0129
G3 X-0.0577 Y-0.1944 I0.2326 J0.0549
X0.1882 Y-0.1768 I0.1049 J0.2607
G1 X0.1998 Y-0.1608
G3 X0.249 Y-0.0608 I-0.2053 J0.1629
X0.2113 Y-0.001 Z-0.61 I-0.0488 J0.0111
G1 X0.208 Y-0.0003
X0.2047 Y0.0001
X-0.2009 Y0.037
X-0.2032 Y0.0371
X-0.2055 Y0.0372
G3 X-0.2554 Y-0.0129 Z-0.615 I0.0001 J-0.05
X-0.2369 Y-0.0972 I0.2251 J0.0053
X0.0521 Y-0.25 I0.2583 J0.1388
G1 X0.057 Y-0.2487 Z-0.6147
X0.0617 Y-0.2469 Z-0.6143
X0.0663 Y-0.2447 Z-0.614
X0.0706 Y-0.2419 Z-0.6137
X0.0746 Y-0.2388 Z-0.6134
X0.0783 Y-0.2352 Z-0.613
G3 X0.0895 Y-0.1907 Z-0.61 I-0.0375 J0.0331
X0.0641 Y-0.1578 I-0.0487 J-0.0114
G1 X-0.1665 Y-0.0364
G3 X-0.2064 Y-0.0335 I-0.0233 J-0.0442
X-0.237 Y-0.0972 Z-0.615 I0.0166 J-0.0472
X0.1998 Y-0.1608 I0.2372 J0.0972
X0.1915 Y-0.0906 Z-0.61 I-0.0393 J0.0309
G1 X0.1884 Y-0.0884
X0.1528 Y-0.0575
G2 X0.1218 Y0.008 I0.0672 J0.0719
G1 X0.1277 Y1.695
G2 X0.7029 Y2.2983 I0.6334 J-0.0281
G1 X0.9089 Y2.3015
X2.1475 Y2.2998
G2 X2.7213 Y1.8717 I-0.0261 J-0.6335
G1 X2.7244 Y1.8649
X2.727 Y1.8579
X2.7291 Y1.8507
X2.7306 Y1.8433
X2.7315 Y1.8359
X2.7319 Y1.8284
X2.7317 Y1.8209
X2.7309 Y1.8134
X2.7296 Y1.8061
X2.7277 Y1.7988
X2.7253 Y1.7917
X2.7223 Y1.7848
X2.7188 Y1.7782
X2.7148 Y1.7718
X2.7104 Y1.7658
X2.7055 Y1.7601
X2.7002 Y1.7548
X2.6945 Y1.75
X2.6669 Y1.7258
X2.6462 Y1.7076 Z-0.6118
G3 X2.625 Y1.6629 Z-0.615 I0.041 J-0.0469
G1 Y-1.6629
G2 X2.4936 Y-2.0049 I-0.509 J-0.0008
G1 X2.4905 Y-2.009 Z-0.6147
X2.4879 Y-2.0133 Z-0.6143
X2.4857 Y-2.0179 Z-0.614
X2.4839 Y-2.0228 Z-0.6137
X2.4827 Y-2.0277 Z-0.6133
X2.482 Y-2.0328 Z-0.613
G3 X2.5004 Y-2.0749 Z-0.6099 I0.0499 J-0.0033
X2.5658 Y-2.0729 Z-0.6098 I0.0316 J0.0388
G1 X2.6797 Y-1.9648 Z-0.6088
X2.7159 Y-1.8878 Z-0.6079
X2.7317 Y-1.8396 Z-0.6073
X2.7508 Y-1.7432 Z-0.6058
X2.7556 Y-1.6147 Z-0.6033
X2.7542 Y1.6978 Z-0.4173
X2.7482 Y1.7593 Z-0.4127
X2.7266 Y1.8584 Z-0.4051
X2.6872 Y1.9521 Z-0.3974
X2.6388 Y2.0336 Z-0.3903
X2.5696 Y2.1127 Z-0.3824
X2.4811 Y2.19 Z-0.3736
X2.3816 Y2.2451 Z-0.3651
X2.3084 Y2.2718 Z-0.3593
X2.228 Y2.2917 Z-0.3532
X2.1314 Y2.3009 Z-0.3461
X-0.9732 Y2.3686 Z-0.1963
G3 X-0.9893 Z-0.1961 I-0.0084 J-0.0981
X-1.0054 Y2.366 Z-0.196 I0.0077 J-0.0981
X-1.0215 Y2.3605 Z-0.1958 I0.0238 J-0.0955
X-1.0342 Y2.3537 Z-0.1957 I0.0399 J-0.09
G1 X-1.0376 Y2.3515
G3 X-1.0536 Y2.3376 Z-0.1956 I0.0559 J-0.081
G1 X-1.0537
G3 X-1.0228 Y2.1811 Z-0.1951 I0.072 J-0.0671
X-0.9879 Y2.1723 Z-0.1973 I0.0411 J0.0894
X-0.9571 Y2.1707 Z-0.2 I0.0791 J1.274
G2 X-0.6996 Y2.1206 I0.0263 J-0.5513
X-0.337 Y1.642 I-0.17 J-0.5055
X-0.3194 Y1.0055 I-6.3293 J-0.4932
G1 X-0.3193 Y0.6516
Y0.2976
G3 X-0.3011 Y-0.056 I1.4231 J-0.1042
X0.2581 Y-0.146 I0.2983 J0.0713
X0.314 Y0.2724 I-0.9284 J0.3371
X0.3191 Y0.5558 I-4.3728 J0.2192
G1 X0.3193 Y0.7682
Y1.4761
G2 X0.3695 Y1.8234 I0.7744 J0.0653
X0.5759 Y2.0345 I0.4243 J-0.2083
G1 X0.5818 Y2.0409
G2 X0.925 Y2.1704 I0.3375 J-0.3752
G1 X0.9411 Y2.1707
G3 X0.9891 Y2.2225 Z-0.195 I-0.0019 J0.05
X0.9374 Y2.2706 I-0.05 J-0.0019
G1 X-0.6768 Y2.2138
G3 X-0.7185 Y2.1885 I0.0018 J-0.05
X-0.6998 Y2.1203 Z-0.2 I0.0435 J-0.0247
G2 X-0.4206 Y1.7432 I-0.2205 J-0.4551
X-0.3847 Y1.1083 I-3.2873 J-0.5044
G1 X-0.3823 Y1.0374
X-0.382 Y0.8959
X-0.3818 Y0.6127
Y0.2588
G3 X-0.3143 Y-0.146 I0.8094 J-0.073
X-0.2693 Y-0.2053 I1.0598 J0.7554
X0.3315 Y-0.0505 I0.2652 J0.2141
X0.3773 Y0.5053 I-1.8009 J0.428
G1 X0.3811 Y0.5763
X0.3814 Y0.6471
X0.3816 Y0.7886
X0.3818 Y1.0718
Y1.1426
Y1.4257
G2 X0.4192 Y1.7269 I0.8546 J0.0467
X0.5819 Y2.0408 I0.4922 J-0.0559
G1 X0.5854 Y2.0446 Z-0.1997
X0.5885 Y2.0487 Z-0.1993
X0.5911 Y2.0532 Z-0.199
X0.5933 Y2.0578 Z-0.1987
X0.595 Y2.0627 Z-0.1984
X0.5961 Y2.0677 Z-0.198
G3 X0.5829 Y2.1116 Z-0.195 I-0.0492 J0.0091
X0.5301 Y2.1239 I-0.0359 J-0.0348
G1 X-0.3761 Y1.7992
X-0.3878 Y1.795 Z-0.1958
G3 X-0.4207 Y1.7432 Z-0.2 I0.0169 J-0.0471
G2 X-0.4143 Y1.6307 I-0.7394 J-0.0983
G1 Y0.0723
G3 X0.0119 Y-0.377 I0.4355 J-0.0137
X0.3759 Y-0.0649 I-0.0337 J0.4077
X0.4147 Y0.0951 I-0.5296 J0.2132
G1 X0.4143 Y1.6307
X0.4148 Y1.6789
X0.4159 Y1.695
X0.4186 Y1.7271
G3 X0.3711 Y1.7795 Z-0.195 I-0.0499 J0.0025
X0.3229 Y1.7498 I-0.0025 J-0.0499
G1 X-0.3862 Y0.145
X-0.4028 Y0.1073 Z-0.1976
X-0.4041 Y0.1046 Z-0.1978
X-0.4056 Y0.102 Z-0.198
G3 X-0.4143 Y0.0723 Z-0.2 I0.0536 J-0.0318
X-0.2022 Y-0.3626 I0.4363 J-0.0564
X0.0975 Y-0.4022 I0.2024 J0.3777
G1 X0.1013 Y-0.4005
X0.1237 Y-0.3943
X0.1344 Y-0.3908
X0.1399 Y-0.3888
G3 X0.1656 Y-0.3229 Z-0.195 I-0.0201 J0.0458
X0.1053 Y-0.2951 I-0.0458 J-0.02
G1 X0.0774 Y-0.3036
G3 X0.0428 Y-0.3608 I0.0145 J-0.0478
X0.1013 Y-0.4005 Z-0.2 I0.0491 J0.0094
G1 X0.1206 Y-0.3961
X0.1276 Y-0.3936
X0.1528 Y-0.3836
G3 X0.4132 Y0.024 I-0.1502 J0.3829
G1 X0.4143 Y0.0951
G3 X0.404 Y0.1238 I-0.05 J-0.0017
G1 X0.4006 Y0.1282 Z-0.1997
X0.3973 Y0.1326 Z-0.1987
X0.394 Y0.1369 Z-0.1972
X0.3908 Y0.141 Z-0.195
X0.3879 Y0.1449 Z-0.1923
X0.3851 Y0.1485 Z-0.1891
X0.3825 Y0.1519 Z-0.1854
X0.3803 Y0.1548 Z-0.1812
X0.3783 Y0.1574 Z-0.1766
X0.3767 Y0.1595 Z-0.1717
X0.3753 Y0.1613 Z-0.1665
X0.3744 Y0.1625 Z-0.1611
X0.3738 Y0.1632 Z-0.1556
X0.3736 Y0.1635 Z-0.15
G0 Z0.6
G53 G0 Z0.
(ADAPTIVE1)
G55
G0 X-2.9716 Y-2.3461
G43 Z0.6 H8
G0 Z-0.515
G1 Z-0.565 F72.
X-2.9713 Y-2.346 Z-0.5706
X-2.9705 Y-2.3456 Z-0.5761
X-2.9691 Y-2.3449 Z-0.5815
X-2.9672 Y-2.3439 Z-0.5867
X-2.9647 Y-2.3427 Z-0.5916
X-2.9618 Y-2.3412 Z-0.5962
X-2.9585 Y-2.3395 Z-0.6004
X-2.9548 Y-2.3376 Z-0.6041
X-2.9507 Y-2.3356 Z-0.6073
X-2.9463 Y-2.3334 Z-0.61
X-2.9417 Y-2.331 Z-0.6122
X-2.9369 Y-2.3286 Z-0.6137
X-2.9319 Y-2.3261 Z-0.6147
X-2.9269 Y-2.3236 Z-0.615
G3 X-2.6961 Y-2.1741 I-0.5744 J1.1399
G1 X-2.6894 Y-2.1683
G2 X-2.6949 Y-1.6729 I14.2697 J0.4046
G1 X-2.695 Y-1.3189
Y-0.1864
Y1.7957
G2 X-2.4917 Y2.1297 I0.297 J0.0482
X-2.0741 Y2.191 I0.3753 J-1.1051
X-1.6494 Y2.1949 I0.3365 J-13.4418
G1 X-1.2954 Y2.195
X-0.9415
X1.0405
X2.3854
G2 X2.6074 Y2.0383 I-0.0299 J-0.2778
X2.6859 Y1.6966 I-0.6758 J-0.335
X2.6949 Y1.1304 I-9.7811 J-0.4395
G1 X2.695 Y0.6349
Y-0.2853
Y-1.8426
G2 X2.5772 Y-2.0844 I-0.2485 J-0.0285
G1 X2.5167 Y-2.121
X2.4509 Y-2.1471
G2 X1.9594 Y-2.1916 I-0.398 J1.6567
G1 X1.8885 Y-2.1943
X1.8177 Y-2.1946
X1.6761 Y-2.1949
X1.393 Y-2.195
X0.4728
X-1.5093
X-2.2879
G2 X-2.5261 Y-2.0685 I-0.0162 J0.2569
X-2.624 Y-1.6615 I0.6424 J0.3698
X-2.6318 Y-1.166 I7.3022 J0.363
G1 X-2.6325 Y-0.8828
Y0.8161
Y1.7363
G2 X-2.5014 Y1.9956 I0.3342 J-0.0062
G1 X-2.4954 Y2.0019
G2 X-2.0832 Y2.1707 I0.3808 J-0.342
G1 X-0.7963
G2 X-0.6515 Y2.1582 I0.019 J-0.6216
G3 X0.0265 Y2.1326 I0.5168 J4.7046
G1 X0.3805 Y2.1325
X0.5469
X0.5627 Y2.1335
X0.5784 Y2.1364
X0.5935 Y2.1411
G2 X0.8124 Y2.1707 I0.1833 J-0.5313
G1 X2.0832
G2 X2.228 Y2.1586 I0.0197 J-0.6347
X2.5336 Y1.9546 I-0.0321 J-0.379
G3 X2.558 Y1.9365 I0.0406 J0.0292
G1 X2.5633 Y1.9347 Z-0.6147
X2.5686 Y1.9329 Z-0.6137
X2.5737 Y1.9311 Z-0.6122
X2.5786 Y1.9295 Z-0.61
X2.5832 Y1.9279 Z-0.6073
X2.5875 Y1.9264 Z-0.6041
X2.5915 Y1.925 Z-0.6004
X2.595 Y1.9238 Z-0.5962
X2.5981 Y1.9228 Z-0.5916
X2.6006 Y1.9219 Z-0.5867
X2.6027 Y1.9212 Z-0.5815
X2.6041 Y1.9207 Z-0.5761
X2.605 Y1.9204 Z-0.5706
X2.6053 Y1.9203 Z-0.565
G0 Z0.2
X2.1652 Y2.2086
Z-0.515
G1 Z-0.565 F72.
X2.1654 Y2.2084 Z-0.5706
X2.1661 Y2.2077 Z-0.5761
X2.1672 Y2.2067 Z-0.5815
X2.1688 Y2.2052 Z-0.5867
X2.1707 Y2.2033 Z-0.5916
X2.173 Y2.201 Z-0.5962
X2.1757 Y2.1984 Z-0.6004
X2.1787 Y2.1955 Z-0.6041
X2.182 Y2.1923 Z-0.6073
X2.1855 Y2.1889 Z-0.61
X2.1892 Y2.1853 Z-0.6122
X2.1931 Y2.1816 Z-0.6137
X2.1971 Y2.1777 Z-0.6147
X2.2011 Y2.1738 Z-0.615
G3 X2.228 Y2.1585 I0.0434 J0.0447
G2 X2.6245 Y1.6629 I-0.1074 J-0.4924
X2.6323 Y1.0967 I-12.2222 J-0.4517
G1 X2.6325 Y0.8135
Y-0.319
Y-1.7348
G2 X2.4997 Y-1.9975 I-0.3465 J0.0102
G1 X2.4931 Y-2.0045
G2 X2.0832 Y-2.1707 I-0.3786 J0.3451
G1 X-2.0832
G2 X-2.625 Y-1.6629 I-0.0332 J0.5075
G1 Y1.6629
G2 X-2.4959 Y2.0023 I0.5089 J0.0008
G1 X-2.4952
G2 X-2.4537 Y2.0684 Z-0.61 I0.976 J-0.566
X-2.3154 Y2.2356 I0.9345 J-0.6321
X-2.2844 Y2.25 I0.0353 J-0.0354
G1 X-0.9026 Y2.3677
G2 X-0.8696 Y2.3587 I0.0042 J-0.0498
X-0.7041 Y2.2163 I-0.6496 J-0.9224
X-0.6529 Y2.1592 Z-0.6149 I-0.8151 J-0.7801
G1 X-0.6523 Y2.1586
X-0.6515 Y2.1582 Z-0.615
G2 X-0.5523 Y2.125 I-0.1114 J-0.4986
G3 X-0.2461 Y2.0757 I0.2796 J0.7601
X0.4575 Y2.0729 I0.4078 J14.0576
G1 X0.475 Y2.0823
X0.4915 Y2.0915
G2 X0.5935 Y2.1411 I0.2465 J-0.3766
G3 X0.62 Y2.2067 Z-0.61 I-0.0196 J0.046
X0.5731 Y2.2372 I-0.046 J-0.0195
G1 X-0.5297 Y2.2192
G3 X-0.5731 Y2.1926 I0.0008 J-0.05
X-0.5523 Y2.125 Z-0.615 I0.0442 J-0.0233
G1 X-0.5389 Y2.1185
X-0.5067 Y2.1015
X-0.4906 Y2.0909
G3 X-0.2247 Y2.0214 I0.2708 J0.4925
X0.3656 Y2.0102 I0.4096 J6.0615
X0.4264 Y2.0429 I-0.0405 J0.1483
G2 X0.4915 Y2.0915 I0.2892 J-0.3198
G3 X0.5034 Y2.1612 Z-0.61 I-0.0289 J0.0408
X0.4625 Y2.1823 I-0.0408 J-0.0289
G1 X-0.4617 Y2.1817
G3 X-0.5025 Y2.1606 I0. J-0.05
X-0.4906 Y2.0909 Z-0.615 I0.0408 J-0.0289
G2 X-0.4325 Y2.0485 I-0.2327 J-0.3799
G3 X-0.2015 Y1.971 I0.2553 J0.3783
X0.3194 Y1.9528 I0.3446 J2.4016
X0.3811 Y1.9971 I-0.0673 J0.1591
G2 X0.4264 Y2.043 I0.3923 J-0.3416
G1 X0.4298 Y2.0468 Z-0.6147
X0.4329 Y2.0509 Z-0.6143
X0.4356 Y2.0553 Z-0.614
X0.4378 Y2.0599 Z-0.6137
X0.4394 Y2.0648 Z-0.6134
X0.4406 Y2.0698 Z-0.613
G3 X0.4272 Y2.1136 Z-0.61 I-0.0492 J0.0089
X0.3918 Y2.1286 I-0.0357 J-0.035
G1 X-0.3971 Y2.1342
G3 X-0.4332 Y2.1191 I-0.0004 J-0.05
X-0.4325 Y2.0485 Z-0.615 I0.0357 J-0.035
G1 X-0.4102 Y2.0281
X-0.3988 Y2.0163
X-0.3941 Y2.0114
G3 X-0.0978 Y1.9082 I0.2956 J0.3721
X0.2806 Y1.8979 I0.2205 J1.1447
X0.3456 Y1.95 I-0.0599 J0.1412
G1 X0.3619 Y1.9738
X0.378 Y1.9934
X0.3811 Y1.9971
G3 X0.372 Y2.0672 Z-0.61 I-0.0396 J0.0305
X0.3427 Y2.0776 I-0.0305 J-0.0396
G1 X-0.3553 Y2.0942
G3 X-0.3894 Y2.0819 I-0.0012 J-0.05
X-0.3941 Y2.0114 Z-0.615 I0.0329 J-0.0376
G2 X-0.3608 Y1.9721 I-0.4463 J-0.413
G3 X-0.1159 Y1.8607 I0.2707 J0.2702
X0.255 Y1.8463 I0.2168 J0.7993
X0.3184 Y1.9063 I-0.0708 J0.1381
G1 X0.3298 Y1.9269
X0.3456 Y1.95
G3 X0.3302 Y2.019 Z-0.61 I-0.0422 J0.0268
X0.3052 Y2.0268 I-0.0268 J-0.0422
G1 X-0.3169 Y2.0491
G3 X-0.3458 Y2.0412 I-0.0018 J-0.05
X-0.3608 Y1.9721 Z-0.615 I0.0271 J-0.042
G1 X-0.3298 Y1.9269
G3 X-0.0716 Y1.803 I0.2863 J0.2655
X0.2354 Y1.8006 I0.1571 J0.4661
X0.3003 Y1.8697 I-0.0557 J0.1174
X0.2703 Y1.9337 Z-0.61 I-0.047 J0.017
X0.2591 Y1.9363 I-0.017 J-0.047
G1 X-0.2794 Y1.9993
G3 X-0.308 Y1.9942 I-0.0058 J-0.0497
X-0.3298 Y1.9269 Z-0.615 I0.0228 J-0.0445
G1 X-0.3137 Y1.8978
X-0.3108 Y1.8923
G3 X-0.0771 Y1.7561 I0.2731 J0.2
X0.2212 Y1.7543 I0.1516 J0.4043
X0.2834 Y1.8258 I-0.0602 J0.1151
G1 X0.2883 Y1.8396
X0.3003 Y1.8697
G3 X0.2703 Y1.9337 Z-0.61 I-0.047 J0.017
X0.2559 Y1.9366 I-0.017 J-0.047
G1 X-0.263 Y1.9637
G3 X-0.2871 Y1.9589 I-0.0026 J-0.0499
X-0.3108 Y1.8923 Z-0.615 I0.0215 J-0.0452
G1 X-0.3085 Y1.8878
X-0.3012 Y1.8717
X-0.2947 Y1.8557
G3 X-0.0753 Y1.7093 I0.2637 J0.1577
X0.2413 Y1.7284 I0.1395 J0.3212
X0.2732 Y1.7906 I-0.161 J0.1218
G1 X0.2825 Y1.8235
X0.2834 Y1.8258
G3 X0.2509 Y1.8886 Z-0.61 I-0.0477 J0.0151
X0.239 Y1.8909 I-0.0152 J-0.0476
G1 X-0.2444 Y1.9225
G3 X-0.2647 Y1.9197 I-0.0033 J-0.0499
X-0.2947 Y1.8557 Z-0.615 I0.017 J-0.047
G1 X-0.2883 Y1.8396
X-0.2825 Y1.8235
X-0.2804 Y1.8161
G3 X-0.0504 Y1.6579 I0.264 J0.1375
X0.2195 Y1.6741 I0.1164 J0.3166
X0.2651 Y1.7547 I-0.1037 J0.1118
G1 X0.2692 Y1.7753
X0.2732 Y1.7906
G3 X0.2352 Y1.8502 Z-0.61 I-0.0488 J0.0108
G1 X0.2312 Y1.8509
X0.2273 Y1.8513
X-0.229 Y1.8781
G3 X-0.244 Y1.8767 I-0.0029 J-0.0499
X-0.2804 Y1.8161 Z-0.615 I0.0121 J-0.0485
G1 X-0.2734 Y1.7914
X-0.2692 Y1.7753
G3 X-0.0433 Y1.6121 I0.2575 J0.1183
X0.2208 Y1.6373 I0.1056 J0.2891
X0.2609 Y1.725 I-0.1108 J0.1038
X0.2174 Y1.7771 Z-0.6103 I-0.0499 J0.0025
G1 X0.2135 Y1.7776 Z-0.61
X-0.2134 Y1.8331
G3 X-0.2281 Y1.8328 I-0.0064 J-0.0496
X-0.2692 Y1.7753 Z-0.615 I0.0082 J-0.0493
G1 X-0.2654 Y1.7566
X-0.2629 Y1.7432
X-0.2626 Y1.7405
G3 X-0.0589 Y1.5733 I0.2415 J0.0865
X0.2211 Y1.5988 I0.1154 J0.2833
X0.2578 Y1.686 I-0.1188 J0.1012
G1 X0.2584 Y1.695
X0.2609 Y1.725
G3 X0.2135 Y1.7774 Z-0.61 I-0.0499 J0.0025
G1 X0.213 Y1.7775
X-0.2108 Y1.7945
X-0.2138
X-0.2168 Y1.7943
G3 X-0.2626 Y1.7405 Z-0.615 I0.004 J-0.0498
G1 X-0.2611 Y1.7271
X-0.2593 Y1.7062
G3 X-0.0718 Y1.535 I0.2319 J0.0657
X0.2102 Y1.5512 I0.1249 J0.2885
X0.257 Y1.6525 I-0.0954 J0.1056
G1 X0.2573 Y1.6789
X0.2578 Y1.686
G3 X0.2103 Y1.7375 Z-0.6101 I-0.05 J0.0015
G1 X0.2093 Z-0.61
X-0.2068 Y1.7586
X-0.2094 Y1.7587
X-0.2119 Y1.7586
G3 X-0.2593 Y1.7062 Z-0.615 I0.0025 J-0.0499
G1 X-0.2584 Y1.695
X-0.2573 Y1.6789
X-0.2572 Y1.6707
G3 X-0.0804 Y1.4964 I0.224 J0.0504
X0.2111 Y1.5117 I0.1311 J0.2854
X0.2568 Y1.6135 I-0.0966 J0.1045
G1 Y1.6307
X0.257 Y1.6525
G3 X0.2092 Y1.7013 Z-0.6102 I-0.05 J-0.0012
G1 X0.2059 Y1.7014 Z-0.61
X-0.205 Y1.7194
X-0.2061 Y1.7195
G3 X-0.2572 Y1.6707 Z-0.615 I-0.0012 J-0.05
G1 X-0.2568 Y1.634
G3 X-0.0871 Y1.4573 I0.2208 J0.0422
X0.2128 Y1.4723 I0.136 J0.2851
X0.2568 Y1.5729 I-0.0997 J0.1036
G1 Y1.6135
G3 X0.2094 Y1.6617 Z-0.6103 I-0.05 J-0.0017
G1 X0.2051 Y1.6619 Z-0.61
X-0.2043 Y1.6827
X-0.2056
G3 X-0.2568 Y1.634 Z-0.615 I-0.0012 J-0.05
G1 Y1.5937
G3 X-0.0763 Y1.4121 I0.2261 J0.0442
X0.2119 Y1.4313 I0.1258 J0.2837
X0.2568 Y1.5322 I-0.0965 J0.1034
G1 Y1.5729
G3 X0.2093 Y1.6211 Z-0.6103 I-0.05 J-0.0017
G1 X0.2051 Y1.6213 Z-0.61
X-0.2043 Y1.6419
X-0.2051 Y1.642
G3 X-0.2568 Y1.5937 Z-0.615 I-0.0017 J-0.05
G1 Y1.5537
G3 X-0.0783 Y1.3716 I0.225 J0.042
X0.2172 Y1.3942 I0.1269 J0.2828
X0.2568 Y1.4886 I-0.0998 J0.0974
G1 Y1.5322
G3 X0.2094 Y1.5804 Z-0.6103 I-0.05 J-0.0017
G1 X0.2051 Y1.5806 Z-0.61
X-0.2042 Y1.6018
X-0.2051 Y1.6019
G3 X-0.2568 Y1.5537 Z-0.615 I-0.0017 J-0.05
G1 Y1.51
G3 X-0.0757 Y1.3294 I0.2271 J0.0466
X0.2263 Y1.3609 I0.1236 J0.2779
X0.2568 Y1.4502 I-0.1273 J0.0934
G1 Y1.4886
G3 X0.2094 Y1.5368 Z-0.6103 I-0.05 J-0.0017
G1 X0.2051 Y1.5371 Z-0.61
X-0.2043 Y1.5582
X-0.2051
G3 X-0.2568 Y1.51 Z-0.615 I-0.0017 J-0.05
G1 Y1.4701
G3 X-0.0774 Y1.2889 I0.2254 J0.0438
X0.2181 Y1.3129 I0.1256 J0.2843
X0.2568 Y1.406 I-0.1003 J0.0962
G1 Y1.4502
G3 X0.2092 Y1.4984 Z-0.6103 I-0.05 J-0.0017
G1 X0.2051 Y1.4986 Z-0.61
X-0.2044 Y1.5183
X-0.2051
G3 X-0.2568 Y1.4701 Z-0.615 I-0.0017 J-0.05
G1 Y1.4291
G3 X-0.0778 Y1.2479 I0.2249 J0.0432
X0.2258 Y1.2781 I0.1254 J0.2799
X0.2568 Y1.3682 I-0.1278 J0.0943
G1 Y1.406
G3 X0.2096 Y1.4542 Z-0.6103 I-0.05 J-0.0017
G1 X0.2051 Y1.4545 Z-0.61
X-0.204 Y1.4773
X-0.2051
G3 X-0.2568 Y1.4291 Z-0.615 I-0.0017 J-0.05
G1 Y1.3871
G3 X-0.0767 Y1.2064 I0.2256 J0.0448
X0.2275 Y1.2387 I0.1242 J0.2786
X0.2568 Y1.3255 I-0.1262 J0.091
G1 Y1.3682
G3 X0.2091 Y1.4164 Z-0.6103 I-0.05 J-0.0017
G1 X0.2051 Y1.4166 Z-0.61
X-0.2051 Y1.4353
G3 X-0.2568 Y1.3871 Z-0.615 I-0.0017 J-0.05
G1 Y1.3466
G3 X-0.0775 Y1.1657 I0.2248 J0.0435
X0.2262 Y1.1967 I0.1249 J0.2791
X0.2568 Y1.2864 I-0.1286 J0.094
G1 Y1.3255
G3 X0.2094 Y1.3737 Z-0.6103 I-0.05 J-0.0017
G1 X0.2051 Y1.3739 Z-0.61
X-0.2043 Y1.3948
X-0.2051
G3 X-0.2568 Y1.3466 Z-0.615 I-0.0017 J-0.05
G1 Y1.3045
G3 X-0.0764 Y1.1242 I0.2256 J0.0452
X0.2269 Y1.1565 I0.1237 J0.2782
X0.2568 Y1.2451 I-0.1292 J0.093
G1 Y1.2864
G3 X0.209 Y1.3346 Z-0.6102 I-0.05 J-0.0017
G1 X0.2051 Y1.3348 Z-0.61
X-0.2051 Y1.3528
G3 X-0.2568 Y1.3045 Z-0.615 I-0.0017 J-0.05
G1 Y1.2645
G3 X-0.0776 Y1.0836 I0.2245 J0.0432
X0.2263 Y1.1151 I0.1247 J0.2784
X0.2568 Y1.2046 I-0.1288 J0.0938
G1 Y1.2451
G3 X0.2092 Y1.2933 Z-0.6103 I-0.05 J-0.0017
G1 X0.2051 Y1.2935 Z-0.61
X-0.2051 Y1.3127
G3 X-0.2568 Y1.2645 Z-0.615 I-0.0017 J-0.05
G1 Y1.2242
G3 X-0.0786 Y1.0429 I0.2236 J0.0415
X0.2261 Y1.074 I0.1255 J0.2782
X0.2568 Y1.1637 I-0.1279 J0.0939
G1 Y1.2046
G3 X0.2092 Y1.2528 Z-0.6103 I-0.05 J-0.0017
G1 X0.2051 Y1.253 Z-0.61
X-0.2045 Y1.2724
X-0.2051
G3 X-0.2568 Y1.2242 Z-0.615 I-0.0017 J-0.05
G1 Y1.1809
G3 X-0.0759 Y1.0008 I0.2257 J0.0459
X0.2267 Y1.0337 I0.1229 J0.2781
X0.2568 Y1.1228 I-0.1295 J0.0934
G1 Y1.1637
G3 X0.2089 Y1.2119 Z-0.6102 I-0.05 J-0.0017
G1 X0.2051 Y1.2121 Z-0.61
X-0.2048 Y1.2291
G3 X-0.2466 Y1.2095 Z-0.613 I-0.0021 J-0.05
X-0.2568 Y1.1809 Z-0.615 I0.0397 J-0.0303
G1 Y1.1405
G3 X-0.0768 Y0.9601 I0.2249 J0.0445
X0.2265 Y0.9926 I0.1237 J0.2783
X0.2568 Y1.0818 I-0.1291 J0.0935
G1 Y1.1228
G3 X0.209 Y1.171 Z-0.6102 I-0.05 J-0.0017
G1 X0.2051 Y1.1711 Z-0.61
X-0.2051 Y1.1887
G3 X-0.2568 Y1.1405 Z-0.615 I-0.0017 J-0.05
G1 Y1.1005
G3 X-0.0782 Y0.9196 I0.2237 J0.0422
X0.2173 Y0.9438 I0.1254 J0.2845
X0.2568 Y1.0381 I-0.0999 J0.0972
G1 Y1.0818
G3 X0.2091 Y1.13 Z-0.6103 I-0.05 J-0.0017
G1 X0.2051 Y1.1302 Z-0.61
X-0.2051 Y1.1488
G3 X-0.2568 Y1.1005 Z-0.615 I-0.0017 J-0.05
G1 Y1.0596
G3 X-0.0783 Y0.8786 I0.2236 J0.0421
X0.2258 Y0.9095 I0.1251 J0.28
X0.2568 Y0.9995 I-0.1271 J0.0941
G1 Y1.0381
G3 X0.2094 Y1.0862 Z-0.6103 I-0.05 J-0.0017
G1 X0.2051 Y1.0865 Z-0.61
X-0.2042 Y1.1078
X-0.2051
G3 X-0.2568 Y1.0596 Z-0.615 I-0.0017 J-0.05
G1 Y1.0175
G3 X-0.077 Y0.8372 I0.2246 J0.0441
X0.224 Y0.867 I0.1241 J0.2812
X0.2568 Y0.9559 I-0.1128 J0.0921
G1 Y0.9995
G3 X0.209 Y1.0477 Z-0.6102 I-0.05 J-0.0017
G1 X0.2051 Y1.0479 Z-0.61
X-0.2051 Y1.0658
G3 X-0.2568 Y1.0175 Z-0.615 I-0.0017 J-0.05
G1 Y0.9771
G3 X-0.0777 Y0.7964 I0.224 J0.0429
X0.2258 Y0.8275 I0.1247 J0.28
X0.2568 Y0.9174 I-0.1272 J0.0941
G1 Y0.9559
G3 X0.2094 Y1.0041 Z-0.6103 I-0.05 J-0.0017
G1 X0.2051 Y1.0044 Z-0.61
X-0.2043 Y1.0252
X-0.2051 Y1.0253
G3 X-0.2568 Y0.9771 Z-0.615 I-0.0017 J-0.05
G1 Y0.935
G3 X-0.0764 Y0.7549 I0.225 J0.0449
X0.2271 Y0.7877 I0.1234 J0.2788
X0.2569 Y0.8756 I-0.1389 J0.0961
G1 X0.2568 Y0.9174
G3 X0.209 Y0.9656 Z-0.6102 I-0.05 J-0.0017
G1 X0.2051 Y0.9658 Z-0.61
X-0.2051 Y0.9832
G3 X-0.2568 Y0.935 Z-0.615 I-0.0017 J-0.05
G1 Y0.8949
G3 X-0.0776 Y0.7143 I0.2241 J0.0431
X0.2263 Y0.746 I0.1245 J0.279
X0.2569 Y0.8355 I-0.1393 J0.0976
G1 X0.2568 Y0.8756
G3 X0.2092 Y0.9238 Z-0.6103 I-0.05 J-0.0017
G1 X0.2051 Y0.924 Z-0.61
X-0.2051 Y0.9432
G3 X-0.2568 Y0.8949 Z-0.615 I-0.0017 J-0.05
G1 Y0.8547
G3 X-0.0785 Y0.6736 I0.2233 J0.0416
X0.2262 Y0.705 I0.1252 J0.2786
X0.2573 Y0.7946 I-0.1523 J0.1031
G1 X0.2568 Y0.8355
G3 X0.2091 Y0.8837 Z-0.6103 I-0.05 J-0.0017
G1 X0.2051 Y0.8839 Z-0.61
X-0.2051 Y0.9029
G3 X-0.2568 Y0.8547 Z-0.615 I-0.0017 J-0.05
G1 Y0.8113
G3 X-0.0757 Y0.6315 I0.2256 J0.0461
X0.2268 Y0.6647 I0.1226 J0.2783
X0.2573 Y0.7536 I-0.1552 J0.1029
G1 X0.2568 Y0.7946
G3 X0.2089 Y0.8428 Z-0.6102 I-0.05 J-0.0017
G1 X0.2051 Y0.843 Z-0.61
X-0.2048 Y0.8596
G3 X-0.2466 Y0.8399 Z-0.613 I-0.002 J-0.05
X-0.2568 Y0.8113 Z-0.615 I0.0397 J-0.0303
G1 Y0.771
G3 X-0.0766 Y0.5908 I0.2249 J0.0448
X0.2267 Y0.6235 I0.1233 J0.2784
X0.2573 Y0.7126 I-0.1543 J0.1029
G1 X0.2568 Y0.7536
G3 X0.2089 Y0.8018 Z-0.6102 I-0.05 J-0.0017
G1 X0.2051 Y0.802 Z-0.61
X-0.2047 Y0.8192
G3 X-0.2466 Y0.7996 Z-0.613 I-0.0021 J-0.05
X-0.2568 Y0.771 Z-0.615 I0.0397 J-0.0303
G1 Y0.731
G3 X-0.0779 Y0.5503 I0.2238 J0.0427
X0.2176 Y0.5748 I0.1251 J0.2845
X0.2568 Y0.6688 I-0.0999 J0.0969
G1 Y0.7126
G3 X0.209 Y0.7608 Z-0.6102 I-0.05 J-0.0017
G1 X0.2051 Y0.761 Z-0.61
X-0.2051 Y0.7792
G3 X-0.2568 Y0.731 Z-0.615 I-0.0017 J-0.05
G1 Y0.69
G3 X-0.0779 Y0.5093 I0.2238 J0.0426
X0.2259 Y0.5404 I0.1248 J0.2802
X0.2573 Y0.6303 I-0.1509 J0.1032
G1 X0.2568 Y0.6688
G3 X0.2094 Y0.717 Z-0.6103 I-0.05 J-0.0017
G1 X0.2051 Y0.7172 Z-0.61
X-0.2043 Y0.7382
X-0.2051 Y0.7383
G3 X-0.2568 Y0.69 Z-0.615 I-0.0017 J-0.05
G1 Y0.648
G3 X-0.0767 Y0.4678 I0.2248 J0.0446
X0.2243 Y0.498 I0.1238 J0.2814
X0.2568 Y0.5864 I-0.1125 J0.0916
G1 Y0.6303
G3 X0.209 Y0.6785 Z-0.6102 I-0.05 J-0.0017
G1 X0.2051 Y0.6787 Z-0.61
X-0.2051 Y0.6962
G3 X-0.2568 Y0.648 Z-0.615 I-0.0017 J-0.05
G1 Y0.6075
G3 X-0.0774 Y0.4271 I0.2242 J0.0435
X0.2258 Y0.4585 I0.1242 J0.2794
X0.2573 Y0.5482 I-0.1471 J0.102
G1 X0.2568 Y0.5864
G3 X0.2094 Y0.6346 Z-0.6103 I-0.05 J-0.0017
G1 X0.2051 Y0.6348 Z-0.61
X-0.2043 Y0.6557
X-0.2051 Y0.6558
G3 X-0.2568 Y0.6075 Z-0.615 I-0.0017 J-0.05
G1 Y0.5677
G3 X-0.0786 Y0.3865 I0.2231 J0.0412
X0.2268 Y0.4181 I0.1255 J0.2791
X0.2573 Y0.5061 I-0.1498 J0.1013
G1 X0.2568 Y0.5482
G3 X0.2092 Y0.5964 Z-0.6103 I-0.05 J-0.0017
G1 X0.2051 Y0.5966 Z-0.61
X-0.2045 Y0.6159
X-0.2051
G3 X-0.2568 Y0.5677 Z-0.615 I-0.0017 J-0.05
G1 Y0.5254
G3 X-0.0771 Y0.345 I0.2244 J0.0437
X0.2264 Y0.3768 I0.1241 J0.279
X0.2573 Y0.4662 I-0.1533 J0.1031
G1 X0.2568 Y0.5061
G3 X0.2092 Y0.5543 Z-0.6103 I-0.05 J-0.0017
G1 X0.2051 Y0.5545 Z-0.61
X-0.2051 Y0.5736
G3 X-0.2568 Y0.5254 Z-0.615 I-0.0017 J-0.05
G1 Y0.4852
G3 X-0.078 Y0.3043 I0.2236 J0.0422
X0.2263 Y0.3359 I0.1249 J0.2785
X0.2573 Y0.4253 I-0.1531 J0.1031
G1 X0.2568 Y0.4663
G3 X0.2091 Y0.5145 Z-0.6103 I-0.05 J-0.0017
G1 X0.2051 Y0.5147 Z-0.61
X-0.2051 Y0.5334
G3 X-0.2568 Y0.4852 Z-0.615 I-0.0017 J-0.05
G1 Y0.4451
G3 X-0.0791 Y0.2637 I0.2228 J0.0405
X0.2169 Y0.2871 I0.1264 J0.2845
X0.2568 Y0.382 I-0.0998 J0.0978
G1 Y0.4254
G3 X0.2092 Y0.4736 Z-0.6103 I-0.05 J-0.0017
G1 X0.2051 Y0.4738 Z-0.61
X-0.2045 Y0.4933
X-0.2051
G3 X-0.2568 Y0.4451 Z-0.615 I-0.0017 J-0.05
G1 Y0.4014
G3 X-0.0761 Y0.2215 I0.2254 J0.0456
X0.2265 Y0.2538 I0.1231 J0.2797
X0.2573 Y0.343 I-0.1543 J0.1031
G1 X0.2568 Y0.382
G3 X0.2092 Y0.4302 Z-0.6103 I-0.05 J-0.0017
G1 X0.2051 Y0.4304 Z-0.61
X-0.2045 Y0.4496
X-0.2051 Y0.4497
G3 X-0.2568 Y0.4014 Z-0.615 I-0.0017 J-0.05
G1 Y0.3615
G3 X-0.0774 Y0.1809 I0.2242 J0.0434
X0.2183 Y0.2059 I0.1249 J0.2851
X0.2568 Y0.2988 I-0.1003 J0.096
G1 Y0.3431
G3 X0.2091 Y0.3913 Z-0.6103 I-0.05 J-0.0017
G1 X0.2051 Y0.3915 Z-0.61
X-0.2051 Y0.4097
G3 X-0.2568 Y0.3615 Z-0.615 I-0.0017 J-0.05
G1 Y0.3205
G3 X-0.0775 Y0.14 I0.2241 J0.0433
X0.226 Y0.171 I0.1246 J0.2806
X0.2573 Y0.2608 I-0.1523 J0.1034
G1 X0.2568 Y0.2988
G3 X0.2095 Y0.347 Z-0.6103 I-0.05 J-0.0017
G1 X0.2051 Y0.3472 Z-0.61
X-0.2042 Y0.3687
X-0.2051
G3 X-0.2568 Y0.3205 Z-0.615 I-0.0017 J-0.05
G1 Y0.2812
G3 X-0.0793 Y0.0996 I0.2225 J0.0401
X0.2174 Y0.123 I0.1268 J0.2853
X0.2572 Y0.2171 I-0.1064 J0.1003
G1 X0.2568 Y0.2608
G3 X0.2093 Y0.309 Z-0.6103 I-0.05 J-0.0017
G1 X0.2051 Y0.3092 Z-0.61
X-0.2044 Y0.3294
X-0.2051
G3 X-0.2568 Y0.2812 Z-0.615 I-0.0017 J-0.05
G1 Y0.2402
G3 X-0.0794 Y0.0587 I0.2225 J0.04
X0.2256 Y0.0885 I0.1265 J0.2802
X0.2573 Y0.1788 I-0.15 J0.1035
G1 X0.2568 Y0.2171
G3 X0.2096 Y0.2653 Z-0.6103 I-0.05 J-0.0017
G1 X0.2051 Y0.2655 Z-0.61
X-0.204 Y0.2884
X-0.2051
G3 X-0.2568 Y0.2402 Z-0.615 I-0.0017 J-0.05
G1 Y0.1982
G3 X-0.0781 Y0.0171 I0.2237 J0.0421
X0.2269 Y0.0489 I0.1252 J0.2788
X0.2573 Y0.1365 I-0.1502 J0.1011
G1 X0.2568 Y0.1788
G3 X0.2092 Y0.227 Z-0.6103 I-0.05 J-0.0017
G1 X0.2051 Y0.2272 Z-0.61
X-0.2045 Y0.2464
X-0.2051
G3 X-0.2568 Y0.1982 Z-0.615 I-0.0017 J-0.05
G1 Y0.1559
G3 X-0.0766 Y-0.0244 I0.2249 J0.0445
X0.2265 Y0.0075 I0.1238 J0.2788
X0.2573 Y0.0969 I-0.154 J0.1032
G1 X0.2568 Y0.1366
G3 X0.2092 Y0.1848 Z-0.6103 I-0.05 J-0.0017
G1 X0.2051 Y0.185 Z-0.61
X-0.2051 Y0.2041
G3 X-0.2568 Y0.1559 Z-0.615 I-0.0017 J-0.05
G1 Y0.1156
G3 X-0.0776 Y-0.0651 I0.2241 J0.043
X0.2264 Y-0.0333 I0.1246 J0.2784
X0.2573 Y0.056 I-0.1539 J0.1032
G1 X0.2568 Y0.0969
G3 X0.2091 Y0.1451 Z-0.6103 I-0.05 J-0.0017
G1 X0.2051 Y0.1453 Z-0.61
X-0.2051 Y0.1639
G3 X-0.2568 Y0.1156 Z-0.615 I-0.0017 J-0.05
G1 Y0.0756
G3 X-0.0787 Y-0.1057 I0.2232 J0.0411
X0.2246 Y-0.0758 I0.1256 J0.279
X0.2567 Y0.0101 I-0.1532 J0.1062
G1 X0.2568 Y0.056
G3 X0.2092 Y0.1042 Z-0.6103 I-0.05 J-0.0017
G1 X0.2051 Y0.1044 Z-0.61
X-0.2045 Y0.1238
X-0.2051
G3 X-0.2568 Y0.0756 Z-0.615 I-0.0017 J-0.05
G1 Y0.0319
G3 X-0.0757 Y-0.1479 I0.2258 J0.0462
X0.2163 Y-0.1228 I0.1228 J0.2813
X0.2493 Y-0.0609 I-0.1767 J0.1338
X0.2562 Y0.0102 I-0.2866 J0.064
X0.2087 Y0.0601 Z-0.6101 I-0.05 J0.
G1 X0.2063 Y0.0603 Z-0.61
X-0.2044 Y0.0803
X-0.2053
G3 X-0.2568 Y0.0319 Z-0.615 I-0.0015 J-0.05
G1 X-0.2567 Y0.0241
X-0.2554 Y-0.0129
G3 X-0.0577 Y-0.1944 I0.2326 J0.0549
X0.1882 Y-0.1768 I0.1049 J0.2607
G1 X0.1998 Y-0.1608
G3 X0.249 Y-0.0608 I-0.2053 J0.1629
X0.2113 Y-0.001 Z-0.61 I-0.0488 J0.0111
G1 X0.208 Y-0.0003
X0.2047 Y0.0001
X-0.2009 Y0.037
X-0.2032 Y0.0371
X-0.2055 Y0.0372
G3 X-0.2554 Y-0.0129 Z-0.615 I0.0001 J-0.05
X-0.2369 Y-0.0972 I0.2251 J0.0053
X0.0521 Y-0.25 I0.2583 J0.1388
G1 X0.057 Y-0.2487 Z-0.6147
X0.0617 Y-0.2469 Z-0.6143
X0.0663 Y-0.2447 Z-0.614
X0.0706 Y-0.2419 Z-0.6137
X0.0746 Y-0.2388 Z-0.6134
X0.0783 Y-0.2352 Z-0.613
G3 X0.0895 Y-0.1907 Z-0.61 I-0.0375 J0.0331
X0.0641 Y-0.1578 I-0.0487 J-0.0114
G1 X-0.1665 Y-0.0364
G3 X-0.2064 Y-0.0335 I-0.0233 J-0.0442
X-0.237 Y-0.0972 Z-0.615 I0.0166 J-0.0472
X0.1998 Y-0.1608 I0.2372 J0.0972
X0.1915 Y-0.0906 Z-0.61 I-0.0393 J0.0309
G1 X0.1884 Y-0.0884
X0.1528 Y-0.0575
G2 X0.1218 Y0.008 I0.0672 J0.0719
G1 X0.1277 Y1.695
G2 X0.7029 Y2.2983 I0.6334 J-0.0281
G1 X0.9089 Y2.3015
X2.1475 Y2.2998
G2 X2.7213 Y1.8717 I-0.0261 J-0.6335
G1 X2.7244 Y1.8649
X2.727 Y1.8579
X2.7291 Y1.8507
X2.7306 Y1.8433
X2.7315 Y1.8359
X2.7319 Y1.8284
X2.7317 Y1.8209
X2.7309 Y1.8134
X2.7296 Y1.8061
X2.7277 Y1.7988
X2.7253 Y1.7917
X2.7223 Y1.7848
X2.7188 Y1.7782
X2.7148 Y1.7718
X2.7104 Y1.7658
X2.7055 Y1.7601
X2.7002 Y1.7548
X2.6945 Y1.75
X2.6669 Y1.7258
X2.6462 Y1.7076 Z-0.6118
G3 X2.625 Y1.6629 Z-0.615 I0.041 J-0.0469
G1 Y-1.6629
G2 X2.4936 Y-2.0049 I-0.509 J-0.0008
G1 X2.4905 Y-2.009 Z-0.6147
X2.4879 Y-2.0133 Z-0.6143
X2.4857 Y-2.0179 Z-0.614
X2.4839 Y-2.0228 Z-0.6137
X2.4827 Y-2.0277 Z-0.6133
X2.482 Y-2.0328 Z-0.613
G3 X2.5004 Y-2.0749 Z-0.6099 I0.0499 J-0.0033
X2.5658 Y-2.0729 Z-0.6098 I0.0316 J0.0388
G1 X2.6797 Y-1.9648 Z-0.6088
X2.7159 Y-1.8878 Z-0.6079
X2.7317 Y-1.8396 Z-0.6073
X2.7508 Y-1.7432 Z-0.6058
X2.7556 Y-1.6147 Z-0.6033
X2.7542 Y1.6978 Z-0.4173
X2.7482 Y1.7593 Z-0.4127
X2.7266 Y1.8584 Z-0.4051
X2.6872 Y1.9521 Z-0.3974
X2.6388 Y2.0336 Z-0.3903
X2.5696 Y2.1127 Z-0.3824
X2.4811 Y2.19 Z-0.3736
X2.3816 Y2.2451 Z-0.3651
X2.3084 Y2.2718 Z-0.3593
X2.228 Y2.2917 Z-0.3532
X2.1314 Y2.3009 Z-0.3461
X-0.9732 Y2.3686 Z-0.1963
G3 X-0.9893 Z-0.1961 I-0.0084 J-0.0981
X-1.0054 Y2.366 Z-0.196 I0.0077 J-0.0981
X-1.0215 Y2.3605 Z-0.1958 I0.0238 J-0.0955
X-1.0342 Y2.3537 Z-0.1957 I0.0399 J-0.09
G1 X-1.0376 Y2.3515
G3 X-1.0536 Y2.3376 Z-0.1956 I0.0559 J-0.081
G1 X-1.0537
G3 X-1.0228 Y2.1811 Z-0.1951 I0.072 J-0.0671
X-0.9879 Y2.1723 Z-0.1973 I0.0411 J0.0894
X-0.9571 Y2.1707 Z-0.2 I0.0791 J1.274
G2 X-0.6996 Y2.1206 I0.0263 J-0.5513
X-0.337 Y1.642 I-0.17 J-0.5055
X-0.3194 Y1.0055 I-6.3293 J-0.4932
G1 X-0.3193 Y0.6516
Y0.2976
G3 X-0.3011 Y-0.056 I1.4231 J-0.1042
X0.2581 Y-0.146 I0.2983 J0.0713
X0.314 Y0.2724 I-0.9284 J0.3371
X0.3191 Y0.5558 I-4.3728 J0.2192
G1 X0.3193 Y0.7682
Y1.4761
G2 X0.3695 Y1.8234 I0.7744 J0.0653
X0.5759 Y2.0345 I0.4243 J-0.2083
G1 X0.5818 Y2.0409
G2 X0.925 Y2.1704 I0.3375 J-0.3752
G1 X0.9411 Y2.1707
G3 X0.9891 Y2.2225 Z-0.195 I-0.0019 J0.05
X0.9374 Y2.2706 I-0.05 J-0.0019
G1 X-0.6768 Y2.2138
G3 X-0.7185 Y2.1885 I0.0018 J-0.05
X-0.6998 Y2.1203 Z-0.2 I0.0435 J-0.0247
G2 X-0.4206 Y1.7432 I-0.2205 J-0.4551
X-0.3847 Y1.1083 I-3.2873 J-0.5044
G1 X-0.3823 Y1.0374
X-0.382 Y0.8959
X-0.3818 Y0.6127
Y0.2588
G3 X-0.3143 Y-0.146 I0.8094 J-0.073
X-0.2693 Y-0.2053 I1.0598 J0.7554
X0.3315 Y-0.0505 I0.2652 J0.2141
X0.3773 Y0.5053 I-1.8009 J0.428
G1 X0.3811 Y0.5763
X0.3814 Y0.6471
X0.3816 Y0.7886
X0.3818 Y1.0718
Y1.1426
Y1.4257
G2 X0.4192 Y1.7269 I0.8546 J0.0467
X0.5819 Y2.0408 I0.4922 J-0.0559
G1 X0.5854 Y2.0446 Z-0.1997
X0.5885 Y2.0487 Z-0.1993
X0.5911 Y2.0532 Z-0.199
X0.5933 Y2.0578 Z-0.1987
X0.595 Y2.0627 Z-0.1984
X0.5961 Y2.0677 Z-0.198
G3 X0.5829 Y2.1116 Z-0.195 I-0.0492 J0.0091
X0.5301 Y2.1239 I-0.0359 J-0.0348
G1 X-0.3761 Y1.7992
X-0.3878 Y1.795 Z-0.1958
G3 X-0.4207 Y1.7432 Z-0.2 I0.0169 J-0.0471
G2 X-0.4143 Y1.6307 I-0.7394 J-0.0983
G1 Y0.0723
G3 X0.0119 Y-0.377 I0.4355 J-0.0137
X0.3759 Y-0.0649 I-0.0337 J0.4077
X0.4147 Y0.0951 I-0.5296 J0.2132
G1 X0.4143 Y1.6307
X0.4148 Y1.6789
X0.4159 Y1.695
X0.4186 Y1.7271
G3 X0.3711 Y1.7795 Z-0.195 I-0.0499 J0.0025
X0.3229 Y1.7498 I-0.0025 J-0.0499
G1 X-0.3862 Y0.145
X-0.4028 Y0.1073 Z-0.1976
X-0.4041 Y0.1046 Z-0.1978
X-0.4056 Y0.102 Z-0.198
G3 X-0.4143 Y0.0723 Z-0.2 I0.0536 J-0.0318
X-0.2022 Y-0.3626 I0.4363 J-0.0564
X0.0975 Y-0.4022 I0.2024 J0.3777
G1 X0.1013 Y-0.4005
X0.1237 Y-0.3943
X0.1344 Y-0.3908
X0.1399 Y-0.3888
G3 X0.1656 Y-0.3229 Z-0.195 I-0.0201 J0.0458
X0.1053 Y-0.2951 I-0.0458 J-0.02
G1 X0.0774 Y-0.3036
G3 X0.0428 Y-0.3608 I0.0145 J-0.0478
X0.1013 Y-0.4005 Z-0.2 I0.0491 J0.0094
G1 X0.1206 Y-0.3961
X0.1276 Y-0.3936
X0.1528 Y-0.3836
G3 X0.4132 Y0.024 I-0.1502 J0.3829
G1 X0.4143 Y0.0951
G3 X0.404 Y0.1238 I-0.05 J-0.0017
G1 X0.4006 Y0.1282 Z-0.1997
X0.3973 Y0.1326 Z-0.1987
X0.394 Y0.1369 Z-0.1972
X0.3908 Y0.141 Z-0.195
X0.3879 Y0.1449 Z-0.1923
X0.3851 Y0.1485 Z-0.1891
X0.3825 Y0.1519 Z-0.1854
X0.3803 Y0.1548 Z-0.1812
X0.3783 Y0.1574 Z-0.1766
X0.3767 Y0.1595 Z-0.1717
X0.3753 Y0.1613 Z-0.1665
X0.3744 Y0.1625 Z-0.1611
X0.3738 Y0.1632 Z-0.1556
X0.3736 Y0.1635 Z-0.15
G0 Z0.6
M5
M9
G90
G53 G0 Z-3.19
G53 G0 X13.1 Y-0.1
M30

