(Intro)
(RC_CASE_LEFT_OP_1)
(MACHINE)
(  VENDOR BOOST CONCEPTS)
(  MODEL XK7130)
(  DESCRIPTION XK7130)
(T6  D=0.375 CR=0. - ZMIN=-1.3049 - FLAT END MILL)
G90 G94 G17 (G91.1)
G20
G53 G0 Z0.
(ADAPTIVE2)
T6 M6
S6000 M3
G54
G64 P1 Q0
M8
G0 X-2.9323 Y-1.2741
G43 Z0.205 H6
G0 Z-1.2049
G1 Z-1.2549 F72.
X-2.932 Y-1.2739 Z-1.2605
X-2.9312 Y-1.2734 Z-1.266
X-2.9299 Y-1.2727 Z-1.2714
X-2.928 Y-1.2716 Z-1.2766
X-2.9256 Y-1.2703 Z-1.2815
X-2.9228 Y-1.2687 Z-1.286
X-2.9195 Y-1.2669 Z-1.2902
X-2.9159 Y-1.2648 Z-1.2939
X-2.9119 Y-1.2626 Z-1.2972
X-2.9076 Y-1.2602 Z-1.2999
X-2.9031 Y-1.2576 Z-1.3021
X-2.8984 Y-1.255 Z-1.3036
X-2.8936 Y-1.2523 Z-1.3045
X-2.8887 Y-1.2495 Z-1.3049
G3 X-2.721 Y-1.1295 I-0.47 J0.8341
G1 X-2.7197 Y-1.1282
G2 X-2.7333 Y-0.7852 I2.6456 J0.2768
X-2.7347 Y-0.4129 I19.1241 J0.2562
G1 X-2.7348 Y0.6753
Y0.8471
X-2.7349 Y0.9044
G2 X-2.6566 Y1.0515 I0.1997 J-0.0118
X-2.4743 Y1.1288 I0.2313 J-0.2923
X-2.2176 Y1.1473 I0.2303 J-1.4019
X-1.819 Y1.1496 I0.2932 J-16.3716
G1 X-1.8093 Y1.151
X-1.7998 Y1.1528
G2 X-1.5186 Y1.1825 I0.2665 J-1.1754
G1 X1.8673
G2 X2.0586 Y1.1668 I0.0133 J-1.0083
G3 X2.3687 Y1.1514 I0.2511 J1.9355
G2 X2.5118 Y1.1485 I-0.0835 J-7.5044
X2.6655 Y1.0299 I-0.0481 J-0.2212
X2.7214 Y0.839 I-0.4105 J-0.2238
X2.7334 Y0.5244 I-2.5609 J-0.2552
X2.7347 Y0.1521 I-20.3979 J-0.2586
G1 X2.7348 Y-0.2774
X2.7349 Y-0.9074
G2 X2.6546 Y-1.0536 I-0.2015 J0.0155
X2.4717 Y-1.1296 I-0.2311 J0.2981
X2.215 Y-1.1477 I-0.23 J1.4311
X1.7282 Y-1.15 I-0.3462 J22.1488
G1 X1.4991
X1.0411
X1.0231 Y-1.1512
X1.0055 Y-1.1549
X0.9885 Y-1.1611
G2 X0.8887 Y-1.182 I-0.093 J0.1953
G1 X-1.4848
G2 X-1.7385 Y-1.1652 I-0.0425 J1.281
G3 X-2.0526 Y-1.1513 I-0.2524 J-2.1532
X-2.4535 Y-1.1501 I-0.2608 J-19.262
G2 X-2.5993 Y-1.0685 I0.0201 J0.2069
X-2.6758 Y-0.8857 I0.3019 J0.2339
X-2.6947 Y-0.6291 I1.4077 J0.2326
X-2.6974 Y-0.2213 I18.8065 J0.3276
G1 X-2.6993 Y-0.2136
G2 X-2.709 Y0.1518 I1.1612 J0.2137
G3 X-2.6984 Y0.5524 I-3.8666 J0.3021
G1 X-2.6974 Y0.6097
Y0.6956
Y0.8101
G2 X-2.5687 Y1.0217 I0.2632 J-0.0151
X-2.3536 Y1.0941 I0.2595 J-0.4152
X-2.0966 Y1.1098 I0.2377 J-1.782
X-1.9469 Y1.1125 I7.1163 J-396.5648
G1 X-1.9331 Y1.1148
X-1.9197 Y1.1186
G2 X-1.7998 Y1.1528 I0.3888 J-1.136
G3 X-1.7649 Y1.1702 I-0.0265 J0.0964
G1 X-1.7605 Y1.1737 Z-1.3045
X-1.7561 Y1.1771 Z-1.3036
X-1.7519 Y1.1804 Z-1.3021
X-1.7478 Y1.1836 Z-1.2999
X-1.7439 Y1.1866 Z-1.2972
X-1.7403 Y1.1894 Z-1.2939
X-1.737 Y1.1919 Z-1.2902
X-1.7341 Y1.1942 Z-1.286
X-1.7315 Y1.1962 Z-1.2815
X-1.7294 Y1.1979 Z-1.2766
X-1.7277 Y1.1992 Z-1.2714
X-1.7264 Y1.2002 Z-1.266
X-1.7257 Y1.2007 Z-1.2605
X-1.7255 Y1.2009 Z-1.2549
G0 Z0.105
X-2.756 Y0.0768
Z-1.2049
G1 Z-1.2549 F72.
X-2.7558 Y0.077 Z-1.2605
X-2.7553 Y0.0778 Z-1.266
X-2.7543 Y0.079 Z-1.2714
X-2.753 Y0.0807 Z-1.2766
X-2.7513 Y0.0828 Z-1.2815
X-2.7493 Y0.0853 Z-1.286
X-2.7469 Y0.0883 Z-1.2902
X-2.7443 Y0.0915 Z-1.2939
X-2.7415 Y0.0951 Z-1.2972
X-2.7384 Y0.099 Z-1.2999
X-2.7352 Y0.103 Z-1.3021
X-2.7319 Y0.1072 Z-1.3036
X-2.7284 Y0.1116 Z-1.3045
X-2.725 Y0.116 Z-1.3049
G3 X-2.709 Y0.1518 I-0.062 J0.0492
G2 X-2.6819 Y0.2929 I1.1528 J-0.148
G3 X-2.6622 Y0.5586 I-1.2572 J0.2268
G2 X-2.6582 Y0.759 I17.2783 J-0.2434
X-2.4756 Y0.9995 I0.3088 J-0.0449
X-2.2841 Y1.0553 I0.2514 J-0.5069
X-2.0444 Y1.0727 I0.301 J-2.4851
G1 X-2.0282 Y1.0766
X-2.0127 Y1.0822
G2 X-1.9197 Y1.1186 I0.4872 J-1.1101
G3 X-1.8866 Y1.1393 I-0.0355 J0.0935
G1 X-1.8826 Y1.1431 Z-1.3045
X-1.8785 Y1.1469 Z-1.3036
X-1.8746 Y1.1506 Z-1.3021
X-1.8708 Y1.1541 Z-1.2999
X-1.8673 Y1.1575 Z-1.2972
X-1.8639 Y1.1606 Z-1.2939
X-1.8609 Y1.1635 Z-1.2902
X-1.8582 Y1.1661 Z-1.286
X-1.8558 Y1.1683 Z-1.2815
X-1.8538 Y1.1701 Z-1.2766
X-1.8523 Y1.1716 Z-1.2714
X-1.8511 Y1.1727 Z-1.266
X-1.8505 Y1.1733 Z-1.2605
X-1.8502 Y1.1735 Z-1.2549
G0 Z0.105
X-2.7372 Y0.2237
Z-1.2049
G1 Z-1.2549 F72.
X-2.737 Y0.224 Z-1.2605
X-2.7363 Y0.2246 Z-1.266
X-2.7352 Y0.2257 Z-1.2714
X-2.7337 Y0.2272 Z-1.2766
X-2.7318 Y0.2292 Z-1.2815
X-2.7295 Y0.2315 Z-1.286
X-2.7269 Y0.2341 Z-1.2902
X-2.7239 Y0.2371 Z-1.2939
X-2.7207 Y0.2403 Z-1.2972
X-2.7172 Y0.2438 Z-1.2999
X-2.7136 Y0.2474 Z-1.3021
X-2.7098 Y0.2513 Z-1.3036
X-2.7059 Y0.2552 Z-1.3045
X-2.7019 Y0.2591 Z-1.3049
G3 X-2.6819 Y0.2929 I-0.056 J0.0559
G2 X-2.6547 Y0.3837 I1.1042 J-0.2811
G3 X-2.6266 Y0.617 I-0.7859 J0.2131
G2 X-2.6073 Y0.7585 I0.554 J-0.0037
X-2.417 Y0.9618 I0.3272 J-0.1156
X-2.1682 Y1.0228 I0.2869 J-0.6322
G3 X-2.0988 Y1.0399 I-0.0095 J0.1879
G2 X-2.0127 Y1.0822 I0.5023 J-0.9129
G3 X-1.9911 Y1.0963 I-0.0424 J0.0888
G1 X-1.991
G3 X-1.9815 Y1.1057 I-0.064 J0.0747
G1 X-1.9799 Y1.1075 F300.
X-1.9798 Y1.1077
G3 X-2.0923 Y1.2622 I-0.0753 J0.0634
G1 X-2.4902 Y1.0963
X-2.5654 Y1.0513
X-2.6322 Y0.9949
X-2.6809 Y0.9389
X-2.7174 Y0.8827
X-2.7471 Y0.8152
X-2.7566 Y0.7815
X-2.8073 Y0.4217
G3 X-2.677 Y0.3519 I0.0785 J-0.01
X-2.6547 Y0.3837 I-0.0518 J0.0598 F72.
G2 X-2.625 Y0.4616 I1.08 J-0.3684
G3 X-2.5924 Y0.6254 I-0.5561 J0.1958
G2 X-2.5167 Y0.8088 I0.3892 J-0.0531
X-2.2764 Y0.9553 I0.3404 J-0.288
G3 X-2.2033 Y0.9771 I-0.1565 J0.659
G1 X-2.19 Y0.9852
G2 X-2.0989 Y1.0401 I0.6419 J-0.9643
G1 X-2.0923 Y1.0444
X-2.0861 Y1.0492
X-2.0803 Y1.0545
X-2.075 Y1.0602
X-2.0701 Y1.0663
G3 X-2.2048 Y1.2059 I-0.0794 J0.0582 F300.
G1 X-2.5837 Y0.9597
X-2.6329 Y0.9052
X-2.6825 Y0.8292
X-2.7066 Y0.7815
X-2.774 Y0.5116
G3 X-2.6496 Y0.4315 I0.0774 J-0.0165
X-2.625 Y0.4616 I-0.0471 J0.0636 F72.
G2 X-2.5938 Y0.5291 I1.0694 J-0.4526
G3 X-2.5591 Y0.6259 I-0.7891 J0.3378
G2 X-2.3256 Y0.8827 I0.4021 J-0.131
G1 X-2.3159 Y0.8898
X-2.3066 Y0.8971
G2 X-2.1901 Y0.9853 I0.7625 J-0.8874
G3 X-2.1633 Y1.0136 I-0.058 J0.0815
X-2.3229 Y1.133 I-0.0848 J0.0531 F300.
G1 X-2.7564 Y0.6433
G3 X-2.6189 Y0.4991 I0.0749 J-0.0663
X-2.5938 Y0.529 I-0.0627 J0.0779 F72.
G2 X-2.3066 Y0.8971 I1.057 J-0.5286
G3 X-2.2838 Y0.9287 I-0.0681 J0.0732
G1 X-2.2815 Y0.9338 Z-1.3045
X-2.2792 Y0.9389 Z-1.3036
X-2.2769 Y0.9438 Z-1.3021
X-2.2748 Y0.9485 Z-1.2999
X-2.2727 Y0.9529 Z-1.2972
X-2.2708 Y0.9571 Z-1.2939
X-2.2691 Y0.9609 Z-1.2902
X-2.2675 Y0.9643 Z-1.286
X-2.2662 Y0.9672 Z-1.2815
X-2.2651 Y0.9697 Z-1.2766
X-2.2642 Y0.9717 Z-1.2714
X-2.2635 Y0.9731 Z-1.266
X-2.2631 Y0.9739 Z-1.2605
X-2.263 Y0.9742 Z-1.2549
G0 Z0.105
X-1.6654 Y-1.215
Z-1.2049
G1 Z-1.2549 F72.
X-1.6656 Y-1.2148 Z-1.2605
X-1.6663 Y-1.2142 Z-1.266
X-1.6675 Y-1.2132 Z-1.2714
X-1.6691 Y-1.2118 Z-1.2766
X-1.6712 Y-1.21 Z-1.2815
X-1.6736 Y-1.2079 Z-1.286
X-1.6765 Y-1.2054 Z-1.2902
X-1.6796 Y-1.2027 Z-1.2939
X-1.6831 Y-1.1997 Z-1.2972
X-1.6868 Y-1.1965 Z-1.2999
X-1.6908 Y-1.1932 Z-1.3021
X-1.6949 Y-1.1897 Z-1.3036
X-1.6991 Y-1.1861 Z-1.3045
X-1.7033 Y-1.1824 Z-1.3049
G3 X-1.7385 Y-1.165 I-0.0515 J-0.06
G2 X-1.8561 Y-1.1384 I0.2059 J1.1823
G3 X-2.1094 Y-1.1154 I-0.2208 J-1.0232
X-2.3671 Y-1.1122 I-0.2384 J-8.9883
G2 X-2.5739 Y-0.9744 I0.032 J0.272
X-2.6426 Y-0.7579 I0.4444 J0.2602
X-2.6579 Y-0.4435 I2.2772 J0.2683
G3 X-2.6614 Y-0.3647 I-0.8204 J0.0034
G1 X-2.6651 Y-0.3522
G2 X-2.6993 Y-0.2136 I1.1136 J0.3485
G3 X-2.7149 Y-0.1778 I-0.0977 J-0.0213
G1 X-2.7181 Y-0.1732 Z-1.3045
X-2.7212 Y-0.1687 Z-1.3036
X-2.7243 Y-0.1643 Z-1.3021
X-2.7272 Y-0.16 Z-1.2999
X-2.73 Y-0.156 Z-1.2972
X-2.7326 Y-0.1522 Z-1.2939
X-2.735 Y-0.1488 Z-1.2902
X-2.7372 Y-0.1457 Z-1.286
X-2.739 Y-0.1431 Z-1.2815
X-2.7406 Y-0.1408 Z-1.2766
X-2.7418 Y-0.1391 Z-1.2714
X-2.7427 Y-0.1378 Z-1.266
X-2.7432 Y-0.137 Z-1.2605
X-2.7434 Y-0.1368 Z-1.2549
G0 Z0.105
X-1.7886 Y-1.1958
Z-1.2049
G1 Z-1.2549 F72.
X-1.7888 Y-1.1956 Z-1.2605
X-1.7895 Y-1.1949 Z-1.266
X-1.7905 Y-1.1938 Z-1.2714
X-1.792 Y-1.1922 Z-1.2766
X-1.7939 Y-1.1902 Z-1.2815
X-1.7961 Y-1.1879 Z-1.286
X-1.7987 Y-1.1851 Z-1.2902
X-1.8015 Y-1.1821 Z-1.2939
X-1.8047 Y-1.1788 Z-1.2972
X-1.808 Y-1.1752 Z-1.2999
X-1.8116 Y-1.1714 Z-1.3021
X-1.8153 Y-1.1675 Z-1.3036
X-1.8191 Y-1.1635 Z-1.3045
X-1.8229 Y-1.1594 Z-1.3049
G3 X-1.8561 Y-1.1384 I-0.0576 J-0.0542
G2 X-1.946 Y-1.1092 I0.3334 J1.1821
G3 X-2.1534 Y-1.0803 I-0.1991 J-0.6686
G2 X-2.2965 Y-1.0745 I0.5692 J15.9056
X-2.5419 Y-0.8992 I0.0339 J0.3067
X-2.6009 Y-0.7088 I0.4813 J0.2537
X-2.6188 Y-0.4843 I1.7131 J0.2492
G1 X-2.6229 Y-0.4692
X-2.6279 Y-0.4545
G2 X-2.6651 Y-0.3522 I1.0554 J0.4417
G3 X-2.685 Y-0.3187 I-0.0943 J-0.0333
G1 X-2.6887 Y-0.3145 Z-1.3045
X-2.6924 Y-0.3104 Z-1.3036
X-2.696 Y-0.3064 Z-1.3021
X-2.6995 Y-0.3026 Z-1.2999
X-2.7028 Y-0.2989 Z-1.2972
X-2.7058 Y-0.2955 Z-1.2939
X-2.7086 Y-0.2924 Z-1.2902
X-2.7111 Y-0.2896 Z-1.286
X-2.7133 Y-0.2872 Z-1.2815
X-2.7151 Y-0.2852 Z-1.2766
X-2.7166 Y-0.2836 Z-1.2714
X-2.7176 Y-0.2824 Z-1.266
X-2.7182 Y-0.2817 Z-1.2605
X-2.7184 Y-0.2815 Z-1.2549
G0 Z0.105
X-1.8835 Y-1.1719
Z-1.2049
G1 Z-1.2549 F72.
X-1.8837 Y-1.1717 Z-1.2605
X-1.8843 Y-1.171 Z-1.266
X-1.8852 Y-1.1697 Z-1.2714
X-1.8866 Y-1.1681 Z-1.2766
X-1.8883 Y-1.166 Z-1.2815
X-1.8903 Y-1.1634 Z-1.286
X-1.8926 Y-1.1605 Z-1.2902
X-1.8952 Y-1.1572 Z-1.2939
X-1.8981 Y-1.1537 Z-1.2972
X-1.9012 Y-1.1498 Z-1.2999
X-1.9044 Y-1.1458 Z-1.3021
X-1.9078 Y-1.1416 Z-1.3036
X-1.9112 Y-1.1372 Z-1.3045
X-1.9147 Y-1.1329 Z-1.3049
G3 X-1.9461 Y-1.1092 I-0.0618 J-0.0494
G2 X-2.0197 Y-1.0791 I0.4234 J1.1405
G3 X-2.1897 Y-1.0464 I-0.183 J-0.4934
G2 X-2.3549 Y-1.0036 I0.02 J0.4172
X-2.5288 Y-0.7844 I0.1932 J0.3318
X-2.5716 Y-0.5783 I0.7699 J0.2674
G1 X-2.5773 Y-0.5632
X-2.5837 Y-0.5488
G2 X-2.6279 Y-0.4545 I1.0248 J0.5377
G3 X-2.6507 Y-0.4229 I-0.0897 J-0.0405
X-2.8079 Y-0.5341 I-0.0669 J-0.0722 F300.
G1 X-2.6097 Y-0.9656
X-2.5617 Y-1.0288
X-2.4926 Y-1.0947
X-2.4179 Y-1.1413
X-2.351 Y-1.1702
X-2.0698 Y-1.2277
G3 X-1.9902 Y-1.1043 I0.015 J0.0777
X-2.0197 Y-1.0791 I-0.0646 J-0.0457 F72.
G2 X-2.081 Y-1.0495 I0.4729 J1.0579
G3 X-2.1847 Y-1.0171 I-0.1828 J-0.4027
G2 X-2.4042 Y-0.8904 I0.0811 J0.3941
X-2.5078 Y-0.6778 I0.407 J0.33
G1 X-2.5141 Y-0.6661
X-2.5208 Y-0.6549
G2 X-2.5837 Y-0.5488 I0.9747 J0.65
G3 X-2.6093 Y-0.5193 I-0.0856 J-0.0485
X-2.621 Y-0.5116 I-0.0601 J-0.078 F300.
X-2.7447 Y-0.534 I-0.0484 J-0.0857
G1 X-2.7448 Y-0.5341
G3 X-2.747 Y-0.6577 I0.0754 J-0.0632
G1 X-2.5242 Y-0.9838
X-2.4671 Y-1.04
X-2.4073 Y-1.086
X-2.3691 Y-1.1075
X-2.1485 Y-1.1922
G3 X-2.0529 Y-1.0763 I0.0285 J0.0738
X-2.078 Y-1.0513 I-0.0671 J-0.042 F72.
G1 X-2.081 Y-1.0495
G2 X-2.1485 Y-1.0116 I0.4978 J0.9661
X-2.2961 Y-0.924 I0.4401 J0.9099
X-2.4014 Y-0.8048 I0.3459 J0.4114
G1 X-2.4074 Y-0.7995
X-2.4137 Y-0.7947
X-2.4204 Y-0.7905
X-2.4274 Y-0.7868
X-2.4347 Y-0.7837
G3 X-2.5358 Y-0.9538 I-0.038 J-0.0925 F300.
G1 X-2.2664 Y-1.1729
G3 X-2.1207 Y-1.0389 I0.0631 J0.0776
X-2.1485 Y-1.0116 I-0.0826 J-0.0564 F72.
G2 X-2.5208 Y-0.6549 I0.6115 J1.0108
G1 X-2.5256 Y-0.6487
X-2.5308 Y-0.6429
X-2.5366 Y-0.6375
X-2.5427 Y-0.6326
X-2.5491 Y-0.6281
X-2.5539 Y-0.6252 Z-1.3045
X-2.5586 Y-0.6222 Z-1.3036
X-2.5631 Y-0.6194 Z-1.3021
X-2.5675 Y-0.6166 Z-1.2999
X-2.5717 Y-0.614 Z-1.2972
X-2.5756 Y-0.6116 Z-1.2939
X-2.5791 Y-0.6094 Z-1.2902
X-2.5823 Y-0.6074 Z-1.286
X-2.585 Y-0.6057 Z-1.2815
X-2.5873 Y-0.6042 Z-1.2766
X-2.5891 Y-0.6031 Z-1.2714
X-2.5904 Y-0.6022 Z-1.266
X-2.5912 Y-0.6017 Z-1.2605
X-2.5915 Y-0.6016 Z-1.2549
G0 Z0.105
X1.986 Y1.2175
Z-1.2049
G1 Z-1.2549 F72.
X1.9863 Y1.2173 Z-1.2605
X1.987 Y1.2167 Z-1.266
X1.9881 Y1.2157 Z-1.2714
X1.9898 Y1.2143 Z-1.2766
X1.9918 Y1.2125 Z-1.2815
X1.9942 Y1.2103 Z-1.286
X1.997 Y1.2079 Z-1.2902
X2.0002 Y1.2051 Z-1.2939
X2.0036 Y1.2021 Z-1.2972
X2.0073 Y1.1988 Z-1.2999
X2.0112 Y1.1954 Z-1.3021
X2.0152 Y1.1919 Z-1.3036
X2.0194 Y1.1882 Z-1.3045
X2.0236 Y1.1845 Z-1.3049
G3 X2.0586 Y1.1667 I0.0523 J0.0594
G2 X2.1679 Y1.1401 I-0.1725 J-0.9462
G3 X2.4001 Y1.1159 I0.2089 J0.8793
G2 X2.6234 Y0.9569 I-0.0291 J-0.2772
X2.6777 Y0.7821 I-0.4426 J-0.2333
G1 X2.6813 Y0.767
X2.6863 Y0.7523
X2.6931 Y0.7383
G2 X2.7151 Y0.6005 I-0.1802 J-0.0994
G3 X2.699 Y0.3266 I1.4968 J-0.2255
X2.6973 Y-0.103 I20.1975 J-0.295
G1 Y-0.7902
G2 X2.5853 Y-1.0107 I-0.2586 J-0.0072
X2.3735 Y-1.0914 I-0.2634 J0.3728
X2.2598 Y-1.1046 I-0.1576 J0.8631
X1.7731 Y-1.1116 I-0.3545 J7.7853
G1 X1.6872 Y-1.1124
X1.5154 Y-1.1125
X1.1431
G3 X1.0556 Y-1.1206 I-0.0205 J-0.2545
G1 X1.039 Y-1.1289
X1.0237 Y-1.1393
X1.0184 Y-1.1431
G3 X0.9927 Y-1.1724 I0.0609 J-0.0793
G1 X0.9899 Y-1.1773 Z-1.3045
X0.9871 Y-1.182 Z-1.3036
X0.9844 Y-1.1867 Z-1.3021
X0.9818 Y-1.1912 Z-1.2999
X0.9794 Y-1.1955 Z-1.2972
X0.9771 Y-1.1994 Z-1.2939
X0.975 Y-1.203 Z-1.2902
X0.9731 Y-1.2063 Z-1.286
X0.9715 Y-1.2091 Z-1.2815
X0.9701 Y-1.2114 Z-1.2766
X0.9691 Y-1.2133 Z-1.2714
X0.9683 Y-1.2146 Z-1.266
X0.9678 Y-1.2154 Z-1.2605
X0.9677 Y-1.2157 Z-1.2549
G0 Z0.105
X2.7686 Y0.6712
Z-1.2049
G1 Z-1.2549 F72.
X2.7684 Y0.671 Z-1.2605
X2.7677 Y0.6703 Z-1.266
X2.7666 Y0.6692 Z-1.2714
X2.7652 Y0.6676 Z-1.2766
X2.7633 Y0.6656 Z-1.2815
X2.7611 Y0.6633 Z-1.286
X2.7585 Y0.6606 Z-1.2902
X2.7556 Y0.6575 Z-1.2939
X2.7525 Y0.6542 Z-1.2972
X2.7491 Y0.6506 Z-1.2999
X2.7456 Y0.6469 Z-1.3021
X2.7419 Y0.643 Z-1.3036
X2.7381 Y0.6389 Z-1.3045
X2.7342 Y0.6349 Z-1.3049
G3 X2.7151 Y0.6005 I0.0575 J-0.0544
G2 X2.6987 Y0.5502 I-0.1975 J0.0366
G3 X2.6672 Y0.3791 I0.4556 J-0.1723
X2.6606 Y0.0356 I4.6798 J-0.2625
G1 X2.6599 Y-0.0216
X2.6598 Y-0.0789
Y-0.1935
Y-0.4512
Y-0.6803
G2 X2.643 Y-0.8217 I-0.3966 J-0.0246
X2.4433 Y-1.0144 I-0.3091 J0.1205
X2.2204 Y-1.0628 I-0.2574 J0.6485
G1 X2.1919 Y-1.0658
X2.1633 Y-1.0677
X2.1347 Y-1.0692
G2 X1.4762 Y-1.075 I-0.4887 J18.2345
G1 X1.2185
G3 X1.1113 Y-1.0802 I-0.0253 J-0.5768
X1.051 Y-1.1149 I0.0371 J-0.1344
G1 X1.0462 Y-1.1198
X1.0349 Y-1.1303
X1.0237 Y-1.1393
G3 X0.9996 Y-1.1701 I0.0652 J-0.0758
G1 X0.9971 Y-1.175 Z-1.3045
X0.9946 Y-1.18 Z-1.3036
X0.9921 Y-1.1848 Z-1.3021
X0.9898 Y-1.1894 Z-1.2999
X0.9876 Y-1.1938 Z-1.2972
X0.9855 Y-1.1979 Z-1.2939
X0.9836 Y-1.2016 Z-1.2902
X0.982 Y-1.2049 Z-1.286
X0.9805 Y-1.2078 Z-1.2815
X0.9793 Y-1.2103 Z-1.2766
X0.9783 Y-1.2122 Z-1.2714
X0.9776 Y-1.2136 Z-1.266
X0.9772 Y-1.2144 Z-1.2605
X0.977 Y-1.2147 Z-1.2549
G0 Z0.105
X2.7665 Y0.6073
Z-1.2049
G1 Z-1.2549 F72.
X2.7663 Y0.6071 Z-1.2605
X2.7655 Y0.6066 Z-1.266
X2.7642 Y0.6057 Z-1.2714
X2.7624 Y0.6045 Z-1.2766
X2.7601 Y0.603 Z-1.2815
X2.7574 Y0.6012 Z-1.286
X2.7543 Y0.5991 Z-1.2902
X2.7509 Y0.5968 Z-1.2939
X2.7471 Y0.5943 Z-1.2972
X2.743 Y0.5915 Z-1.2999
X2.7387 Y0.5887 Z-1.3021
X2.7342 Y0.5857 Z-1.3036
X2.7296 Y0.5826 Z-1.3045
X2.7249 Y0.5795 Z-1.3049
G3 X2.6987 Y0.5502 I0.044 J-0.0658
G2 X2.6799 Y0.5183 I-0.1657 J0.0763
G3 X2.641 Y0.3972 I0.2561 J-0.1491
X2.6247 Y0.1426 I1.572 J-0.2279
X2.6223 Y-0.3442 I22.3777 J-0.3551
G1 Y-0.6019
G2 X2.6016 Y-0.7715 I-0.4718 J-0.0285
X2.4039 Y-0.9678 I-0.3268 J0.1314
X2.1539 Y-1.0245 I-0.2842 J0.6743
X2.011 Y-1.0333 I-0.1699 J1.5942
X1.4956 Y-1.0374 I-0.4061 J18.4784
G1 X1.2951 Y-1.0375
G3 X1.1595 Y-1.0421 I-0.0304 J-1.099
X1.0869 Y-1.079 I0.0219 J-0.1329
G1 X1.051 Y-1.1149
G3 X1.0305 Y-1.1481 I0.0731 J-0.0682
G1 X1.0285 Y-1.1533 Z-1.3045
X1.0266 Y-1.1585 Z-1.3036
X1.0247 Y-1.1636 Z-1.3021
X1.0229 Y-1.1684 Z-1.2999
X1.0212 Y-1.173 Z-1.2972
X1.0196 Y-1.1773 Z-1.2939
X1.0181 Y-1.1812 Z-1.2902
X1.0168 Y-1.1847 Z-1.286
X1.0157 Y-1.1878 Z-1.2815
X1.0147 Y-1.1903 Z-1.2766
X1.014 Y-1.1923 Z-1.2714
X1.0134 Y-1.1938 Z-1.266
X1.0131 Y-1.1946 Z-1.2605
X1.013 Y-1.1949 Z-1.2549
G0 Z0.105
X2.7564 Y0.563
Z-1.2049
G1 Z-1.2549 F72.
X2.7561 Y0.5628 Z-1.2605
X2.7552 Y0.5625 Z-1.266
X2.7538 Y0.5618 Z-1.2714
X2.7519 Y0.561 Z-1.2766
X2.7494 Y0.5599 Z-1.2815
X2.7464 Y0.5585 Z-1.286
X2.743 Y0.557 Z-1.2902
X2.7392 Y0.5553 Z-1.2939
X2.735 Y0.5535 Z-1.2972
X2.7305 Y0.5515 Z-1.2999
X2.7258 Y0.5494 Z-1.3021
X2.7209 Y0.5472 Z-1.3036
X2.7158 Y0.5449 Z-1.3045
X2.7107 Y0.5427 Z-1.3049
G3 X2.6799 Y0.5183 I0.0321 J-0.0723
G1 X2.6751 Y0.5116
X2.666 Y0.5007
X2.6613 Y0.4957
G3 X2.6148 Y0.3908 I0.1793 J-0.1422
X2.5896 Y0.1549 I1.0114 J-0.2271
X2.5855 Y-0.3605 I12.7714 J-0.3604
G2 X2.5831 Y-0.6182 I-5.9898 J-0.0732
X2.3848 Y-0.9127 I-0.3494 J0.0211
X2.1382 Y-0.9817 I-0.2975 J0.5885
X1.9097 Y-0.9966 I-0.2521 J2.1089
X1.2798 Y-0.9998 I-0.4583 J28.2798
G3 X1.1798 Y-1.009 I0.0006 J-0.555
X1.1234 Y-1.0425 I0.0407 J-0.1327
G1 X1.0869 Y-1.0791
G3 X1.0664 Y-1.1122 I0.0731 J-0.0682
G1 X1.0644 Y-1.1175 Z-1.3045
X1.0625 Y-1.1227 Z-1.3036
X1.0606 Y-1.1277 Z-1.3021
X1.0588 Y-1.1326 Z-1.2999
X1.057 Y-1.1372 Z-1.2972
X1.0554 Y-1.1414 Z-1.2939
X1.054 Y-1.1454 Z-1.2902
X1.0527 Y-1.1489 Z-1.286
X1.0515 Y-1.1519 Z-1.2815
X1.0506 Y-1.1544 Z-1.2766
X1.0498 Y-1.1564 Z-1.2714
X1.0493 Y-1.1579 Z-1.266
X1.049 Y-1.1588 Z-1.2605
X1.0488 Y-1.1591 Z-1.2549
G0 Z0.105
X2.7433 Y0.529
Z-1.2049
G1 Z-1.2549 F72.
X2.743 Y0.5289 Z-1.2605
X2.7421 Y0.5287 Z-1.266
X2.7406 Y0.5282 Z-1.2714
X2.7386 Y0.5277 Z-1.2766
X2.736 Y0.5269 Z-1.2815
X2.7328 Y0.526 Z-1.286
X2.7293 Y0.525 Z-1.2902
X2.7252 Y0.5239 Z-1.2939
X2.7208 Y0.5226 Z-1.2972
X2.7161 Y0.5213 Z-1.2999
X2.7111 Y0.5199 Z-1.3021
X2.7059 Y0.5184 Z-1.3036
X2.7006 Y0.5169 Z-1.3045
X2.6952 Y0.5154 Z-1.3049
G3 X2.6613 Y0.4957 I0.0215 J-0.0761
G1 X2.6551 Y0.4891
X2.6348 Y0.4689
G3 X2.5829 Y0.3614 I0.1785 J-0.1526
X2.555 Y0.1594 I0.8301 J-0.2173
X2.5483 Y-0.3559 I8.9556 J-0.3748
G2 X2.5433 Y-0.5849 I-3.0105 J-0.0489
X2.3349 Y-0.8743 I-0.364 J0.0424
X2.0881 Y-0.943 I-0.3035 J0.6126
X1.8024 Y-0.9598 I-0.2918 J2.5208
X1.3156 Y-0.9626 I-0.4194 J30.6279
G3 X1.2005 Y-0.9774 I-0.0085 J-0.39
G1 X1.1861 Y-0.9856
X1.1726 Y-0.9948
X1.1603 Y-1.0056
X1.1234 Y-1.0425
G3 X1.1029 Y-1.0757 I0.0731 J-0.0682
G1 X1.1009 Y-1.081 Z-1.3045
X1.099 Y-1.0861 Z-1.3036
X1.0971 Y-1.0912 Z-1.3021
X1.0953 Y-1.096 Z-1.2999
X1.0936 Y-1.1006 Z-1.2972
X1.092 Y-1.1049 Z-1.2939
X1.0905 Y-1.1088 Z-1.2902
X1.0892 Y-1.1123 Z-1.286
X1.0881 Y-1.1154 Z-1.2815
X1.0871 Y-1.1179 Z-1.2766
X1.0864 Y-1.1199 Z-1.2714
X1.0858 Y-1.1214 Z-1.266
X1.0855 Y-1.1222 Z-1.2605
X1.0854 Y-1.1225 Z-1.2549
G0 Z0.105
X2.7177 Y0.5
Z-1.2049
G1 Z-1.2549 F72.
X2.7174 Y0.4999 Z-1.2605
X2.7165 Y0.4997 Z-1.266
X2.715 Y0.4993 Z-1.2714
X2.7129 Y0.4988 Z-1.2766
X2.7103 Y0.4981 Z-1.2815
X2.7072 Y0.4973 Z-1.286
X2.7035 Y0.4964 Z-1.2902
X2.6995 Y0.4954 Z-1.2939
X2.695 Y0.4942 Z-1.2972
X2.6903 Y0.493 Z-1.2999
X2.6853 Y0.4917 Z-1.3021
X2.6801 Y0.4904 Z-1.3036
X2.6747 Y0.4891 Z-1.3045
X2.6693 Y0.4877 Z-1.3049
G3 X2.6348 Y0.4689 I0.0195 J-0.0767
G1 X2.6038 Y0.4378
G3 X2.5474 Y0.3223 I0.1891 J-0.1638
X2.517 Y0.0878 I0.9363 J-0.2405
X2.5106 Y-0.4276 I9.9868 J-0.3829
G2 X2.4992 Y-0.5702 I-0.8832 J-0.0015
X2.295 Y-0.8318 I-0.3686 J0.0772
X2.049 Y-0.9033 I-0.3101 J0.6076
X1.7348 Y-0.9219 I-0.2978 J2.3648
G1 X1.7062 Y-0.923
G3 X1.31 Y-0.9267 I0.2946 J-53.4184
X1.2289 Y-0.9449 I0.011 J-0.2392
G1 X1.2124 Y-0.9557
X1.1975 Y-0.9685
X1.1603 Y-1.0056
G3 X1.1398 Y-1.0388 I0.0731 J-0.0682
G1 X1.1378 Y-1.0441 Z-1.3045
X1.1359 Y-1.0492 Z-1.3036
X1.134 Y-1.0543 Z-1.3021
X1.1322 Y-1.0591 Z-1.2999
X1.1305 Y-1.0637 Z-1.2972
X1.1289 Y-1.068 Z-1.2939
X1.1274 Y-1.0719 Z-1.2902
X1.1261 Y-1.0754 Z-1.286
X1.125 Y-1.0785 Z-1.2815
X1.124 Y-1.081 Z-1.2766
X1.1232 Y-1.083 Z-1.2714
X1.1227 Y-1.0845 Z-1.266
X1.1224 Y-1.0854 Z-1.2605
X1.1223 Y-1.0857 Z-1.2549
G0 Z0.105
X2.6867 Y0.469
Z-1.2049
G1 Z-1.2549 F72.
X2.6864 Y0.4689 Z-1.2605
X2.6855 Y0.4686 Z-1.266
X2.684 Y0.4683 Z-1.2714
X2.6819 Y0.4677 Z-1.2766
X2.6793 Y0.4671 Z-1.2815
X2.6761 Y0.4663 Z-1.286
X2.6725 Y0.4653 Z-1.2902
X2.6684 Y0.4643 Z-1.2939
X2.664 Y0.4632 Z-1.2972
X2.6593 Y0.462 Z-1.2999
X2.6542 Y0.4607 Z-1.3021
X2.649 Y0.4594 Z-1.3036
X2.6437 Y0.458 Z-1.3045
X2.6382 Y0.4566 Z-1.3049
G3 X2.6038 Y0.4378 I0.0195 J-0.0767
G1 X2.57 Y0.4041
G3 X2.5114 Y0.2837 I0.1979 J-0.1708
X2.4802 Y0.0469 I0.9525 J-0.2462
X2.4728 Y-0.4112 I8.7452 J-0.3696
G2 X2.445 Y-0.5802 I-0.5863 J0.0096
X2.2325 Y-0.8016 I-0.3717 J0.1441
X1.9561 Y-0.8702 I-0.3235 J0.712
X1.6416 Y-0.885 I-0.2922 J2.8714
G1 X1.613 Y-0.8859
X1.5844 Y-0.8862
G3 X1.3203 Y-0.8919 I-0.0372 J-4.3776
X1.2345 Y-0.931 I0.0156 J-0.1481
G1 X1.1975 Y-0.9685
G3 X1.177 Y-1.0016 I0.0731 J-0.0682
G1 X1.175 Y-1.0069 Z-1.3045
X1.1731 Y-1.0121 Z-1.3036
X1.1712 Y-1.0171 Z-1.3021
X1.1694 Y-1.022 Z-1.2999
X1.1676 Y-1.0266 Z-1.2972
X1.166 Y-1.0308 Z-1.2939
X1.1646 Y-1.0348 Z-1.2902
X1.1633 Y-1.0383 Z-1.286
X1.1621 Y-1.0413 Z-1.2815
X1.1612 Y-1.0438 Z-1.2766
X1.1604 Y-1.0458 Z-1.2714
X1.1599 Y-1.0473 Z-1.266
X1.1596 Y-1.0482 Z-1.2605
X1.1594 Y-1.0485 Z-1.2549
G0 Z0.105
X2.653 Y0.4352
Z-1.2049
G1 Z-1.2549 F72.
X2.6526 Y0.4351 Z-1.2605
X2.6517 Y0.4349 Z-1.266
X2.6502 Y0.4345 Z-1.2714
X2.6482 Y0.434 Z-1.2766
X2.6455 Y0.4333 Z-1.2815
X2.6424 Y0.4325 Z-1.286
X2.6388 Y0.4316 Z-1.2902
X2.6347 Y0.4306 Z-1.2939
X2.6303 Y0.4295 Z-1.2972
X2.6255 Y0.4282 Z-1.2999
X2.6205 Y0.427 Z-1.3021
X2.6153 Y0.4256 Z-1.3036
X2.6099 Y0.4243 Z-1.3045
X2.6045 Y0.4229 Z-1.3049
G3 X2.57 Y0.4041 I0.0195 J-0.0767
G1 X2.5348 Y0.3689
G3 X2.4751 Y0.2457 I0.2051 J-0.1755
X2.4432 Y0.007 I0.9708 J-0.2513
X2.4347 Y-0.3651 I9.5368 J-0.4044
G2 X2.3965 Y-0.5607 I-0.5268 J0.0013
X2.1715 Y-0.7705 I-0.3777 J0.1796
X1.8936 Y-0.8338 I-0.3243 J0.7827
X1.5218 Y-0.8481 I-0.3277 J3.6695
G1 X1.4931 Y-0.8492
X1.4645 Y-0.8497
G3 X1.3279 Y-0.8601 I-0.0119 J-0.7434
X1.2722 Y-0.8937 I0.0451 J-0.1379
G1 X1.2347 Y-0.9312
G3 X1.2142 Y-0.9644 I0.0731 J-0.0682
G1 X1.2122 Y-0.9696 Z-1.3045
X1.2103 Y-0.9748 Z-1.3036
X1.2084 Y-0.9799 Z-1.3021
X1.2066 Y-0.9847 Z-1.2999
X1.2049 Y-0.9893 Z-1.2972
X1.2033 Y-0.9936 Z-1.2939
X1.2018 Y-0.9975 Z-1.2902
X1.2005 Y-1.001 Z-1.286
X1.1994 Y-1.004 Z-1.2815
X1.1984 Y-1.0066 Z-1.2766
X1.1977 Y-1.0086 Z-1.2714
X1.1971 Y-1.01 Z-1.266
X1.1968 Y-1.0109 Z-1.2605
X1.1967 Y-1.0112 Z-1.2549
G0 Z0.105
X2.6177 Y0.4
Z-1.2049
G1 Z-1.2549 F72.
X2.6174 Y0.3999 Z-1.2605
X2.6165 Y0.3997 Z-1.266
X2.615 Y0.3993 Z-1.2714
X2.6129 Y0.3988 Z-1.2766
X2.6103 Y0.3981 Z-1.2815
X2.6072 Y0.3973 Z-1.286
X2.6035 Y0.3964 Z-1.2902
X2.5995 Y0.3954 Z-1.2939
X2.5951 Y0.3942 Z-1.2972
X2.5903 Y0.393 Z-1.2999
X2.5853 Y0.3917 Z-1.3021
X2.5801 Y0.3904 Z-1.3036
X2.5747 Y0.3891 Z-1.3045
X2.5693 Y0.3877 Z-1.3049
G3 X2.5348 Y0.3689 I0.0195 J-0.0767
G1 X2.4999 Y0.3339
G3 X2.4386 Y0.2079 I0.2078 J-0.1788
X2.4077 Y-0.0037 I0.892 J-0.2384
X2.398 Y-0.3185 I5.5759 J-0.3306
G2 X2.3597 Y-0.5142 I-0.5668 J0.0091
X2.1115 Y-0.7386 I-0.3895 J0.1814
X1.8609 Y-0.7946 I-0.3092 J0.7945
X1.4892 Y-0.8109 I-0.3498 J3.7367
G3 X1.3633 Y-0.8225 I0.0194 J-0.8975
X1.3224 Y-0.8436 I0.0147 J-0.0789
G1 X1.2722 Y-0.8937
G3 X1.2517 Y-0.9269 I0.0731 J-0.0682
G1 X1.2497 Y-0.9322 Z-1.3045
X1.2478 Y-0.9373 Z-1.3036
X1.2459 Y-0.9424 Z-1.3021
X1.2441 Y-0.9472 Z-1.2999
X1.2424 Y-0.9518 Z-1.2972
X1.2408 Y-0.9561 Z-1.2939
X1.2393 Y-0.96 Z-1.2902
X1.238 Y-0.9635 Z-1.286
X1.2369 Y-0.9666 Z-1.2815
X1.2359 Y-0.9691 Z-1.2766
X1.2352 Y-0.9711 Z-1.2714
X1.2346 Y-0.9726 Z-1.266
X1.2343 Y-0.9735 Z-1.2605
X1.2342 Y-0.9737 Z-1.2549
G0 Z0.105
X2.5828 Y0.3651
Z-1.2049
G1 Z-1.2549 F72.
X2.5825 Y0.365 Z-1.2605
X2.5816 Y0.3647 Z-1.266
X2.5801 Y0.3644 Z-1.2714
X2.578 Y0.3638 Z-1.2766
X2.5754 Y0.3632 Z-1.2815
X2.5722 Y0.3624 Z-1.286
X2.5686 Y0.3614 Z-1.2902
X2.5645 Y0.3604 Z-1.2939
X2.5601 Y0.3593 Z-1.2972
X2.5554 Y0.3581 Z-1.2999
X2.5503 Y0.3568 Z-1.3021
X2.5451 Y0.3555 Z-1.3036
X2.5398 Y0.3541 Z-1.3045
X2.5343 Y0.3527 Z-1.3049
G3 X2.4999 Y0.3339 I0.0195 J-0.0767
G1 X2.4639 Y0.298
G3 X2.402 Y0.1702 I0.2113 J-0.1814
X2.3707 Y-0.0425 I0.9018 J-0.2413
X2.3599 Y-0.3 I7.5268 J-0.4442
G2 X2.3114 Y-0.4933 I-0.5214 J0.028
X2.0792 Y-0.6962 I-0.3869 J0.2085
X1.8009 Y-0.7581 I-0.3304 J0.829
X1.4864 Y-0.7741 I-0.3572 J3.9192
G3 X1.404 Y-0.7841 I0.0294 J-0.5885
X1.3487 Y-0.8172 I0.0415 J-0.132
G1 X1.3224 Y-0.8436
G3 X1.3018 Y-0.8768 I0.0731 J-0.0682
G1 X1.2999 Y-0.882 Z-1.3045
X1.2979 Y-0.8872 Z-1.3036
X1.2961 Y-0.8922 Z-1.3021
X1.2942 Y-0.8971 Z-1.2999
X1.2925 Y-0.9017 Z-1.2972
X1.2909 Y-0.906 Z-1.2939
X1.2895 Y-0.9099 Z-1.2902
X1.2882 Y-0.9134 Z-1.286
X1.287 Y-0.9164 Z-1.2815
X1.2861 Y-0.919 Z-1.2766
X1.2853 Y-0.921 Z-1.2714
X1.2848 Y-0.9224 Z-1.266
X1.2844 Y-0.9233 Z-1.2605
X1.2843 Y-0.9236 Z-1.2549
G0 Z0.105
X2.5469 Y0.3291
Z-1.2049
G1 Z-1.2549 F72.
X2.5466 Y0.329 Z-1.2605
X2.5456 Y0.3288 Z-1.266
X2.5441 Y0.3284 Z-1.2714
X2.5421 Y0.3279 Z-1.2766
X2.5394 Y0.3272 Z-1.2815
X2.5363 Y0.3264 Z-1.286
X2.5327 Y0.3255 Z-1.2902
X2.5286 Y0.3245 Z-1.2939
X2.5242 Y0.3234 Z-1.2972
X2.5194 Y0.3221 Z-1.2999
X2.5144 Y0.3209 Z-1.3021
X2.5092 Y0.3195 Z-1.3036
X2.5038 Y0.3182 Z-1.3045
X2.4984 Y0.3168 Z-1.3049
G3 X2.4639 Y0.298 I0.0195 J-0.0767
G1 X2.4265 Y0.2606
G3 X2.3651 Y0.1327 I0.2179 J-0.1833
X2.3319 Y-0.1094 I1.0064 J-0.2611
G2 X2.3177 Y-0.3094 I-4.0085 J0.1842
X2.0479 Y-0.653 I-0.4256 J0.0564
X1.7991 Y-0.7157 I-0.3192 J0.7423
X1.5136 Y-0.7356 I-0.3706 J3.2496
G3 X1.4258 Y-0.7517 I0.0142 J-0.3263
G1 X1.4119 Y-0.7595
X1.3989 Y-0.7684
X1.3871 Y-0.7789
X1.3487 Y-0.8173
G3 X1.3282 Y-0.8504 I0.0731 J-0.0682
G1 X1.3262 Y-0.8557 Z-1.3045
X1.3243 Y-0.8609 Z-1.3036
X1.3224 Y-0.8659 Z-1.3021
X1.3206 Y-0.8708 Z-1.2999
X1.3188 Y-0.8754 Z-1.2972
X1.3172 Y-0.8796 Z-1.2939
X1.3158 Y-0.8836 Z-1.2902
X1.3145 Y-0.8871 Z-1.286
X1.3133 Y-0.8901 Z-1.2815
X1.3124 Y-0.8926 Z-1.2766
X1.3116 Y-0.8946 Z-1.2714
X1.3111 Y-0.8961 Z-1.266
X1.3108 Y-0.897 Z-1.2605
X1.3106 Y-0.8973 Z-1.2549
G0 Z0.105
X2.5094 Y0.2917
Z-1.2049
G1 Z-1.2549 F72.
X2.5091 Y0.2916 Z-1.2605
X2.5082 Y0.2914 Z-1.266
X2.5067 Y0.291 Z-1.2714
X2.5046 Y0.2905 Z-1.2766
X2.502 Y0.2898 Z-1.2815
X2.4989 Y0.289 Z-1.286
X2.4952 Y0.2881 Z-1.2902
X2.4912 Y0.2871 Z-1.2939
X2.4868 Y0.2859 Z-1.2972
X2.482 Y0.2847 Z-1.2999
X2.477 Y0.2834 Z-1.3021
X2.4718 Y0.2821 Z-1.3036
X2.4664 Y0.2808 Z-1.3045
X2.461 Y0.2794 Z-1.3049
G3 X2.4265 Y0.2606 I0.0195 J-0.0767
G1 X2.3901 Y0.2241
G3 X2.3282 Y0.0952 I0.2195 J-0.1848
X2.2962 Y-0.1188 I0.94 J-0.2498
G2 X2.2716 Y-0.3175 I-1.4119 J0.0736
X2.018 Y-0.6099 I-0.4215 J0.1095
X1.7701 Y-0.676 I-0.3264 J0.7251
X1.5201 Y-0.6987 I-0.4836 J3.9459
G3 X1.4407 Y-0.7267 I0.0177 J-0.1766
G1 X1.4266 Y-0.7393
X1.3871 Y-0.7789
G3 X1.3665 Y-0.8121 I0.0731 J-0.0682
G1 X1.3646 Y-0.8173 Z-1.3045
X1.3626 Y-0.8225 Z-1.3036
X1.3607 Y-0.8275 Z-1.3021
X1.3589 Y-0.8324 Z-1.2999
X1.3572 Y-0.837 Z-1.2972
X1.3556 Y-0.8413 Z-1.2939
X1.3541 Y-0.8452 Z-1.2902
X1.3528 Y-0.8487 Z-1.286
X1.3517 Y-0.8517 Z-1.2815
X1.3507 Y-0.8543 Z-1.2766
X1.35 Y-0.8563 Z-1.2714
X1.3494 Y-0.8577 Z-1.266
X1.3491 Y-0.8586 Z-1.2605
X1.349 Y-0.8589 Z-1.2549
G0 Z0.105
X2.473 Y0.2553
Z-1.2049
G1 Z-1.2549 F72.
X2.4727 Y0.2552 Z-1.2605
X2.4718 Y0.255 Z-1.266
X2.4703 Y0.2546 Z-1.2714
X2.4682 Y0.2541 Z-1.2766
X2.4656 Y0.2534 Z-1.2815
X2.4624 Y0.2526 Z-1.286
X2.4588 Y0.2517 Z-1.2902
X2.4548 Y0.2506 Z-1.2939
X2.4503 Y0.2495 Z-1.2972
X2.4456 Y0.2483 Z-1.2999
X2.4406 Y0.247 Z-1.3021
X2.4353 Y0.2457 Z-1.3036
X2.43 Y0.2443 Z-1.3045
X2.4246 Y0.243 Z-1.3049
G3 X2.3901 Y0.2241 I0.0195 J-0.0767
G1 X2.3537 Y0.1877
G3 X2.2912 Y0.0577 I0.2203 J-0.186
X2.2602 Y-0.1286 I0.9224 J-0.249
G2 X2.2206 Y-0.3246 I-0.8432 J0.0684
X1.9624 Y-0.5783 I-0.4192 J0.1684
X1.7133 Y-0.6403 I-0.3284 J0.7874
G3 X1.5373 Y-0.6616 I1.4928 J-13.061
X1.4676 Y-0.6983 I0.0268 J-0.1358
G1 X1.4266 Y-0.7393
G3 X1.4061 Y-0.7725 I0.0731 J-0.0682
G1 X1.4042 Y-0.7777 Z-1.3045
X1.4022 Y-0.7829 Z-1.3036
X1.4003 Y-0.7879 Z-1.3021
X1.3985 Y-0.7928 Z-1.2999
X1.3968 Y-0.7974 Z-1.2972
X1.3952 Y-0.8017 Z-1.2939
X1.3937 Y-0.8056 Z-1.2902
X1.3924 Y-0.8091 Z-1.286
X1.3913 Y-0.8121 Z-1.2815
X1.3903 Y-0.8147 Z-1.2766
X1.3896 Y-0.8167 Z-1.2714
X1.389 Y-0.8181 Z-1.266
X1.3887 Y-0.819 Z-1.2605
X1.3886 Y-0.8193 Z-1.2549
G0 Z0.105
X2.4366 Y0.2189
Z-1.2049
G1 Z-1.2549 F72.
X2.4363 Y0.2188 Z-1.2605
X2.4354 Y0.2186 Z-1.266
X2.4339 Y0.2182 Z-1.2714
X2.4318 Y0.2176 Z-1.2766
X2.4292 Y0.217 Z-1.2815
X2.426 Y0.2162 Z-1.286
X2.4224 Y0.2153 Z-1.2902
X2.4184 Y0.2142 Z-1.2939
X2.4139 Y0.2131 Z-1.2972
X2.4092 Y0.2119 Z-1.2999
X2.4042 Y0.2106 Z-1.3021
X2.3989 Y0.2093 Z-1.3036
X2.3936 Y0.2079 Z-1.3045
X2.3881 Y0.2065 Z-1.3049
G3 X2.3537 Y0.1877 I0.0195 J-0.0767
G1 X2.3178 Y0.1518
G3 X2.2537 Y0.019 I0.2205 J-0.1881
X2.2222 Y-0.144 I1.0907 J-0.2955
G2 X2.1622 Y-0.3343 I-0.6198 J0.0908
X1.9027 Y-0.5484 I-0.4146 J0.2384
X1.6807 Y-0.6024 I-0.3263 J0.8573
G3 X1.5567 Y-0.6248 I0.1072 J-0.9492
G1 X1.5402 Y-0.633
X1.5248 Y-0.643
X1.511 Y-0.655
X1.4676 Y-0.6983
G3 X1.4558 Y-0.7139 I0.072 J-0.0671
G1 X1.4557 Y-0.714
G3 X1.4472 Y-0.7316 I0.0839 J-0.0515
X1.4623 Y-0.8264 I0.0924 J-0.0339 F300.
G1 X1.4624 Y-0.8265
G3 X1.5749 Y-0.8573 I0.0772 J0.061
G1 X2.0535 Y-0.6465
X2.1374 Y-0.5903
X2.2012 Y-0.5341
X2.2505 Y-0.4756
X2.306 Y-0.386
X2.3489 Y-0.253
X2.4481 Y0.0731
G3 X2.3518 Y0.1705 I-0.0763 J0.0208
X2.3178 Y0.1518 I0.0199 J-0.0766 F72.
G1 X2.2803 Y0.1143
G3 X2.2198 Y-0.0052 I0.2147 J-0.1838
X2.1788 Y-0.1686 I2.2968 J-0.6625
G2 X2.0548 Y-0.3915 I-0.4888 J0.126
X1.7799 Y-0.5374 I-0.4021 J0.4258
X1.6166 Y-0.5739 I-0.6899 J2.7015
G3 X1.5578 Y-0.608 I0.0377 J-0.1324
G1 X1.511 Y-0.655
G3 X1.4906 Y-0.6882 I0.072 J-0.0671
X1.4849 Y-0.714 I0.0924 J-0.0339 F300.
G1 X1.4846 Y-0.7252
G3 X1.6311 Y-0.8079 I0.0984 J0.0031
G1 X2.0759 Y-0.5701
X2.1289 Y-0.5289
X2.2069 Y-0.4484
X2.2617 Y-0.3654
X2.2904 Y-0.3092
X2.4081 Y0.0281
G3 X2.3144 Y0.1331 I-0.0739 J0.0283
X2.2803 Y0.1143 I0.0199 J-0.0766 F72.
G1 X2.2439 Y0.0779
G3 X2.1786 Y-0.0482 I0.2371 J-0.2027
G2 X2.1318 Y-0.1836 I-4.596 J1.5116
X1.8302 Y-0.4711 I-0.4678 J0.1887
X1.6633 Y-0.5229 I-0.4474 J1.147
G3 X1.6105 Y-0.5554 I0.0455 J-0.1332
G1 X1.5579 Y-0.6081
G3 X1.5375 Y-0.6413 I0.072 J-0.0671
X1.6816 Y-0.7589 I0.0924 J-0.0339 F300.
G1 X2.0814 Y-0.5003
X2.1542 Y-0.4329
X2.2053 Y-0.3654
X2.3678 Y-0.0168
G3 X2.278 Y0.0967 I-0.07 J0.0369
X2.2439 Y0.0779 I0.0199 J-0.0766 F72.
G1 X2.2053 Y0.0394
G3 X2.145 Y-0.0603 I0.2454 J-0.2166
G2 X2.0694 Y-0.2144 I-1.2998 J0.5416
X1.7815 Y-0.4393 I-0.4657 J0.2997
G3 X1.7023 Y-0.4708 I1.112 J-2.9086
G1 X1.6868 Y-0.4811
X1.6727 Y-0.4932
X1.6105 Y-0.5554
G3 X1.59 Y-0.5886 I0.0731 J-0.0682
X1.7544 Y-0.6943 I0.0937 J-0.035 F300.
G1 X2.3442 Y-0.1045
G3 X2.2385 Y0.0599 I-0.0707 J0.0707
X2.2053 Y0.0394 I0.035 J-0.0937 F72.
G1 X2.1603 Y-0.0056
G3 X2.0794 Y-0.1253 I0.4592 J-0.3979
G2 X1.9098 Y-0.3173 I-0.5727 J0.3349
X1.7751 Y-0.3946 I-0.5272 J0.7632
G1 X1.7638 Y-0.4033
X1.7532 Y-0.4127
X1.6727 Y-0.4932
G3 X1.6522 Y-0.5264 I0.0731 J-0.0682
X1.8165 Y-0.6322 I0.0937 J-0.035 F300.
G1 X2.2993 Y-0.1494
G3 X2.1935 Y0.0149 I-0.0707 J0.0707
X2.1603 Y-0.0056 I0.035 J-0.0937 F72.
G1 X2.0816 Y-0.0843
G2 X1.9452 Y-0.231 I-1.6615 J1.4081
G3 X1.8866 Y-0.2792 I0.6895 J-0.9001
G1 X1.8814 Y-0.2851
X1.8768 Y-0.2915
X1.8727 Y-0.2982
X1.8691 Y-0.3052
X1.8661 Y-0.3125
G3 X2.0305 Y-0.4182 I0.0937 J-0.035 F300.
G1 X2.2206 Y-0.2282
G3 X2.1148 Y-0.0638 I-0.0707 J0.0707
X2.0816 Y-0.0843 I0.035 J-0.0937 F72.
G1 X1.7532 Y-0.4127
G3 X1.7327 Y-0.4459 I0.0731 J-0.0682
G1 X1.7307 Y-0.4511 Z-1.3045
X1.7288 Y-0.4563 Z-1.3036
X1.7269 Y-0.4614 Z-1.3021
X1.7251 Y-0.4662 Z-1.2999
X1.7234 Y-0.4708 Z-1.2972
X1.7218 Y-0.4751 Z-1.2939
X1.7203 Y-0.479 Z-1.2902
X1.719 Y-0.4825 Z-1.286
X1.7179 Y-0.4856 Z-1.2815
X1.7169 Y-0.4881 Z-1.2766
X1.7162 Y-0.4901 Z-1.2714
X1.7156 Y-0.4916 Z-1.266
X1.7153 Y-0.4924 Z-1.2605
X1.7152 Y-0.4927 Z-1.2549
G0 Z0.105
X2.1022 Y1.1994
Z-1.2049
G1 Z-1.2549 F72.
X2.1024 Y1.1992 Z-1.2605
X2.103 Y1.1985 Z-1.266
X2.1041 Y1.1973 Z-1.2714
X2.1055 Y1.1957 Z-1.2766
X2.1073 Y1.1937 Z-1.2815
X2.1094 Y1.1913 Z-1.286
X2.1119 Y1.1885 Z-1.2902
X2.1147 Y1.1854 Z-1.2939
X2.1177 Y1.1819 Z-1.2972
X2.121 Y1.1783 Z-1.2999
X2.1244 Y1.1744 Z-1.3021
X2.128 Y1.1704 Z-1.3036
X2.1317 Y1.1662 Z-1.3045
X2.1354 Y1.162 Z-1.3049
G3 X2.1679 Y1.14 I0.0592 J0.0525
G2 X2.2498 Y1.1107 I-0.2977 J-0.9586
G3 X2.3549 Y1.0861 I0.1846 J0.5517
G2 X2.5945 Y0.876 I-0.0764 J-0.3289
G1 X2.6009 Y0.8654
X2.6074 Y0.8551
X2.6149 Y0.8454
G2 X2.6934 Y0.7385 I-0.6503 J-0.559
G1 X2.6976 Y0.7319
X2.7024 Y0.7257
X2.7077 Y0.7199
X2.7134 Y0.7145
X2.7195 Y0.7095
G3 X2.8431 Y0.8666 I0.0591 J0.0807 F300.
G1 X2.3569 Y1.2776
G3 X2.2184 Y1.1339 I-0.0646 J-0.0764
X2.2498 Y1.1107 I0.074 J0.0673 F72.
G2 X2.615 Y0.8455 I-0.3645 J-0.886
G1 X2.6205 Y0.8399
X2.6265 Y0.8347
X2.6328 Y0.8301
X2.6394 Y0.826
X2.6464 Y0.8223
X2.6515 Y0.82 Z-1.3045
X2.6565 Y0.8176 Z-1.3036
X2.6614 Y0.8154 Z-1.3021
X2.6661 Y0.8132 Z-1.2999
X2.6705 Y0.8111 Z-1.2972
X2.6747 Y0.8092 Z-1.2939
X2.6785 Y0.8074 Z-1.2902
X2.6818 Y0.8058 Z-1.286
X2.6848 Y0.8045 Z-1.2815
X2.6872 Y0.8033 Z-1.2766
X2.6892 Y0.8024 Z-1.2714
X2.6906 Y0.8018 Z-1.266
X2.6915 Y0.8014 Z-1.2605
X2.6917 Y0.8012 Z-1.2549
G0 Z0.205
M5
M9
G90
G0 Z1.
M30

